; generated by PrusaSlicer 2.4.1+linux-x64-GTK2 on 2022-03-25 at 02:10:22 UTC

; 

; external perimeters extrusion width = 0.45mm
; perimeters extrusion width = 0.45mm
; infill extrusion width = 0.45mm
; solid infill extrusion width = 0.45mm
; top infill extrusion width = 0.40mm
; support material extrusion width = 0.38mm
; first layer extrusion width = 0.42mm

M107
;TYPE:Custom
G90 ; use absolute coordinates
M83 ; extruder relative mode
M140 S90 ; set final bed temp
M104 S150 ; set temporary nozzle temp to prevent oozing during homing
G4 S10 ; allow partial nozzle warmup
G28 ; home all axis
G1 Z50 F240
G1 X2 Y10 F3000
M104 S250 ; set final nozzle temp
M190 S90 ; wait for bed temp to stabilize
M109 S250 ; wait for nozzle temp to stabilize
G1 Z0.28 F240
G92 E0
G1 Y140 E10 F1500 ; prime the nozzle
G1 X2.3 F5000
G92 E0
G1 Y10 E10 F1200 ; prime the nozzle
G92 E0
G21 ; set units to millimeters
G90 ; use absolute coordinates
M83 ; use relative distances for extrusion
; Filament gcode
M107
;LAYER_CHANGE
;Z:0.1
;HEIGHT:0.1
;BEFORE_LAYER_CHANGE
G92 E0
;0.1


G1 E-6 F3600
G1 Z.1 F9000
;AFTER_LAYER_CHANGE
;0.1
G1 X131.353 Y67.081
G1 E6 F2400
M204 S500
;TYPE:Skirt/Brim
;WIDTH:0.42
G1 F1200
G1 X131.913 Y66.25 E.0166
G1 X134.282 Y63.62 E.05865
G1 X135.902 Y62.191 E.03581
G1 X137.296 Y61.255 E.02782
G1 X138.509 Y60.616 E.02272
G1 X139.75 Y60.078 E.0224
G1 X141.352 Y59.578 E.02781
G1 X143.241 Y59.232 E.03183
G1 X144.84 Y59.13 E.02655
G1 X165.402 Y59.138 E.3407
G1 X167.037 Y59.269 E.02718
G1 X168.957 Y59.659 E.03246
G1 X170.738 Y60.267 E.03118
G1 X172.664 Y61.232 E.0357
G1 X174.068 Y62.169 E.02796
G1 X175.687 Y63.589 E.03568
G1 X178.087 Y66.25 E.05938
G1 X178.909 Y67.774 E.02869
G1 X179.041 Y68.767 E.0166
G1 X179.041 Y98.145 E.48678
G1 X178.254 Y100.46 E.04052
G1 X177.141 Y101.866 E.02971
G1 X175.718 Y103.434 E.03508
G1 X175.14 Y103.991 E.01331
G1 X173.642 Y105.191 E.03179
G1 X172.219 Y106.08 E.02781
G1 X170.478 Y106.892 E.03184
G1 X168.648 Y107.476 E.03182
G1 X167.076 Y107.781 E.02654
G1 X165.16 Y107.924 E.03183
G1 X144.598 Y107.916 E.3407
G1 X142.924 Y107.781 E.02782
G1 X141.043 Y107.395 E.03182
G1 X139.262 Y106.787 E.03118
G1 X137.537 Y105.943 E.03183
G1 X135.924 Y104.878 E.03203
G1 X134.314 Y103.466 E.03547
G1 X131.913 Y100.804 E.05941
G1 X131.091 Y99.28 E.02869
G1 X130.959 Y98.287 E.0166
G1 X130.959 Y68.767 E.48914
G1 X131.34 Y67.139 E.02769
G1 X131.894 Y67.349 F9000
G1 F1200
G1 X132.211 Y66.514 E.01481
G1 X134.727 Y63.733 E.06213
G1 X136.396 Y62.32 E.03624
G1 X137.698 Y61.477 E.0257
G1 X139.177 Y60.738 E.0274
G1 X141.664 Y59.916 E.0434
G1 X143.292 Y59.627 E.02739
G1 X144.84 Y59.528 E.0257
G1 X165.377 Y59.535 E.34027
G1 X166.681 Y59.625 E.02166
G1 X167.771 Y59.806 E.01832
G1 X168.856 Y60.044 E.0184
G1 X170.106 Y60.45 E.02178
G1 X171.999 Y61.309 E.03444
G1 X173.582 Y62.306 E.03099
G1 X175.247 Y63.709 E.03608
G1 X177.789 Y66.514 E.06273
G1 X178.643 Y68.767 E.03992
G1 X178.643 Y98.145 E.48678
G1 X177.938 Y100.217 E.03627
G1 X176.829 Y101.617 E.0296
G1 X175.424 Y103.165 E.03463
G1 X173.426 Y104.857 E.04339
G1 X172.024 Y105.732 E.02738
G1 X170.329 Y106.523 E.03099
G1 X168.547 Y107.09 E.03097
G1 X167.025 Y107.385 E.0257
G1 X165.16 Y107.525 E.03099
G1 X144.84 Y107.525 E.33668
G1 X143.508 Y107.447 E.02211
G1 X140.936 Y106.948 E.04341
G1 X139.41 Y106.417 E.02677
G1 X137.551 Y105.487 E.03445
G1 X136.161 Y104.558 E.02771
G1 X134.984 Y103.566 E.02549
G1 X132.211 Y100.54 E.06801
G1 X131.357 Y98.287 E.03992
G1 X131.357 Y68.767 E.48914
G1 X131.873 Y67.405 E.02412
G1 E-4.2 F3600
;WIPE_START
G1 F7200
G1 X132.211 Y66.514 E-.45295
G1 X133.987 Y64.551 E-1.25705
;WIPE_END
G1 E-.09 F3600
G1 X155.567 Y69.886 F9000
G1 E6 F2400
G1 F1200
G1 X155.851 Y68.649 E.02103
G1 X156.464 Y67.5 E.02157
G1 X157.515 Y66.345 E.02589
G1 X158.535 Y65.485 E.02211
G1 X159.65 Y64.757 E.02205
G1 X160.943 Y64.132 E.0238
G1 X162.333 Y63.677 E.02423
G1 X163.685 Y63.424 E.02279
G1 X164.928 Y63.344 E.02063
G1 X166.188 Y63.41 E.02091
G1 X167.77 Y63.704 E.02667
G1 X169.098 Y64.149 E.02321
G1 X170.311 Y64.735 E.02231
G1 X171.456 Y65.478 E.02262
G1 X172.503 Y66.363 E.02271
G1 X173.518 Y67.481 E.02502
G1 X174.015 Y68.317 E.01611
G1 X174.391 Y69.573 E.02172
G1 X174.433 Y78.468 E.14739
G1 X174.109 Y79.81 E.02287
G1 X173.535 Y80.855 E.01977
G1 X172.542 Y81.953 E.02452
G1 X171.464 Y82.869 E.02345
G1 X170.459 Y83.524 E.01987
G1 X171.457 Y84.179 E.01976
G1 X172.427 Y84.991 E.02097
G1 X173.42 Y86.053 E.02409
G1 X173.991 Y86.966 E.01785
G1 X174.426 Y88.508 E.02654
G1 X174.433 Y97.168 E.14348
G1 X174.149 Y98.405 E.02103
G1 X173.623 Y99.429 E.01908
G1 X172.584 Y100.612 E.0261
G1 X171.421 Y101.601 E.02529
G1 X170.239 Y102.358 E.02326
G1 X169.094 Y102.906 E.02104
G1 X167.915 Y103.31 E.02064
G1 X166.49 Y103.606 E.02412
G1 X165.057 Y103.709 E.0238
G1 X163.701 Y103.631 E.0225
G1 X162.341 Y103.378 E.02292
G1 X161.026 Y102.954 E.0229
G1 X159.581 Y102.258 E.02657
G1 X158.562 Y101.589 E.0202
G1 X157.599 Y100.787 E.02077
G1 X156.582 Y99.702 E.02464
G1 X155.987 Y98.741 E.01872
G1 X155.609 Y97.481 E.0218
G1 X155.567 Y88.586 E.1474
G1 X155.891 Y87.244 E.02287
G1 X156.465 Y86.198 E.01977
G1 X157.458 Y85.101 E.02452
G1 X158.536 Y84.184 E.02345
G1 X159.539 Y83.53 E.01985
G1 X158.544 Y82.876 E.01974
G1 X157.597 Y82.086 E.02043
G1 X156.584 Y81.005 E.02454
G1 X156.01 Y80.09 E.01791
G1 X155.574 Y78.546 E.02658
G1 X155.567 Y69.946 E.14249
G1 X155.965 Y69.946 F9000
G1 F1200
G1 X156.233 Y68.765 E.02006
G1 X156.775 Y67.75 E.01907
G1 X157.783 Y66.641 E.02483
G1 X158.763 Y65.812 E.02128
G1 X159.857 Y65.098 E.02163
G1 X161.104 Y64.497 E.02295
G1 X162.42 Y64.067 E.02294
G1 X163.723 Y63.821 E.02197
G1 X164.941 Y63.743 E.02023
G1 X166.153 Y63.807 E.02011
G1 X167.683 Y64.094 E.02578
G1 X168.959 Y64.523 E.02231
G1 X170.125 Y65.088 E.02148
G1 X171.209 Y65.791 E.02139
G1 X172.218 Y66.642 E.02187
G1 X173.187 Y67.704 E.02384
G1 X173.64 Y68.456 E.01454
G1 X174.001 Y69.66 E.02082
G1 X174.035 Y78.445 E.14556
G1 X173.729 Y79.688 E.02122
G1 X173.224 Y80.605 E.01734
G1 X172.256 Y81.675 E.02392
G1 X171.216 Y82.557 E.02258
G1 X170.122 Y83.267 E.02162
G1 X169.596 Y83.528 E.00972
G1 X170.191 Y83.826 E.01102
G1 X171.21 Y84.492 E.02017
G1 X172.162 Y85.289 E.02057
G1 X173.094 Y86.284 E.02259
G1 X173.616 Y87.103 E.0161
G1 X174.035 Y88.59 E.02559
G1 X174.035 Y97.144 E.14174
G1 X173.767 Y98.289 E.01948
G1 X173.281 Y99.223 E.01744
G1 X172.295 Y100.337 E.02466
G1 X171.195 Y101.273 E.02393
G1 X170.056 Y102.004 E.02243
G1 X168.954 Y102.533 E.02025
G1 X167.798 Y102.929 E.02024
G1 X166.448 Y103.21 E.02285
G1 X165.067 Y103.311 E.02294
G1 X163.737 Y103.234 E.02207
G1 X162.428 Y102.989 E.02207
G1 X161.163 Y102.579 E.02204
G1 X159.767 Y101.905 E.02568
G1 X158.79 Y101.262 E.01937
G1 X157.88 Y100.505 E.01962
G1 X156.908 Y99.473 E.02348
G1 X156.361 Y98.601 E.01707
G1 X155.999 Y97.394 E.02087
G1 X155.965 Y88.609 E.14557
G1 X156.271 Y87.365 E.02122
G1 X156.776 Y86.449 E.01734
G1 X157.744 Y85.378 E.02392
G1 X158.784 Y84.497 E.02258
G1 X159.881 Y83.785 E.02167
G1 X160.416 Y83.522 E.00988
G1 X159.792 Y83.219 E.0115
G1 X158.79 Y82.562 E.01984
G1 X157.862 Y81.787 E.02004
G1 X156.91 Y80.775 E.02303
G1 X156.385 Y79.952 E.01616
G1 X155.965 Y78.464 E.02563
G1 X155.965 Y70.006 E.14014
G1 X156.364 Y70.006 F9000
G1 F1200
G1 X156.364 Y69.933 E.00121
G1 X156.614 Y68.883 E.01789
G1 X157.087 Y68 E.0166
G1 X158.051 Y66.937 E.02377
G1 X159.011 Y66.124 E.02085
G1 X160.063 Y65.439 E.0208
G1 X161.241 Y64.872 E.02167
G1 X162.507 Y64.456 E.02208
G1 X163.761 Y64.218 E.02115
G1 X164.932 Y64.141 E.01944
G1 X166.119 Y64.204 E.01969
G1 X167.595 Y64.482 E.02489
G1 X168.819 Y64.896 E.02141
G1 X169.94 Y65.441 E.02066
G1 X170.962 Y66.104 E.02018
G1 X171.933 Y66.921 E.02103
G1 X172.858 Y67.929 E.02268
G1 X173.266 Y68.596 E.01294
G1 X173.611 Y69.746 E.0199
G1 X173.636 Y78.42 E.14372
G1 X173.349 Y79.566 E.01957
G1 X172.913 Y80.354 E.01493
G1 X171.969 Y81.398 E.02332
G1 X170.989 Y82.23 E.02129
G1 X169.916 Y82.926 E.02119
G1 X168.685 Y83.524 E.02268
G1 X169.984 Y84.166 E.024
G1 X170.982 Y84.819 E.01976
G1 X171.896 Y85.586 E.01978
G1 X172.791 Y86.543 E.0217
G1 X173.241 Y87.242 E.01378
G1 X173.636 Y88.618 E.02372
G1 X173.636 Y97.12 E.14088
G1 X173.385 Y98.171 E.0179
G1 X172.941 Y99.015 E.0158
G1 X172.007 Y100.061 E.02324
G1 X170.968 Y100.945 E.02261
G1 X169.872 Y101.651 E.0216
G1 X168.813 Y102.16 E.01946
G1 X167.681 Y102.548 E.01984
G1 X166.38 Y102.817 E.02201
G1 X165.076 Y102.912 E.02166
G1 X163.797 Y102.84 E.02123
G1 X162.538 Y102.606 E.02123
G1 X161.323 Y102.214 E.02115
G1 X159.975 Y101.564 E.02479
G1 X159.019 Y100.935 E.01896
G1 X158.145 Y100.207 E.01886
G1 X157.211 Y99.214 E.02258
G1 X156.735 Y98.46 E.01478
G1 X156.389 Y97.308 E.01993
G1 X156.364 Y88.633 E.14373
G1 X156.651 Y87.488 E.01957
G1 X157.087 Y86.699 E.01493
G1 X158.031 Y85.655 E.02332
G1 X159.011 Y84.824 E.0213
G1 X160.086 Y84.127 E.02123
G1 X161.343 Y83.522 E.02311
G1 X159.998 Y82.878 E.02471
G1 X159.019 Y82.235 E.01941
G1 X158.127 Y81.489 E.01926
G1 X157.212 Y80.515 E.02214
G1 X156.76 Y79.813 E.01383
G1 X156.364 Y78.436 E.02375
G1 X156.364 Y70.066 E.13868
G1 X156.762 Y70.066 F9000
G1 F1200
G1 X156.762 Y69.958 E.0018
G1 X156.995 Y69.003 E.01629
G1 X157.399 Y68.249 E.01417
G1 X158.319 Y67.232 E.02272
G1 X159.239 Y66.451 E.02
G1 X160.27 Y65.78 E.02038
G1 X161.402 Y65.237 E.02081
G1 X162.595 Y64.845 E.0208
G1 X163.8 Y64.615 E.02032
G1 X164.946 Y64.54 E.01904
G1 X166.084 Y64.601 E.01888
G1 X167.507 Y64.871 E.024
G1 X168.679 Y65.269 E.02051
G1 X169.754 Y65.794 E.01983
G1 X170.715 Y66.417 E.01897
G1 X171.649 Y67.201 E.0202
G1 X172.531 Y68.157 E.02156
G1 X172.892 Y68.736 E.01131
G1 X173.221 Y69.833 E.01897
G1 X173.238 Y78.395 E.14187
G1 X172.969 Y79.442 E.0179
G1 X172.602 Y80.104 E.01256
G1 X171.7 Y81.103 E.02229
G1 X170.761 Y81.902 E.02044
G1 X169.71 Y82.585 E.02076
G1 X168.673 Y83.086 E.01908
G1 X167.804 Y83.385 E.01524
G1 X167.803 Y83.669 E.00471
G1 X168.725 Y83.989 E.01617
G1 X169.776 Y84.506 E.0194
G1 X170.754 Y85.146 E.01936
G1 X171.631 Y85.883 E.01899
G1 X172.488 Y86.803 E.02083
G1 X172.868 Y87.383 E.01149
G1 X173.238 Y88.647 E.02182
G1 X173.238 Y97.096 E.13999
G1 X173.005 Y98.051 E.01629
G1 X172.601 Y98.805 E.01416
G1 X171.72 Y99.785 E.02184
G1 X170.74 Y100.618 E.0213
G1 X169.688 Y101.297 E.02076
G1 X168.651 Y101.795 E.01906
G1 X167.564 Y102.167 E.01904
G1 X166.337 Y102.421 E.02075
G1 X165.085 Y102.513 E.02081
G1 X163.857 Y102.446 E.02038
G1 X162.647 Y102.222 E.02038
G1 X161.483 Y101.848 E.02026
G1 X160.182 Y101.224 E.02391
G1 X159.265 Y100.622 E.01817
G1 X158.41 Y99.908 E.01846
G1 X157.515 Y98.954 E.02167
G1 X157.108 Y98.318 E.0125
G1 X156.779 Y97.221 E.01899
G1 X156.762 Y88.658 E.14188
G1 X157.031 Y87.612 E.0179
G1 X157.398 Y86.949 E.01256
G1 X158.3 Y85.95 E.02229
G1 X159.239 Y85.151 E.02044
G1 X160.292 Y84.468 E.0208
G1 X161.402 Y83.936 E.02039
G1 X162.203 Y83.67 E.01398
G1 X162.202 Y83.381 E.00479
G1 X161.509 Y83.159 E.01206
G1 X160.206 Y82.537 E.02392
G1 X159.247 Y81.908 E.01899
G1 X158.392 Y81.192 E.01848
G1 X157.515 Y80.255 E.02127
G1 X157.133 Y79.672 E.01154
G1 X156.762 Y78.407 E.02185
G1 X156.762 Y70.126 E.1372
G1 X157.161 Y70.126 F9000
G1 F1200
G1 X157.161 Y69.983 E.00238
G1 X157.376 Y69.124 E.01467
G1 X157.711 Y68.498 E.01177
G1 X158.586 Y67.527 E.02166
G1 X159.487 Y66.763 E.01957
G1 X160.476 Y66.122 E.01953
G1 X161.539 Y65.611 E.01955
G1 X162.683 Y65.234 E.01995
G1 X163.839 Y65.012 E.0195
G1 X164.937 Y64.938 E.01824
G1 X166.049 Y64.999 E.01845
G1 X167.418 Y65.26 E.02309
G1 X168.538 Y65.642 E.01961
G1 X169.568 Y66.147 E.01901
G1 X170.488 Y66.745 E.01817
G1 X171.365 Y67.481 E.01898
G1 X172.205 Y68.388 E.02049
G1 X172.519 Y68.878 E.00964
G1 X172.831 Y69.919 E.01801
G1 X172.839 Y78.37 E.14003
G1 X172.607 Y79.273 E.01544
G1 X172.29 Y79.855 E.01099
G1 X171.414 Y80.826 E.02167
G1 X170.513 Y81.59 E.01956
G1 X169.525 Y82.231 E.01952
G1 X168.511 Y82.722 E.01867
G1 X167.448 Y83.085 E.01862
G1 X166.037 Y83.367 E.02383
G1 X166.038 Y83.694 E.00543
G1 X167.444 Y83.967 E.02374
G1 X168.56 Y84.352 E.01956
G1 X169.589 Y84.858 E.01899
G1 X170.507 Y85.459 E.01817
G1 X171.348 Y86.164 E.01819
G1 X172.186 Y87.063 E.02037
G1 X172.495 Y87.527 E.00924
G1 X172.839 Y88.677 E.01988
G1 X172.839 Y97.071 E.13909
G1 X172.624 Y97.93 E.01467
G1 X172.289 Y98.556 E.01177
G1 X171.432 Y99.508 E.02122
G1 X170.513 Y100.29 E.02
G1 X169.503 Y100.944 E.01993
G1 X168.511 Y101.422 E.01825
G1 X167.447 Y101.785 E.01863
G1 X166.27 Y102.028 E.01992
G1 X165.094 Y102.115 E.01954
G1 X163.916 Y102.051 E.01954
G1 X162.756 Y101.839 E.01954
G1 X161.642 Y101.483 E.01937
G1 X160.39 Y100.883 E.02301
G1 X159.494 Y100.295 E.01775
G1 X158.675 Y99.611 E.01769
G1 X157.817 Y98.695 E.02079
G1 X157.482 Y98.176 E.01023
G1 X157.169 Y97.134 E.01803
G1 X157.161 Y88.683 E.14003
G1 X157.393 Y87.781 E.01544
G1 X157.71 Y87.198 E.01099
G1 X158.586 Y86.227 E.02167
G1 X159.487 Y85.463 E.01957
G1 X160.476 Y84.822 E.01953
G1 X161.563 Y84.302 E.01997
G1 X162.658 Y83.94 E.01912
G1 X163.951 Y83.688 E.02182
G1 X163.949 Y83.358 E.00547
G1 X162.756 Y83.139 E.0201
G1 X161.668 Y82.793 E.01892
G1 X160.389 Y82.183 E.02346
G1 X159.494 Y81.595 E.01775
G1 X158.675 Y80.911 E.01769
G1 X157.816 Y79.994 E.02081
G1 X157.506 Y79.528 E.00927
G1 X157.161 Y78.377 E.01991
G1 X157.161 Y70.186 E.13572
G1 X157.559 Y70.186 F9000
G1 F1200
G1 X157.559 Y70.008 E.00294
G1 X157.756 Y69.247 E.01303
G1 X158.023 Y68.746 E.00941
G1 X158.855 Y67.822 E.0206
G1 X159.715 Y67.091 E.0187
G1 X160.682 Y66.463 E.0191
G1 X161.7 Y65.976 E.0187
G1 X162.771 Y65.622 E.01869
G1 X163.878 Y65.408 E.01867
G1 X164.951 Y65.337 E.01782
G1 X166.013 Y65.396 E.01763
G1 X167.328 Y65.649 E.02219
G1 X168.396 Y66.015 E.0187
G1 X169.381 Y66.499 E.01818
G1 X170.26 Y67.072 E.01738
G1 X171.082 Y67.762 E.01778
G1 X171.883 Y68.622 E.01948
G1 X172.146 Y69.022 E.00793
G1 X172.441 Y70.006 E.01702
G1 X172.441 Y78.345 E.13818
G1 X172.244 Y79.107 E.01303
G1 X171.977 Y79.607 E.00941
G1 X171.145 Y80.532 E.0206
G1 X170.285 Y81.263 E.0187
G1 X169.319 Y81.89 E.01909
G1 X168.349 Y82.358 E.01784
G1 X167.331 Y82.704 E.01782
G1 X166.227 Y82.931 E.01867
G1 X165.102 Y83.016 E.0187
G1 X163.974 Y82.957 E.0187
G1 X162.864 Y82.755 E.0187
G1 X161.801 Y82.417 E.01848
G1 X160.596 Y81.842 E.02212
G1 X159.74 Y81.282 E.01695
G1 X158.94 Y80.613 E.01729
G1 X158.119 Y79.734 E.01991
G1 X157.855 Y79.333 E.00796
G1 X157.559 Y78.348 E.01704
G1 X157.559 Y70.246 E.13424
G1 X157.958 Y70.246 F9000
G1 F1200
G1 X157.958 Y70.035 E.00349
G1 X158.134 Y69.372 E.01137
G1 X158.336 Y68.994 E.0071
G1 X159.124 Y68.116 E.01954
G1 X159.943 Y67.418 E.01784
G1 X160.866 Y66.817 E.01825
G1 X161.838 Y66.35 E.01785
G1 X162.86 Y66.011 E.01785
G1 X163.917 Y65.805 E.01784
G1 X164.941 Y65.736 E.01701
G1 X165.978 Y65.793 E.0172
G1 X167.213 Y66.03 E.02084
G1 X168.233 Y66.379 E.01785
G1 X169.174 Y66.84 E.01737
G1 X170.032 Y67.399 E.01697
G1 X170.816 Y68.058 E.01698
G1 X171.579 Y68.88 E.01858
G1 X171.796 Y69.215 E.00661
G1 X172.042 Y70.035 E.01419
G1 X172.042 Y78.318 E.13725
G1 X171.866 Y78.981 E.01137
G1 X171.664 Y79.359 E.0071
G1 X170.876 Y80.237 E.01954
G1 X170.057 Y80.936 E.01784
G1 X169.134 Y81.537 E.01824
G1 X168.187 Y81.994 E.01742
G1 X167.215 Y82.322 E.017
G1 X166.16 Y82.538 E.01784
G1 X165.085 Y82.618 E.01786
G1 X164.009 Y82.56 E.01786
G1 X162.949 Y82.365 E.01786
G1 X161.936 Y82.042 E.01763
G1 X160.803 Y81.502 E.02078
G1 X159.969 Y80.955 E.01654
G1 X159.205 Y80.315 E.0165
G1 X158.423 Y79.476 E.01901
G1 X158.204 Y79.14 E.00664
G1 X157.958 Y78.319 E.01421
G1 X157.958 Y70.306 E.13276
G1 X158.357 Y70.306 F9000
G1 F1200
G1 X158.357 Y70.063 E.00402
G1 X158.512 Y69.5 E.00968
G1 X158.649 Y69.242 E.00484
G1 X159.393 Y68.41 E.01848
G1 X160.172 Y67.744 E.01699
G1 X161.051 Y67.17 E.0174
G1 X161.976 Y66.724 E.01701
G1 X162.95 Y66.4 E.01701
G1 X163.957 Y66.202 E.01701
G1 X164.956 Y66.134 E.01659
G1 X165.942 Y66.19 E.01636
G1 X167.098 Y66.412 E.01951
G1 X168.069 Y66.743 E.017
G1 X168.967 Y67.18 E.01654
G1 X169.804 Y67.726 E.01656
G1 X170.549 Y68.355 E.01616
G1 X171.274 Y69.137 E.01766
G1 X171.445 Y69.406 E.00528
G1 X171.643 Y70.064 E.0114
G1 X171.643 Y78.29 E.1363
G1 X171.488 Y78.854 E.00968
