; generated by PrusaSlicer 2.4.1+linux-x64-GTK2 on 2022-04-03 at 18:37:58 UTC

; 

; external perimeters extrusion width = 0.45mm
; perimeters extrusion width = 0.45mm
; infill extrusion width = 0.45mm
; solid infill extrusion width = 0.45mm
; top infill extrusion width = 0.40mm
; first layer extrusion width = 0.42mm

M107
;TYPE:Custom
G90 ; use absolute coordinates
M83 ; extruder relative mode
M140 S90 ; set final bed temp
M104 S150 ; set temporary nozzle temp to prevent oozing during homing
G4 S10 ; allow partial nozzle warmup
G28 ; home all axis
G1 Z50 F240
G1 X2 Y10 F3000
M104 S255 ; set final nozzle temp
M190 S90 ; wait for bed temp to stabilize
M109 S255 ; wait for nozzle temp to stabilize
G1 Z0.28 F240
G92 E0
G1 Y140 E10 F1500 ; prime the nozzle
G1 X2.3 F5000
G92 E0
G1 Y10 E10 F1200 ; prime the nozzle
G92 E0
G21 ; set units to millimeters
G90 ; use absolute coordinates
M83 ; use relative distances for extrusion
; Filament gcode
M107
;LAYER_CHANGE
;Z:0.2
;HEIGHT:0.2
;BEFORE_LAYER_CHANGE
G92 E0
;0.2


G1 E-6 F3600
G1 Z.2 F9000
;AFTER_LAYER_CHANGE
;0.2
G1 X119.701 Y34.428
G1 E6 F2400
M204 S500
;TYPE:Skirt/Brim
;WIDTH:0.42
G1 F1200
G1 X120.17 Y32.796 E.05322
G1 X124.104 Y26.534 E.23188
G1 X125.683 Y24.512 E.08045
G1 X126.354 Y23.775 E.03123
G1 X128.219 Y22.013 E.08045
G1 X130.436 Y20.359 E.08674
G1 X132.833 Y18.979 E.08674
G1 X135.378 Y17.893 E.08674
G1 X138.229 Y17.075 E.09301
G1 X140.761 Y16.66 E.08045
G1 X142.729 Y16.537 E.06183
G1 X167.271 Y16.537 E.76948
G1 X170.028 Y16.761 E.08673
G1 X171.967 Y17.116 E.06182
G1 X174.432 Y17.828 E.08045
G1 X177.167 Y18.979 E.09301
G1 X179.394 Y20.251 E.08045
G1 X180.22 Y20.809 E.03123
G1 X182.378 Y22.538 E.08673
G1 X183.786 Y23.919 E.06182
G1 X185.429 Y25.89 E.08045
G1 X186.008 Y26.701 E.03123
G1 X189.83 Y32.796 E.22559
G1 X190.346 Y34.59 E.05854
G1 X190.346 Y71.026 E1.14241
G1 X189.83 Y72.82 E.05854
G1 X185.551 Y79.567 E.2505
G1 X183.786 Y81.697 E.08674
G1 X182.231 Y83.214 E.06812
G1 X180.057 Y84.925 E.08674
G1 X177.695 Y86.365 E.08674
G1 X175.18 Y87.516 E.08674
G1 X172.545 Y88.36 E.08674
G1 X169.829 Y88.886 E.08674
G1 X167.07 Y89.085 E.08673
G1 X142.729 Y89.079 E.76319
G1 X140.171 Y88.886 E.08045
G1 X137.455 Y88.36 E.08674
G1 X134.82 Y87.516 E.08674
G1 X132.833 Y86.638 E.06812
G1 X130.436 Y85.258 E.08674
G1 X128.375 Y83.73 E.08045
G1 X127.622 Y83.078 E.03123
G1 X125.683 Y81.105 E.08673
G1 X123.992 Y78.916 E.08673
G1 X120.17 Y72.82 E.22559
G1 X119.654 Y71.026 E.05854
G1 X119.654 Y34.59 E1.14242
G1 X119.684 Y34.485 E.00343
G1 E-4.2 F3600
;WIPE_START
G1 F7200
G1 X120.17 Y32.796 E-.83478
G1 X121.15 Y31.236 E-.87522
;WIPE_END
G1 E-.09 F3600
G1 X125.018 Y34.631 F9000
G1 E6 F2400
G1 F1200
G1 X125.049 Y33.525 E.03467
G1 X125.649 Y31.355 E.07062
G1 X127.275 Y28.568 E.10115
G1 X128.792 Y26.676 E.07605
G1 X130.499 Y25.016 E.07464
G1 X132.366 Y23.595 E.07357
G1 X134.319 Y22.445 E.07105
G1 X136.411 Y21.522 E.07171
G1 X138.603 Y20.849 E.0719
G1 X141.105 Y20.408 E.07963
G1 X142.972 Y20.295 E.05867
G1 X144.113 Y20.329 E.03578
G1 X145.778 Y20.46 E.05237
G1 X147.71 Y20.815 E.06158
G1 X149.96 Y21.491 E.07367
G1 X152.105 Y22.429 E.07341
G1 X154.051 Y23.569 E.07071
G1 X155.001 Y24.284 E.03729
G1 X155.903 Y23.601 E.03548
G1 X157.772 Y22.493 E.06813
G1 X159.939 Y21.529 E.07439
G1 X162.18 Y20.841 E.07349
G1 X164.491 Y20.427 E.0736
G1 X166.513 Y20.295 E.06353
G1 X167.665 Y20.329 E.03614
G1 X169.314 Y20.459 E.05186
G1 X171.173 Y20.795 E.05924
G1 X173.398 Y21.452 E.07274
G1 X175.578 Y22.393 E.07446
G1 X177.631 Y23.593 E.07456
G1 X179.495 Y25.01 E.07342
G1 X181.246 Y26.718 E.07668
G1 X182.718 Y28.557 E.07387
G1 X184.032 Y30.657 E.07766
G1 X184.862 Y33.029 E.0788
G1 X185.016 Y35.722 E.08458
G1 X184.507 Y38.031 E.07414
G1 X183.592 Y39.797 E.06235
G1 X184.462 Y41.469 E.05908
G1 X184.993 Y43.661 E.07071
G1 X184.944 Y46.141 E.0778
G1 X184.326 Y48.32 E.071
G1 X182.782 Y50.964 E.096
G1 X181.313 Y52.805 E.07386
G1 X182.739 Y54.588 E.07158
G1 X184.138 Y56.881 E.08422
G1 X184.884 Y59.133 E.07438
G1 X185.02 Y61.678 E.07991
G1 X184.531 Y63.966 E.07338
G1 X183.594 Y65.789 E.06425
G1 X184.53 Y67.652 E.06538
G1 X185.008 Y69.803 E.0691
G1 X184.96 Y72.023 E.06963
G1 X184.144 Y74.734 E.08876
G1 X182.828 Y76.901 E.07949
G1 X181.392 Y78.736 E.07307
G1 X179.603 Y80.513 E.07906
G1 X177.797 Y81.911 E.0716
G1 X175.823 Y83.098 E.07221
G1 X173.731 Y84.041 E.07197
G1 X171.563 Y84.727 E.07129
G1 X169.272 Y85.163 E.07313
G1 X166.7 Y85.323 E.0808
G1 X164.401 Y85.179 E.07223
G1 X162.165 Y84.772 E.07124
G1 X159.991 Y84.107 E.07127
G1 X157.891 Y83.185 E.07192
G1 X155.857 Y81.985 E.07403
G1 X155.005 Y81.329 E.03372
G1 X154.148 Y81.981 E.03378
G1 X152.247 Y83.114 E.06939
G1 X150.15 Y84.054 E.07204
G1 X147.927 Y84.749 E.07302
G1 X145.441 Y85.197 E.07922
G1 X143.015 Y85.322 E.07617
G1 X140.603 Y85.146 E.07582
G1 X138.437 Y84.726 E.06918
G1 X136.352 Y84.072 E.06852
G1 X134.202 Y83.111 E.07383
G1 X132.229 Y81.929 E.07214
G1 X130.393 Y80.509 E.07277
G1 X128.558 Y78.679 E.08126
G1 X127.1 Y76.796 E.07467
G1 X125.834 Y74.681 E.07727
G1 X125.065 Y72.201 E.08141
G1 X125 Y69.737 E.0773
G1 X125.554 Y67.422 E.07463
G1 X126.402 Y65.833 E.05648
G1 X125.557 Y64.198 E.05772
G1 X125.012 Y61.994 E.07118
G1 X125.059 Y59.456 E.0796
G1 X125.673 Y57.3 E.07028
G1 X127.237 Y54.624 E.09717
G1 X128.682 Y52.818 E.07253
G1 X127.164 Y50.888 E.07699
G1 X125.662 Y48.289 E.09409
G1 X125.048 Y46.095 E.07144
G1 X124.992 Y43.8 E.072
G1 X125.473 Y41.639 E.06941
G1 X126.412 Y39.834 E.06378
G1 X125.578 Y38.255 E.056
G1 X124.987 Y35.767 E.08017
G1 X125.017 Y34.691 E.03375
G1 X125.391 Y34.7 F9000
G1 F1200
G1 X125.418 Y33.602 E.03443
G1 X125.988 Y31.523 E.0676
G1 X127.578 Y28.793 E.09907
G1 X129.064 Y26.938 E.07452
G1 X130.736 Y25.309 E.0732
G1 X132.585 Y23.902 E.07286
G1 X134.5 Y22.776 E.06965
G1 X136.553 Y21.872 E.07033
G1 X138.703 Y21.213 E.0705
G1 X141.159 Y20.782 E.0782
G1 X142.97 Y20.672 E.05687
G1 X144.088 Y20.705 E.03508
G1 X145.739 Y20.835 E.05192
G1 X147.631 Y21.184 E.06033
G1 X149.84 Y21.849 E.07234
G1 X151.943 Y22.77 E.07199
G1 X153.85 Y23.889 E.06932
G1 X155.002 Y24.758 E.04523
G1 X156.104 Y23.92 E.04342
G1 X157.954 Y22.823 E.06744
G1 X160.061 Y21.886 E.07229
G1 X162.28 Y21.205 E.07277
G1 X164.547 Y20.8 E.0722
G1 X166.528 Y20.672 E.06225
G1 X167.649 Y20.706 E.03516
G1 X169.256 Y20.832 E.05054
G1 X171.095 Y21.164 E.05862
G1 X173.28 Y21.81 E.07142
G1 X175.418 Y22.734 E.07304
G1 X177.412 Y23.9 E.07242
G1 X179.24 Y25.289 E.07197
G1 X180.974 Y26.98 E.07595
G1 X182.417 Y28.784 E.07244
G1 X183.683 Y30.801 E.07467
G1 X184.497 Y33.129 E.0773
G1 X184.642 Y35.666 E.0797
G1 X184.144 Y37.926 E.07253
G1 X183.166 Y39.797 E.06621
G1 X184.101 Y41.58 E.06312
G1 X184.621 Y43.726 E.06921
G1 X184.574 Y46.063 E.07329
G1 X183.988 Y48.151 E.06801
G1 X182.464 Y50.762 E.0948
G1 X180.83 Y52.806 E.08203
G1 X182.424 Y54.794 E.07991
G1 X183.805 Y57.059 E.08317
G1 X184.509 Y59.179 E.07004
G1 X184.646 Y61.624 E.07677
G1 X184.167 Y63.862 E.07178
G1 X183.17 Y65.787 E.06796
G1 X184.168 Y67.758 E.06927
G1 X184.631 Y69.819 E.06625
G1 X184.592 Y71.94 E.06652
G1 X183.809 Y74.559 E.08569
G1 X182.512 Y76.695 E.07838
G1 X181.102 Y78.494 E.07165
G1 X179.346 Y80.237 E.07759
G1 X177.575 Y81.606 E.07017
G1 X175.639 Y82.769 E.07083
G1 X173.606 Y83.685 E.0699
G1 X171.481 Y84.358 E.06989
G1 X169.213 Y84.79 E.0724
G1 X166.711 Y84.946 E.07859
G1 X164.457 Y84.806 E.07082
G1 X162.265 Y84.408 E.06987
G1 X160.133 Y83.757 E.06988
G1 X158.053 Y82.844 E.07122
G1 X156.06 Y81.667 E.07259
G1 X155.007 Y80.854 E.04171
G1 X153.946 Y81.663 E.04185
G1 X152.063 Y82.785 E.0687
G1 X150.006 Y83.705 E.07066
G1 X147.849 Y84.38 E.07088
G1 X145.409 Y84.822 E.07773
G1 X143.03 Y84.945 E.07469
G1 X140.663 Y84.774 E.07439
G1 X138.54 Y84.363 E.06782
G1 X136.475 Y83.716 E.06784
G1 X134.387 Y82.782 E.07174
G1 X132.432 Y81.611 E.07143
G1 X130.633 Y80.218 E.07134
G1 X128.848 Y78.438 E.07903
G1 X127.418 Y76.593 E.07322
G1 X126.169 Y74.507 E.07621
G1 X125.442 Y72.164 E.07691
G1 X125.373 Y69.8 E.07416
G1 X125.915 Y67.534 E.07306
G1 X126.829 Y65.836 E.06047
G1 X125.918 Y64.085 E.0619
G1 X125.384 Y61.927 E.0697
G1 X125.428 Y59.534 E.07504
G1 X126.011 Y57.469 E.06728
G1 X127.556 Y54.827 E.09597
G1 X129.184 Y52.794 E.08168
G1 X128.974 Y52.58 E.00939
G1 X127.483 Y50.687 E.07555
G1 X126.001 Y48.121 E.09292
G1 X125.424 Y46.062 E.06706
G1 X125.365 Y43.859 E.0691
G1 X125.836 Y41.746 E.06788
G1 X126.839 Y39.833 E.06771
G1 X125.939 Y38.143 E.06003
G1 X125.365 Y35.751 E.07712
G1 X125.39 Y34.76 E.03108
G1 X125.767 Y34.77 F9000
G1 F1200
G1 X125.795 Y33.635 E.03558
G1 X126.344 Y31.648 E.06466
G1 X127.896 Y28.996 E.09635
G1 X129.351 Y27.183 E.07287
G1 X130.991 Y25.587 E.07175
G1 X132.786 Y24.221 E.07073
G1 X134.682 Y23.107 E.06895
G1 X136.695 Y22.221 E.06894
G1 X138.802 Y21.577 E.06909
G1 X141.193 Y21.157 E.07611
G1 X142.984 Y21.049 E.05627
G1 X144.072 Y21.082 E.03413
G1 X145.68 Y21.208 E.05058
G1 X147.553 Y21.553 E.0597
G1 X149.72 Y22.207 E.071
G1 X151.762 Y23.101 E.06989
G1 X153.65 Y24.209 E.06862
G1 X155.003 Y25.231 E.05317
G1 X156.306 Y24.238 E.05137
G1 X158.118 Y23.163 E.06606
G1 X160.183 Y22.243 E.07087
G1 X162.357 Y21.574 E.07133
G1 X164.602 Y21.173 E.07151
G1 X166.526 Y21.049 E.06042
G1 X167.624 Y21.082 E.03445
G1 X169.217 Y21.207 E.0501
G1 X170.999 Y21.529 E.05677
G1 X173.141 Y22.161 E.07004
G1 X175.238 Y23.066 E.0716
G1 X177.212 Y24.22 E.0717
G1 X179.003 Y25.582 E.07054
G1 X180.687 Y27.224 E.07377
G1 X182.103 Y28.994 E.07106
G1 X183.353 Y30.984 E.07366
G1 X184.132 Y33.227 E.07447
G1 X184.265 Y35.661 E.07641
G1 X183.782 Y37.818 E.06933
G1 X182.74 Y39.798 E.07013
G1 X183.74 Y41.692 E.06717
G1 X184.248 Y43.79 E.06769
G1 X184.198 Y46.03 E.07025
G1 X183.65 Y47.982 E.06355
G1 X182.145 Y50.561 E.09364
G1 X180.707 Y52.37 E.07247
G1 X180.269 Y52.806 E.01937
G1 X180.648 Y53.181 E.01673
G1 X182.108 Y55.001 E.07315
G1 X183.472 Y57.237 E.0821
G1 X184.143 Y59.273 E.06724
G1 X184.272 Y61.569 E.0721
G1 X183.804 Y63.758 E.07018
G1 X182.745 Y65.784 E.07169
G1 X183.805 Y67.864 E.07318
G1 X184.258 Y69.879 E.06478
G1 X184.215 Y71.907 E.06358
G1 X183.474 Y74.384 E.08106
G1 X182.195 Y76.49 E.07727
G1 X180.813 Y78.252 E.07022
G1 X179.106 Y79.946 E.0754
G1 X177.371 Y81.288 E.06877
G1 X175.474 Y82.43 E.06943
G1 X173.461 Y83.336 E.0692
G1 X171.378 Y83.995 E.0685
G1 X169.154 Y84.417 E.07098
G1 X166.7 Y84.569 E.0771
G1 X164.492 Y84.43 E.06937
G1 X162.343 Y84.039 E.06849
G1 X160.274 Y83.408 E.06782
G1 X158.235 Y82.514 E.0698
G1 X156.262 Y81.348 E.07186
G1 X155.008 Y80.378 E.0497
G1 X153.743 Y81.345 E.04994
G1 X151.899 Y82.445 E.06733
G1 X149.883 Y83.349 E.06926
G1 X147.747 Y84.017 E.07016
G1 X145.377 Y84.446 E.07552
G1 X143.045 Y84.568 E.07322
G1 X140.724 Y84.402 E.07297
G1 X138.642 Y84 E.06647
G1 X136.619 Y83.367 E.06647
G1 X134.551 Y82.442 E.07104
G1 X132.654 Y81.306 E.06932
G1 X130.891 Y79.943 E.06989
G1 X129.139 Y78.198 E.07753
G1 X127.735 Y76.389 E.07178
G1 X126.505 Y74.333 E.07513
G1 X125.81 Y72.078 E.07398
G1 X125.75 Y69.816 E.07097
G1 X126.276 Y67.647 E.06996
G1 X127.257 Y65.839 E.0645
G1 X126.278 Y63.972 E.0661
G1 X125.756 Y61.861 E.06819
G1 X125.805 Y59.567 E.07196
G1 X126.348 Y57.639 E.06281
G1 X127.874 Y55.028 E.0948
G1 X129.299 Y53.24 E.0717
G1 X129.733 Y52.807 E.01923
G1 X129.263 Y52.337 E.02085
G1 X127.803 Y50.487 E.0739
G1 X126.339 Y47.953 E.09175
G1 X125.801 Y46.027 E.0627
G1 X125.738 Y43.918 E.06618
G1 X126.198 Y41.852 E.06634
G1 X127.266 Y39.832 E.07167
G1 X126.3 Y38.03 E.0641
G1 X125.743 Y35.735 E.07403
G1 X125.765 Y34.83 E.02841
G1 X126.136 Y34.839 F9000
G1 F1200
G1 X126.165 Y33.712 E.03534
G1 X126.683 Y31.816 E.06163
G1 X128.199 Y29.22 E.09427
G1 X129.622 Y27.445 E.07134
G1 X131.228 Y25.88 E.0703
G1 X133.006 Y24.528 E.07002
G1 X134.863 Y23.437 E.06755
G1 X136.816 Y22.579 E.06687
G1 X138.901 Y21.941 E.06838
G1 X141.247 Y21.531 E.07468
G1 X142.981 Y21.426 E.05447
G1 X144.047 Y21.458 E.03344
G1 X145.641 Y21.583 E.05013
G1 X147.474 Y21.921 E.05844
G1 X149.6 Y22.564 E.06966
G1 X151.6 Y23.442 E.06848
G1 X153.449 Y24.528 E.06723
G1 X155.004 Y25.705 E.06113
G1 X156.508 Y24.557 E.05934
G1 X158.301 Y23.493 E.06537
G1 X160.305 Y22.6 E.06877
G1 X162.435 Y21.944 E.0699
G1 X164.658 Y21.546 E.07081
G1 X166.541 Y21.426 E.05914
G1 X167.608 Y21.459 E.03347
G1 X169.159 Y21.58 E.0488
G1 X170.921 Y21.898 E.05614
G1 X173.023 Y22.52 E.06872
G1 X175.078 Y23.407 E.07018
G1 X176.993 Y24.527 E.06956
G1 X178.748 Y25.86 E.06909
G1 X180.416 Y27.486 E.07304
G1 X181.802 Y29.221 E.06964
G1 X183.004 Y31.128 E.07065
G1 X183.767 Y33.326 E.07296
G1 X183.891 Y35.603 E.07152
G1 X183.419 Y37.711 E.06771
G1 X182.312 Y39.798 E.07406
G1 X183.379 Y41.804 E.07125
G1 X183.876 Y43.855 E.06617
G1 X183.828 Y45.952 E.06577
G1 X183.312 Y47.813 E.06055
G1 X181.841 Y50.337 E.09159
G1 X180.419 Y52.127 E.07168
G1 X179.731 Y52.807 E.03034
G1 X180.361 Y53.426 E.0277
G1 X181.807 Y55.228 E.07241
G1 X183.139 Y57.414 E.08028
G1 X183.768 Y59.32 E.06294
G1 X183.898 Y61.516 E.06895
G1 X183.441 Y63.654 E.06855
G1 X182.32 Y65.781 E.0754
G1 X183.458 Y68.014 E.07857
G1 X183.88 Y69.896 E.06047
G1 X183.846 Y71.825 E.06049
G1 X183.139 Y74.209 E.07798
G1 X181.879 Y76.285 E.07614
G1 X180.524 Y78.01 E.06879
G1 X178.848 Y79.67 E.07394
G1 X177.15 Y80.983 E.06733
G1 X175.289 Y82.101 E.06805
G1 X173.337 Y82.98 E.06713
G1 X171.297 Y83.627 E.0671
G1 X169.096 Y84.045 E.07025
G1 X166.712 Y84.192 E.07489
G1 X164.548 Y84.057 E.06797
G1 X162.442 Y83.675 E.06711
G1 X160.415 Y83.058 E.06644
G1 X158.397 Y82.173 E.06909
G1 X156.464 Y81.03 E.07041
G1 X155.01 Y79.901 E.05771
G1 X153.54 Y81.027 E.05803
G1 X151.715 Y82.115 E.06664
G1 X149.739 Y83 E.06788
G1 X147.668 Y83.648 E.06803
G1 X145.345 Y84.07 E.07403
G1 X143.06 Y84.191 E.07174
G1 X140.784 Y84.029 E.07155
G1 X138.724 Y83.632 E.06578
G1 X136.743 Y83.01 E.06512
G1 X134.735 Y82.113 E.06895
G1 X132.858 Y80.988 E.06862
G1 X131.131 Y79.652 E.06846
G1 X129.429 Y77.957 E.0753
G1 X128.053 Y76.186 E.07033
G1 X126.84 Y74.159 E.07407
G1 X126.186 Y72.042 E.06948
G1 X126.123 Y69.88 E.06781
G1 X126.636 Y67.76 E.06837
G1 X127.686 Y65.843 E.06855
G1 X126.639 Y63.859 E.07032
G1 X126.128 Y61.795 E.06668
G1 X126.174 Y59.645 E.06742
G1 X126.686 Y57.808 E.0598
G1 X128.178 Y55.253 E.09276
G1 X129.587 Y53.484 E.07091
G1 X130.27 Y52.807 E.03013
G1 X129.552 Y52.094 E.03173
G1 X128.108 Y50.264 E.0731
G1 X126.678 Y47.786 E.08971
G1 X126.17 Y45.95 E.05973
G1 X126.116 Y43.931 E.0633
G1 X126.56 Y41.961 E.06335
G1 X127.694 Y39.83 E.07567
G1 X126.66 Y37.917 E.06819
G1 X126.115 Y35.671 E.07248
G1 X126.134 Y34.899 E.0242
G1 X126.507 Y34.91 F9000
G1 F1200
G1 X126.541 Y33.747 E.03649
G1 X127.039 Y31.941 E.05874
G1 X128.517 Y29.423 E.09153
G1 X129.909 Y27.69 E.06969
G1 X131.483 Y26.159 E.06886
G1 X133.206 Y24.848 E.06789
G1 X135.025 Y23.778 E.06616
G1 X136.957 Y22.928 E.06617
G1 X139 Y22.305 E.06697
G1 X141.28 Y21.906 E.07259
G1 X142.995 Y21.803 E.05386
G1 X144.031 Y21.835 E.0325
G1 X145.582 Y21.956 E.04878
G1 X147.395 Y22.29 E.0578
G1 X149.459 Y22.914 E.06762
G1 X151.419 Y23.773 E.06708
G1 X153.249 Y24.848 E.06653
G1 X155.005 Y26.179 E.06909
G1 X156.71 Y24.875 E.06731
G1 X158.465 Y23.832 E.064
G1 X160.427 Y22.957 E.06736
G1 X162.513 Y22.313 E.06845
G1 X164.714 Y21.92 E.07011
G1 X166.538 Y21.803 E.0573
G1 X167.583 Y21.835 E.03278
G1 X169.121 Y21.955 E.04836
G1 X170.825 Y22.263 E.05429
G1 X172.884 Y22.87 E.06734
G1 X174.898 Y23.739 E.06874
G1 X176.793 Y24.847 E.06884
G1 X178.511 Y26.153 E.06766
G1 X180.129 Y27.731 E.07086
G1 X181.489 Y29.431 E.06828
G1 X182.673 Y31.31 E.06963
G1 X183.402 Y33.423 E.07008
G1 X183.513 Y35.597 E.06824
G1 X183.074 Y37.557 E.06297
G1 X181.885 Y39.799 E.07958
G1 X183.018 Y41.917 E.07531
G1 X183.504 Y43.92 E.06462
G1 X183.452 Y45.919 E.06272
G1 X182.974 Y47.644 E.05612
G1 X181.522 Y50.135 E.0904
G1 X180.131 Y51.883 E.07004
G1 X179.192 Y52.809 E.04134
G1 X180.075 Y53.672 E.0387
G1 X181.491 Y55.434 E.0709
G1 X182.805 Y57.592 E.07921
G1 X183.402 Y59.414 E.06012
G1 X183.52 Y61.511 E.06585
G1 X183.078 Y63.548 E.06535
G1 X181.87 Y65.824 E.08081
G1 X182.008 Y65.998 E.00696
G1 X183.096 Y68.121 E.07478
G1 X183.503 Y69.913 E.05763
G1 X183.477 Y71.743 E.05739
G1 X182.804 Y74.034 E.07487
