; generated by PrusaSlicer 2.4.1+linux-x64-GTK2 on 2022-03-27 at 20:23:01 UTC

; 

; external perimeters extrusion width = 0.45mm
; perimeters extrusion width = 0.45mm
; infill extrusion width = 0.45mm
; solid infill extrusion width = 0.45mm
; top infill extrusion width = 0.40mm
; first layer extrusion width = 0.42mm

M107
;TYPE:Custom
G90 ; use absolute coordinates
M83 ; extruder relative mode
M140 S90 ; set final bed temp
M104 S150 ; set temporary nozzle temp to prevent oozing during homing
G4 S10 ; allow partial nozzle warmup
G28 ; home all axis
G1 Z50 F240
G1 X2 Y10 F3000
M104 S250 ; set final nozzle temp
M190 S90 ; wait for bed temp to stabilize
M109 S250 ; wait for nozzle temp to stabilize
G1 Z0.28 F240
G92 E0
G1 Y140 E10 F1500 ; prime the nozzle
G1 X2.3 F5000
G92 E0
G1 Y10 E10 F1200 ; prime the nozzle
G92 E0
G21 ; set units to millimeters
G90 ; use absolute coordinates
M83 ; use relative distances for extrusion
; Filament gcode
M107
;LAYER_CHANGE
;Z:0.2
;HEIGHT:0.2
;BEFORE_LAYER_CHANGE
G92 E0
;0.2


G1 E-6 F3600
G1 Z.2 F9000
;AFTER_LAYER_CHANGE
;0.2
G1 X49.9 Y81.581
G1 E6 F2400
M204 S500
;TYPE:Skirt/Brim
;WIDTH:0.42
G1 F1200
G1 X52.244 Y80.169 E.08578
G1 X54.49 Y79.217 E.07648
G1 X56.403 Y78.657 E.06251
G1 X58.072 Y78.349 E.0532
G1 X61.025 Y78.173 E.09275
G1 X63.013 Y78.316 E.06251
G1 X65.192 Y78.727 E.06951
G1 X67.306 Y79.393 E.06951
G1 X69.327 Y80.305 E.06951
G1 X71.224 Y81.451 E.06951
G1 X72.973 Y82.813 E.06951
G1 X74.348 Y84.154 E.0602
G1 X75.753 Y85.868 E.06951
G1 X78.228 Y89.767 E.1448
G1 X78.801 Y91.762 E.06507
G1 X78.801 Y101.88 E.31724
G1 X78.228 Y103.874 E.06507
G1 X75.753 Y107.774 E.1448
G1 X74.192 Y109.648 E.07648
G1 X72.973 Y110.828 E.0532
G1 X71.405 Y112.06 E.06252
G1 X69.327 Y113.336 E.07648
G1 X66.816 Y114.424 E.08578
G1 X64.903 Y114.985 E.06251
G1 X63.234 Y115.292 E.05321
G1 X60.504 Y115.475 E.08578
G1 X58.292 Y115.325 E.06951
G1 X56.114 Y114.915 E.06951
G1 X54 Y114.248 E.06951
G1 X52.244 Y113.472 E.0602
G1 X50.328 Y112.357 E.06951
G1 X48.558 Y111.023 E.06951
G1 X46.958 Y109.488 E.06951
G1 X45.552 Y107.774 E.06951
G1 X43.078 Y103.874 E.1448
G1 X42.505 Y101.88 E.06507
G1 X42.505 Y91.762 E.31724
G1 X43.078 Y89.767 E.06507
G1 X45.552 Y85.868 E.1448
G1 X47.113 Y83.993 E.07648
G1 X48.333 Y82.813 E.0532
G1 X49.853 Y81.618 E.06063
G1 X50.086 Y81.915 F9000
G1 F1200
G1 X52.416 Y80.504 E.0854
G1 X54.6 Y79.578 E.07438
G1 X56.492 Y79.023 E.06181
G1 X58.139 Y78.72 E.0525
G1 X61.002 Y78.55 E.08994
G1 X62.969 Y78.69 E.06181
G1 X65.103 Y79.093 E.0681
G1 X67.174 Y79.746 E.0681
G1 X69.154 Y80.64 E.0681
G1 X71.013 Y81.763 E.0681
G1 X72.726 Y83.098 E.0681
G1 X74.069 Y84.408 E.05879
G1 X75.446 Y86.087 E.0681
G1 X77.908 Y89.968 E.1441
G1 X78.424 Y91.762 E.05854
G1 X78.424 Y101.88 E.31724
G1 X77.908 Y103.674 E.05854
G1 X75.446 Y107.555 E.1441
G1 X73.929 Y109.378 E.07438
G1 X72.726 Y110.543 E.0525
G1 X71.176 Y111.761 E.06181
G1 X69.154 Y113.001 E.07438
G1 X66.706 Y114.063 E.08368
G1 X64.814 Y114.618 E.06181
G1 X63.167 Y114.921 E.0525
G1 X60.504 Y115.098 E.08368
G1 X58.337 Y114.951 E.0681
G1 X56.203 Y114.548 E.0681
G1 X54.131 Y113.895 E.0681
G1 X52.416 Y113.137 E.05879
G1 X50.539 Y112.045 E.0681
G1 X48.804 Y110.738 E.0681
G1 X47.237 Y109.234 E.0681
G1 X45.859 Y107.555 E.0681
G1 X43.398 Y103.674 E.1441
G1 X42.882 Y101.88 E.05854
G1 X42.882 Y91.762 E.31724
G1 X43.398 Y89.968 E.05854
G1 X45.859 Y86.087 E.1441
G1 X47.377 Y84.263 E.07438
G1 X48.58 Y83.098 E.0525
G1 X50.039 Y81.952 E.05819
G1 E-4.2 F3600
;WIPE_START
G1 F7200
G1 X52.416 Y80.504 E-1.3221
G1 X53.168 Y80.185 E-.3879
;WIPE_END
G1 E-.09 F3600
G1 X52.282 Y84.86 F9000
G1 E6 F2400
G1 F1200
G1 X52.48 Y84.707 E.00784
G1 X53.912 Y83.855 E.05225
G1 X55.425 Y83.175 E.05202
G1 X57.105 Y82.645 E.05523
G1 X59.066 Y82.293 E.06247
G1 X60.493 Y82.209 E.04481
G1 X61.263 Y82.235 E.02415
G1 X62.542 Y82.33 E.04022
G1 X64.076 Y82.614 E.04892
G1 X65.728 Y83.117 E.05415
G1 X67.318 Y83.816 E.05444
G1 X68.815 Y84.7 E.05452
G1 X70.219 Y85.774 E.05542
G1 X71.502 Y87.031 E.05631
G1 X72.623 Y88.438 E.0564
G1 X73.554 Y89.92 E.05489
G1 X73.95 Y91.079 E.03841
G1 X74.027 Y92.104 E.03223
G1 X73.858 Y93.144 E.03302
G1 X73.034 Y94.786 E.05761
G1 X72.202 Y95.679 E.03826
G1 X71.196 Y96.288 E.03686
G1 X70.216 Y96.587 E.03212
G1 X70.216 Y97.06 E.01486
G1 X71.147 Y97.33 E.03038
G1 X72.164 Y97.933 E.03706
G1 X73.028 Y98.845 E.03941
G1 X73.697 Y100.061 E.0435
G1 X74.028 Y101.491 E.04604
G1 X73.983 Y102.382 E.02797
G1 X73.778 Y103.214 E.02686
G1 X72.541 Y105.319 E.07657
G1 X71.487 Y106.627 E.05264
G1 X70.298 Y107.799 E.05236
G1 X68.866 Y108.907 E.05677
G1 X67.438 Y109.763 E.0522
G1 X65.911 Y110.455 E.05259
G1 X64.259 Y110.982 E.05435
G1 X62.399 Y111.329 E.05934
G1 X60.486 Y111.433 E.06005
G1 X58.78 Y111.313 E.05364
G1 X57.106 Y110.997 E.05339
G1 X55.5 Y110.495 E.05277
G1 X53.916 Y109.788 E.05438
G1 X52.421 Y108.894 E.05462
G1 X51.005 Y107.796 E.05621
G1 X49.75 Y106.55 E.05543
G1 X48.667 Y105.179 E.05479
G1 X47.556 Y103.278 E.06904
G1 X47.297 Y102.193 E.03498
G1 X47.294 Y101.32 E.02738
G1 X47.454 Y100.473 E.027
G1 X48.362 Y98.73 E.06162
G1 X49.23 Y97.865 E.03843
G1 X50.183 Y97.322 E.03438
G1 X51.089 Y97.056 E.02962
G1 X51.089 Y96.581 E.01489
G1 X50.159 Y96.311 E.03038
G1 X49.142 Y95.709 E.03706
G1 X48.278 Y94.796 E.03941
G1 X47.608 Y93.58 E.04351
G1 X47.277 Y92.148 E.04608
G1 X47.323 Y91.257 E.028
G1 X47.529 Y90.424 E.02689
G1 X48.782 Y88.299 E.07736
G1 X49.823 Y87.01 E.05195
G1 X51.011 Y85.84 E.05227
G1 X52.234 Y84.897 E.04843
G1 X52.464 Y85.195 F9000
G1 F1200
G1 X52.701 Y85.013 E.00936
G1 X54.095 Y84.185 E.05085
G1 X55.569 Y83.523 E.05066
G1 X57.206 Y83.008 E.05382
G1 X59.099 Y82.669 E.0603
G1 X60.506 Y82.586 E.04418
G1 X61.245 Y82.612 E.0232
G1 X62.484 Y82.703 E.03893
G1 X63.977 Y82.978 E.0476
G1 X65.587 Y83.467 E.05276
G1 X67.136 Y84.147 E.05304
G1 X68.595 Y85.006 E.05311
G1 X69.964 Y86.052 E.05399
G1 X71.214 Y87.275 E.05485
G1 X72.309 Y88.647 E.05504
G1 X73.223 Y90.101 E.05384
G1 X73.585 Y91.176 E.03556
G1 X73.65 Y92.107 E.02928
G1 X73.491 Y93.052 E.03004
G1 X72.71 Y94.591 E.05409
G1 X71.946 Y95.401 E.03491
G1 X71.024 Y95.952 E.03368
G1 X70.153 Y96.211 E.02849
G1 X69.839 Y96.235 E.00987
G1 X69.839 Y97.402 E.03658
G1 X70.113 Y97.424 E.0086
G1 X70.977 Y97.668 E.02814
G1 X71.948 Y98.243 E.03541
G1 X72.736 Y99.085 E.03617
G1 X73.337 Y100.173 E.03894
G1 X73.65 Y101.501 E.04278
G1 X73.613 Y102.31 E.0254
G1 X73.418 Y103.096 E.02539
G1 X72.224 Y105.115 E.07356
G1 X71.201 Y106.381 E.05103
G1 X70.042 Y107.522 E.051
G1 X68.645 Y108.602 E.05536
G1 X67.254 Y109.434 E.05081
G1 X65.765 Y110.107 E.05123
G1 X64.156 Y110.619 E.05295
G1 X62.342 Y110.956 E.05786
G1 X60.501 Y111.056 E.05781
G1 X58.838 Y110.941 E.05225
G1 X57.208 Y110.634 E.05202
G1 X55.643 Y110.146 E.05139
G1 X54.1 Y109.459 E.05298
G1 X52.643 Y108.589 E.0532
G1 X51.262 Y107.52 E.05477
G1 X50.039 Y106.307 E.05399
G1 X48.97 Y104.955 E.05403
G1 X47.916 Y103.161 E.06525
G1 X47.674 Y102.167 E.03207
G1 X47.668 Y101.371 E.02496
G1 X47.82 Y100.571 E.02555
G1 X48.65 Y98.975 E.0564
G1 X49.44 Y98.18 E.03514
G1 X50.35 Y97.661 E.03284
G1 X51.162 Y97.428 E.02649
G1 X51.467 Y97.405 E.00958
G1 X51.467 Y96.24 E.03655
G1 X51.193 Y96.217 E.0086
G1 X50.329 Y95.974 E.02814
G1 X49.357 Y95.398 E.03541
G1 X48.569 Y94.556 E.03617
G1 X47.969 Y93.468 E.03895
G1 X47.655 Y92.139 E.04282
G1 X47.694 Y91.329 E.02542
G1 X47.889 Y90.542 E.02542
G1 X49.099 Y88.503 E.07435
G1 X50.109 Y87.255 E.05034
G1 X51.267 Y86.117 E.05092
G1 X52.416 Y85.232 E.04548
G1 X52.646 Y85.531 F9000
G1 F1200
G1 X52.921 Y85.319 E.01088
G1 X54.278 Y84.515 E.04945
G1 X55.713 Y83.872 E.04931
G1 X57.308 Y83.371 E.0524
G1 X59.133 Y83.045 E.05814
G1 X60.519 Y82.962 E.04354
G1 X61.228 Y82.989 E.02224
G1 X62.426 Y83.076 E.03766
G1 X63.878 Y83.342 E.04628
G1 X65.446 Y83.817 E.05138
G1 X66.955 Y84.477 E.05163
G1 X68.376 Y85.313 E.05169
G1 X69.708 Y86.33 E.05255
G1 X70.927 Y87.52 E.0534
G1 X71.995 Y88.857 E.05367
G1 X72.891 Y90.282 E.05278
G1 X73.219 Y91.271 E.03265
G1 X73.272 Y92.108 E.02631
G1 X73.124 Y92.959 E.02707
G1 X72.388 Y94.393 E.05056
G1 X71.692 Y95.121 E.03158
G1 X70.894 Y95.597 E.02912
G1 X70.072 Y95.842 E.0269
G1 X69.462 Y95.866 E.01913
G1 X69.462 Y97.773 E.0598
G1 X70.036 Y97.794 E.01801
G1 X70.85 Y98.024 E.0265
G1 X71.731 Y98.552 E.0322
G1 X72.444 Y99.324 E.03296
G1 X72.976 Y100.287 E.03449
G1 X73.273 Y101.51 E.03947
G1 X73.237 Y102.273 E.02394
G1 X73.06 Y102.977 E.02276
G1 X71.922 Y104.889 E.06976
G1 X70.929 Y106.12 E.0496
G1 X69.785 Y107.245 E.0503
G1 X68.423 Y108.296 E.05394
G1 X67.07 Y109.104 E.04942
G1 X65.62 Y109.759 E.04987
G1 X64.053 Y110.256 E.05155
G1 X62.309 Y110.58 E.05563
G1 X60.515 Y110.679 E.05634
G1 X58.897 Y110.568 E.05085
G1 X57.309 Y110.27 E.05065
G1 X55.786 Y109.797 E.05001
G1 X54.283 Y109.129 E.05158
G1 X52.864 Y108.284 E.05177
G1 X51.519 Y107.243 E.05333
G1 X50.327 Y106.064 E.05256
G1 X49.288 Y104.752 E.05249
G1 X48.275 Y103.043 E.06229
G1 X48.051 Y102.142 E.02911
G1 X48.045 Y101.388 E.02364
G1 X48.184 Y100.671 E.0229
G1 X48.97 Y99.177 E.05291
G1 X49.687 Y98.465 E.03168
G1 X50.475 Y98.018 E.02842
G1 X51.241 Y97.798 E.02497
G1 X51.844 Y97.775 E.01892
G1 X51.844 Y95.869 E.05978
G1 X51.27 Y95.847 E.01801
G1 X50.456 Y95.618 E.0265
G1 X49.575 Y95.089 E.0322
G1 X48.862 Y94.317 E.03296
G1 X48.329 Y93.354 E.0345
G1 X48.033 Y92.13 E.03951
G1 X48.069 Y91.366 E.02396
G1 X48.247 Y90.662 E.02278
G1 X49.4 Y88.73 E.07053
G1 X50.396 Y87.501 E.04958
G1 X51.523 Y86.394 E.04955
G1 X52.599 Y85.567 E.04253
G1 X52.828 Y85.866 F9000
G1 F1200
G1 X53.142 Y85.625 E.0124
G1 X54.461 Y84.845 E.04804
G1 X55.857 Y84.221 E.04796
G1 X57.409 Y83.735 E.05099
G1 X59.166 Y83.421 E.05598
G1 X60.532 Y83.339 E.0429
G1 X61.21 Y83.366 E.02128
G1 X62.368 Y83.448 E.0364
G1 X63.779 Y83.706 E.04496
G1 X65.306 Y84.167 E.05
G1 X66.774 Y84.808 E.05023
G1 X68.156 Y85.62 E.05028
G1 X69.454 Y86.608 E.05112
G1 X70.64 Y87.764 E.05195
G1 X71.682 Y89.067 E.05229
G1 X72.559 Y90.463 E.0517
G1 X72.853 Y91.363 E.02969
G1 X72.894 Y92.106 E.02333
G1 X72.759 Y92.863 E.02412
G1 X72.067 Y94.194 E.04702
G1 X71.439 Y94.84 E.02825
G1 X70.764 Y95.242 E.02463
G1 X69.99 Y95.473 E.02534
G1 X69.085 Y95.495 E.02837
G1 X69.085 Y98.144 E.08305
G1 X69.958 Y98.164 E.02737
G1 X70.723 Y98.38 E.02494
G1 X71.473 Y98.829 E.02741
G1 X72.125 Y99.527 E.02996
G1 X72.634 Y100.447 E.03295
G1 X72.895 Y101.521 E.03466
G1 X72.866 Y102.2 E.0213
G1 X72.701 Y102.858 E.02126
G1 X71.62 Y104.662 E.06594
G1 X70.642 Y105.875 E.04885
G1 X69.529 Y106.968 E.04892
G1 X68.202 Y107.991 E.05253
G1 X66.886 Y108.775 E.04803
G1 X65.476 Y109.41 E.04852
G1 X63.951 Y109.893 E.05015
G1 X62.252 Y110.207 E.05415
G1 X60.529 Y110.302 E.05412
G1 X58.955 Y110.195 E.04945
G1 X57.41 Y109.907 E.04928
G1 X55.929 Y109.448 E.04863
G1 X54.466 Y108.799 E.05018
G1 X53.085 Y107.978 E.05035
G1 X51.775 Y106.967 E.05189
G1 X50.615 Y105.821 E.05113
G1 X49.605 Y104.547 E.05098
G1 X48.633 Y102.922 E.05936
G1 X48.427 Y102.114 E.02617
G1 X48.419 Y101.44 E.02111
G1 X48.549 Y100.771 E.02139
G1 X49.288 Y99.381 E.04935
G1 X49.932 Y98.753 E.02821
G1 X50.6 Y98.374 E.02409
G1 X51.32 Y98.167 E.02348
G1 X52.221 Y98.146 E.02824
G1 X52.221 Y95.498 E.08304
G1 X51.348 Y95.477 E.02737
G1 X50.582 Y95.261 E.02494
G1 X49.832 Y94.812 E.02741
G1 X49.18 Y94.114 E.02996
G1 X48.671 Y93.194 E.03296
G1 X48.411 Y92.119 E.03469
G1 X48.44 Y91.439 E.02132
G1 X48.606 Y90.781 E.02129
G1 X49.702 Y88.957 E.06671
G1 X50.668 Y87.763 E.04817
G1 X51.779 Y86.671 E.04884
G1 X52.78 Y85.902 E.03958
G1 X53.009 Y86.202 F9000
G1 F1200
G1 X53.362 Y85.931 E.01392
G1 X54.643 Y85.175 E.04664
G1 X56 Y84.57 E.0466
G1 X57.51 Y84.098 E.04958
G1 X59.2 Y83.796 E.05383
G1 X60.545 Y83.716 E.04226
G1 X61.193 Y83.742 E.02031
G1 X62.311 Y83.821 E.03516
G1 X63.681 Y84.07 E.04364
G1 X65.165 Y84.517 E.04862
G1 X66.593 Y85.139 E.04882
G1 X67.937 Y85.927 E.04886
G1 X69.199 Y86.886 E.04968
G1 X70.353 Y88.009 E.0505
G1 X71.368 Y89.276 E.05091
G1 X72.227 Y90.643 E.0506
G1 X72.486 Y91.453 E.02667
G1 X72.517 Y92.101 E.02034
G1 X72.393 Y92.765 E.02119
G1 X71.746 Y93.994 E.04352
G1 X71.223 Y94.531 E.02351
G1 X70.633 Y94.888 E.02163
G1 X69.908 Y95.104 E.02372
G1 X68.708 Y95.122 E.03762
G1 X68.708 Y98.517 E.10647
G1 X69.88 Y98.534 E.03675
G1 X70.597 Y98.736 E.02336
G1 X71.218 Y99.107 E.02267
G1 X71.807 Y99.731 E.02692
G1 X72.292 Y100.608 E.0314
G1 X72.517 Y101.532 E.02983
G1 X72.49 Y102.164 E.01983
G1 X72.343 Y102.736 E.01854
G1 X71.319 Y104.435 E.06219
G1 X70.355 Y105.629 E.04811
G1 X69.273 Y106.691 E.04753
G1 X67.981 Y107.685 E.05111
G1 X66.703 Y108.445 E.04664
G1 X65.331 Y109.062 E.04716
G1 X63.848 Y109.53 E.04876
G1 X62.219 Y109.831 E.05195
G1 X60.542 Y109.925 E.05266
G1 X59.013 Y109.822 E.04805
G1 X57.511 Y109.543 E.04791
G1 X56.071 Y109.098 E.04725
G1 X54.648 Y108.469 E.04878
G1 X53.306 Y107.672 E.04893
G1 X52.032 Y106.69 E.05045
G1 X50.903 Y105.577 E.0497
G1 X49.921 Y104.342 E.04949
G1 X48.991 Y102.8 E.05646
G1 X48.804 Y102.085 E.02316
G1 X48.796 Y101.456 E.01974
G1 X48.913 Y100.873 E.01864
G1 X49.606 Y99.587 E.0458
G1 X50.175 Y99.042 E.02472
G1 X50.726 Y98.73 E.01984
G1 X51.399 Y98.537 E.02197
G1 X52.598 Y98.519 E.03758
G1 X52.598 Y95.124 E.10644
G1 X51.426 Y95.107 E.03675
G1 X50.709 Y94.905 E.02336
G1 X50.088 Y94.534 E.02267
G1 X49.499 Y93.91 E.02692
G1 X49.014 Y93.033 E.03141
G1 X48.789 Y92.108 E.02986
G1 X48.816 Y91.476 E.01985
G1 X48.964 Y90.903 E.01856
G1 X50.003 Y89.184 E.06296
G1 X50.954 Y88.008 E.04743
G1 X52.035 Y86.948 E.04746
G1 X52.962 Y86.238 E.03662
G1 X53.191 Y86.537 F9000
G1 F1200
G1 X53.582 Y86.238 E.01544
G1 X54.825 Y85.506 E.04524
G1 X56.143 Y84.919 E.04525
G1 X57.611 Y84.462 E.04818
G1 X59.233 Y84.172 E.05168
G1 X60.558 Y84.093 E.04161
G1 X62.254 Y84.194 E.05328
G1 X63.583 Y84.435 E.04232
G1 X65.025 Y84.868 E.04723
G1 X66.412 Y85.471 E.04742
G1 X67.719 Y86.234 E.04745
G1 X68.945 Y87.165 E.04825
G1 X70.066 Y88.255 E.04904
G1 X71.055 Y89.486 E.04952
G1 X71.894 Y90.822 E.04947
G1 X72.118 Y91.54 E.02357
G1 X72.139 Y92.092 E.01733
G1 X72.029 Y92.665 E.01829
G1 X71.427 Y93.791 E.04004
G1 X71.005 Y94.222 E.01891
G1 X70.501 Y94.534 E.01859
G1 X69.826 Y94.735 E.02206
G1 X68.331 Y94.746 E.04689
G1 X68.331 Y98.892 E.13
G1 X69.806 Y98.904 E.04624
G1 X70.43 Y99.075 E.02028
G1 X70.965 Y99.388 E.01944
G1 X71.489 Y99.936 E.02379
G1 X71.95 Y100.768 E.02983
G1 X72.139 Y101.545 E.02507
G1 X72.12 Y102.09 E.01709
G1 X71.985 Y102.615 E.017
G1 X71.017 Y104.208 E.05844
G1 X70.083 Y105.368 E.04669
G1 X69.017 Y106.414 E.04682
G1 X67.761 Y107.379 E.04968
G1 X66.52 Y108.115 E.04524
G1 X65.187 Y108.713 E.0458
G1 X63.746 Y109.167 E.04736
G1 X62.163 Y109.458 E.05049
G1 X60.556 Y109.548 E.05046
G1 X59.071 Y109.45 E.04666
G1 X57.611 Y109.18 E.04653
G1 X56.213 Y108.749 E.04588
G1 X54.831 Y108.139 E.04738
G1 X53.527 Y107.367 E.0475
G1 X52.288 Y106.413 E.04901
G1 X51.191 Y105.333 E.04827
G1 X50.237 Y104.135 E.04804
G1 X49.347 Y102.675 E.05359
G1 X49.18 Y102.054 E.02018
G1 X49.17 Y101.509 E.01708
G1 X49.277 Y100.976 E.01706
G1 X49.922 Y99.794 E.04219
G1 X50.383 Y99.357 E.01993
G1 X50.853 Y99.086 E.017
G1 X51.478 Y98.907 E.02041
G1 X52.975 Y98.894 E.04693
G1 X52.975 Y94.749 E.12997
G1 X51.5 Y94.737 E.04624
G1 X50.876 Y94.567 E.02028
G1 X50.341 Y94.254 E.01944
G1 X49.816 Y93.706 E.02379
G1 X49.356 Y92.873 E.02984
G1 X49.166 Y92.095 E.0251
G1 X49.186 Y91.55 E.01711
G1 X49.322 Y91.024 E.01701
G1 X50.304 Y89.412 E.0592
G1 X51.226 Y88.27 E.04602
G1 X52.29 Y87.226 E.04675
G1 X53.143 Y86.574 E.03366
G1 X53.371 Y86.872 F9000
G1 F1200
G1 X53.783 Y86.557 E.01625
G1 X55.007 Y85.836 E.04454
G1 X56.286 Y85.268 E.04389
G1 X57.711 Y84.826 E.04677
G1 X59.267 Y84.548 E.04955
G1 X60.571 Y84.47 E.04096
G1 X62.198 Y84.567 E.05111
G1 X63.485 Y84.799 E.041
G1 X64.886 Y85.218 E.04585
G1 X66.232 Y85.802 E.04601
G1 X67.5 Y86.542 E.04603
G1 X68.69 Y87.443 E.04681
G1 X69.78 Y88.5 E.04759
G1 X70.741 Y89.696 E.04812
G1 X71.561 Y91.001 E.0483
G1 X71.749 Y91.623 E.02039
G1 X71.762 Y92.08 E.01432
G1 X71.665 Y92.563 E.01546
G1 X71.137 Y93.549 E.03508
G1 X70.786 Y93.914 E.01588
G1 X70.323 Y94.2 E.01704
G1 X69.797 Y94.358 E.01724
G1 X67.954 Y94.372 E.05778
G1 X67.954 Y99.269 E.15355
G1 X69.734 Y99.275 E.05583
