; generated by PrusaSlicer 2.4.1+linux-x64-GTK2 on 2022-03-25 at 01:32:43 UTC

; 

; external perimeters extrusion width = 0.45mm
; perimeters extrusion width = 0.45mm
; infill extrusion width = 0.45mm
; solid infill extrusion width = 0.45mm
; top infill extrusion width = 0.40mm
; first layer extrusion width = 0.42mm

M107
;TYPE:Custom
G90 ; use absolute coordinates
M83 ; extruder relative mode
M140 S90 ; set final bed temp
M104 S150 ; set temporary nozzle temp to prevent oozing during homing
G4 S10 ; allow partial nozzle warmup
G28 ; home all axis
G1 Z50 F240
G1 X2 Y10 F3000
M104 S250 ; set final nozzle temp
M190 S90 ; wait for bed temp to stabilize
M109 S250 ; wait for nozzle temp to stabilize
G1 Z0.28 F240
G92 E0
G1 Y140 E10 F1500 ; prime the nozzle
G1 X2.3 F5000
G92 E0
G1 Y10 E10 F1200 ; prime the nozzle
G92 E0
G21 ; set units to millimeters
G90 ; use absolute coordinates
M83 ; use relative distances for extrusion
; Filament gcode
M107
;LAYER_CHANGE
;Z:0.1
;HEIGHT:0.1
;BEFORE_LAYER_CHANGE
G92 E0
;0.1


G1 E-6 F3600
G1 Z.1 F9000
;AFTER_LAYER_CHANGE
;0.1
G1 X83.584 Y73.202
G1 E6 F2400
M204 S500
;TYPE:Skirt/Brim
;WIDTH:0.42
G1 F1200
G1 X85.257 Y71.415 E.04055
G1 X86.773 Y70.158 E.03264
G1 X88.676 Y68.98 E.03707
G1 X89.93 Y68.389 E.02297
G1 X91.538 Y67.827 E.02822
G1 X94.043 Y67.315 E.04237
G1 X96.28 Y67.218 E.0371
G1 X97.939 Y67.351 E.02759
G1 X99.601 Y67.67 E.02804
G1 X101.452 Y68.26 E.03218
G1 X103.01 Y68.971 E.02838
G1 X104.22 Y69.687 E.0233
G1 X105.361 Y70.487 E.02308
G1 X106.651 Y71.611 E.02835
G1 X108.121 Y73.202 E.03589
G1 X108.936 Y74.514 E.0256
G1 X109.614 Y76.261 E.03104
G1 X109.898 Y77.779 E.0256
G1 X109.898 Y87.53 E.16156
G1 X109.614 Y89.048 E.0256
G1 X108.936 Y90.794 E.03104
G1 X108.121 Y92.107 E.0256
G1 X106.678 Y93.672 E.03527
G1 X105.188 Y94.961 E.03265
G1 X103.029 Y96.328 E.04234
G1 X101.775 Y96.92 E.02297
G1 X100.167 Y97.482 E.02822
G1 X97.979 Y97.954 E.03709
G1 X95.693 Y98.1 E.03796
G1 X94.043 Y97.994 E.02739
G1 X92.104 Y97.639 E.03267
G1 X90.253 Y97.049 E.03218
G1 X88.695 Y96.338 E.02838
G1 X87.485 Y95.622 E.0233
G1 X86.332 Y94.812 E.02334
G1 X85.059 Y93.702 E.02799
G1 X83.584 Y92.107 E.03599
G1 X82.769 Y90.794 E.0256
G1 X82.091 Y89.048 E.03104
G1 X81.807 Y87.53 E.0256
G1 X81.807 Y77.779 E.16156
G1 X82.091 Y76.261 E.0256
G1 X82.769 Y74.514 E.03104
G1 X83.552 Y73.253 E.02461
G1 X83.878 Y73.471 F9000
G1 F1200
G1 X85.533 Y71.703 E.04013
G1 X87.011 Y70.478 E.0318
G1 X88.848 Y69.34 E.03581
G1 X90.079 Y68.758 E.02255
G1 X91.663 Y68.205 E.0278
G1 X94.094 Y67.71 E.04111
G1 X96.254 Y67.615 E.03583
G1 X97.889 Y67.746 E.02718
G1 X99.5 Y68.056 E.02718
G1 X101.304 Y68.63 E.03136
G1 X102.837 Y69.33 E.02794
G1 X104.004 Y70.022 E.02246
G1 X105.104 Y70.792 E.02226
G1 X106.375 Y71.899 E.02792
G1 X107.827 Y73.471 E.03546
G1 X108.564 Y74.659 E.02317
G1 X109.242 Y76.405 E.03104
G1 X109.5 Y77.779 E.02317
G1 X109.5 Y87.53 E.16156
G1 X109.242 Y88.904 E.02317
G1 X108.564 Y90.65 E.03104
G1 X107.827 Y91.838 E.02317
G1 X106.172 Y93.606 E.04013
G1 X104.694 Y94.831 E.0318
G1 X102.857 Y95.969 E.03581
G1 X101.626 Y96.55 E.02255
G1 X100.042 Y97.104 E.0278
G1 X97.928 Y97.558 E.03583
G1 X95.693 Y97.701 E.03711
G1 X94.094 Y97.599 E.02655
G1 X92.205 Y97.253 E.03182
G1 X90.401 Y96.679 E.03136
G1 X88.867 Y95.978 E.02794
G1 X87.701 Y95.287 E.02246
G1 X86.589 Y94.508 E.02251
G1 X85.334 Y93.414 E.02757
G1 X83.878 Y91.838 E.03555
G1 X83.141 Y90.65 E.02317
G1 X82.463 Y88.904 E.03104
G1 X82.205 Y87.53 E.02317
G1 X82.205 Y77.779 E.16156
G1 X82.463 Y76.405 E.02317
G1 X83.141 Y74.659 E.03104
G1 X83.847 Y73.522 E.02217
G1 X84.172 Y73.74 F9000
G1 F1200
G1 X85.809 Y71.99 E.03971
G1 X87.249 Y70.798 E.03096
G1 X89.021 Y69.699 E.03455
G1 X90.228 Y69.128 E.02213
G1 X91.788 Y68.583 E.02738
G1 X94.145 Y68.105 E.03985
G1 X96.229 Y68.013 E.03457
G1 X97.84 Y68.142 E.02677
G1 X99.4 Y68.441 E.02632
G1 X101.155 Y69 E.03053
G1 X102.665 Y69.69 E.02751
G1 X104.848 Y71.097 E.04304
G1 X106.099 Y72.186 E.02748
G1 X107.533 Y73.74 E.03502
G1 X108.193 Y74.803 E.02074
G1 X108.871 Y76.549 E.03104
G1 X109.101 Y77.779 E.02074
G1 X109.101 Y87.53 E.16156
G1 X108.871 Y88.76 E.02074
G1 X108.193 Y90.506 E.03104
G1 X107.533 Y91.569 E.02074
G1 X105.895 Y93.319 E.03971
G1 X104.456 Y94.511 E.03096
G1 X102.684 Y95.61 E.03455
G1 X101.477 Y96.181 E.02213
G1 X99.917 Y96.725 E.02738
G1 X97.877 Y97.163 E.03457
G1 X95.693 Y97.303 E.03627
G1 X94.145 Y97.204 E.0257
G1 X92.305 Y96.868 E.03098
G1 X90.549 Y96.309 E.03053
G1 X89.04 Y95.619 E.02751
G1 X86.846 Y94.203 E.04327
G1 X85.61 Y93.126 E.02716
G1 X84.172 Y91.569 E.03511
G1 X83.512 Y90.506 E.02074
G1 X82.834 Y88.76 E.03104
G1 X82.604 Y87.53 E.02074
G1 X82.604 Y77.779 E.16156
G1 X82.834 Y76.549 E.02074
G1 X83.512 Y74.803 E.03104
G1 X84.141 Y73.791 E.01974
G1 E-4.2 F3600
;WIPE_START
G1 F7200
G1 X85.809 Y71.99 E-1.16623
G1 X86.691 Y71.26 E-.54377
;WIPE_END
G1 E-.09 F3600
G1 X87.316 Y75.978 F9000
G1 E6 F2400
G1 F1200
G1 X88.368 Y74.823 E.02589
G1 X89.388 Y73.962 E.02211
G1 X90.502 Y73.235 E.02205
G1 X91.796 Y72.61 E.0238
G1 X93.186 Y72.155 E.02423
G1 X94.538 Y71.902 E.02279
G1 X95.78 Y71.822 E.02063
G1 X97.041 Y71.887 E.02092
G1 X98.765 Y72.22 E.02909
G1 X100.051 Y72.668 E.02258
G1 X101.274 Y73.276 E.02263
G1 X102.31 Y73.957 E.02053
G1 X103.261 Y74.751 E.02054
G1 X104.247 Y75.799 E.02384
G1 X104.737 Y76.516 E.01439
G1 X105.286 Y78.338 E.03153
G1 X105.286 Y86.945 E.14261
G1 X105.001 Y88.182 E.02103
G1 X104.389 Y89.331 E.02157
G1 X103.337 Y90.486 E.02589
G1 X102.317 Y91.347 E.02211
G1 X101.205 Y92.073 E.02201
G1 X100.016 Y92.655 E.02193
G1 X98.769 Y93.087 E.02187
G1 X97.422 Y93.373 E.02281
G1 X96.044 Y93.485 E.02291
G1 X94.663 Y93.422 E.02291
G1 X93.301 Y93.182 E.02291
G1 X91.988 Y92.774 E.02278
G1 X90.412 Y92.023 E.02893
G1 X89.397 Y91.353 E.02015
G1 X88.468 Y90.581 E.02001
G1 X87.462 Y89.514 E.0243
G1 X86.969 Y88.795 E.01444
G1 X86.419 Y86.971 E.03158
G1 X86.419 Y78.364 E.14261
G1 X86.704 Y77.127 E.02103
G1 X87.288 Y76.031 E.02057
G1 X87.628 Y76.228 F9000
G1 F1200
G1 X88.635 Y75.119 E.02483
G1 X89.616 Y74.289 E.02128
G1 X90.709 Y73.576 E.02163
G1 X91.957 Y72.975 E.02295
G1 X93.273 Y72.544 E.02294
G1 X94.575 Y72.299 E.02197
G1 X95.794 Y72.22 E.02023
G1 X97.006 Y72.284 E.02011
G1 X98.647 Y72.601 E.02769
G1 X99.908 Y73.041 E.02213
G1 X101.066 Y73.616 E.02142
G1 X102.081 Y74.283 E.02014
G1 X102.996 Y75.049 E.01977
G1 X103.946 Y76.06 E.02299
G1 X104.391 Y76.715 E.01311
G1 X104.887 Y78.367 E.02859
G1 X104.887 Y86.922 E.14174
G1 X104.619 Y88.066 E.01947
G1 X104.077 Y89.081 E.01907
G1 X103.069 Y90.19 E.02483
G1 X102.089 Y91.02 E.02127
G1 X100.997 Y91.732 E.0216
G1 X99.852 Y92.292 E.02112
G1 X98.651 Y92.706 E.02106
G1 X97.353 Y92.98 E.02198
G1 X96.025 Y93.087 E.02207
G1 X94.695 Y93.024 E.02207
G1 X93.383 Y92.792 E.02207
G1 X92.121 Y92.398 E.02192
G1 X90.62 Y91.682 E.02755
G1 X89.643 Y91.04 E.01937
G1 X88.733 Y90.282 E.01962
G1 X87.763 Y89.253 E.02344
G1 X87.316 Y88.597 E.01316
G1 X86.818 Y86.942 E.02863
G1 X86.818 Y78.387 E.14174
G1 X87.085 Y77.243 E.01947
G1 X87.599 Y76.281 E.01808
G1 X87.939 Y76.477 F9000
G1 F1200
G1 X88.903 Y75.414 E.02377
G1 X89.864 Y74.602 E.02085
G1 X90.916 Y73.917 E.0208
G1 X92.094 Y73.349 E.02167
G1 X93.36 Y72.933 E.02208
G1 X94.614 Y72.695 E.02115
G1 X95.785 Y72.619 E.01944
G1 X96.971 Y72.682 E.01969
G1 X98.53 Y72.982 E.0263
G1 X99.743 Y73.403 E.02127
G1 X100.857 Y73.956 E.02061
G1 X101.834 Y74.597 E.01936
G1 X102.731 Y75.347 E.01937
G1 X103.644 Y76.321 E.02212
G1 X104.043 Y76.913 E.01183
G1 X104.489 Y78.396 E.02567
G1 X104.489 Y86.898 E.14087
G1 X104.238 Y87.948 E.01789
G1 X103.766 Y88.832 E.0166
G1 X102.802 Y89.895 E.02377
G1 X101.841 Y90.707 E.02085
G1 X100.79 Y91.391 E.02078
G1 X99.689 Y91.928 E.02031
G1 X98.533 Y92.325 E.02025
G1 X97.284 Y92.587 E.02116
G1 X96.007 Y92.689 E.02123
G1 X94.727 Y92.627 E.02123
G1 X93.466 Y92.402 E.02123
G1 X92.253 Y92.022 E.02105
G1 X90.827 Y91.342 E.02618
G1 X89.871 Y90.713 E.01896
G1 X88.997 Y89.984 E.01886
G1 X88.064 Y88.992 E.02257
G1 X87.663 Y88.399 E.01187
G1 X87.216 Y86.913 E.02571
G1 X87.216 Y78.411 E.14087
G1 X87.467 Y77.361 E.01789
G1 X87.911 Y76.53 E.01561
G1 X88.251 Y76.726 F9000
G1 F1200
G1 X89.171 Y75.71 E.02272
G1 X90.092 Y74.929 E.02
G1 X91.122 Y74.258 E.02038
G1 X92.254 Y73.714 E.02081
G1 X93.447 Y73.322 E.0208
G1 X94.652 Y73.092 E.02032
G1 X95.799 Y73.018 E.01904
G1 X96.936 Y73.079 E.01888
G1 X98.413 Y73.363 E.02492
G1 X99.578 Y73.766 E.02041
G1 X100.649 Y74.296 E.0198
G1 X101.606 Y74.923 E.01896
G1 X102.466 Y75.644 E.01859
G1 X103.342 Y76.581 E.02125
G1 X103.696 Y77.109 E.01053
G1 X104.09 Y78.425 E.02277
G1 X104.09 Y86.874 E.13998
G1 X103.857 Y87.829 E.01629
G1 X103.454 Y88.582 E.01417
G1 X102.534 Y89.599 E.02272
G1 X101.613 Y90.38 E.02
G1 X100.584 Y91.05 E.02036
G1 X99.526 Y91.564 E.01948
G1 X98.416 Y91.944 E.01944
G1 X97.215 Y92.195 E.02033
G1 X95.989 Y92.291 E.02038
G1 X94.76 Y92.229 E.02039
G1 X93.549 Y92.012 E.02038
G1 X92.386 Y91.646 E.02019
G1 X91.034 Y91.001 E.02482
G1 X90.118 Y90.4 E.01817
G1 X89.262 Y89.686 E.01846
G1 X88.366 Y88.731 E.02169
G1 X88.01 Y88.201 E.01058
G1 X87.615 Y86.884 E.0228
G1 X87.615 Y78.435 E.13998
G1 X87.848 Y77.48 E.01629
G1 X88.223 Y76.779 E.01317
G1 X88.563 Y76.975 F9000
G1 F1200
G1 X89.439 Y76.005 E.02166
G1 X90.34 Y75.241 E.01957
G1 X91.328 Y74.599 E.01953
G1 X92.392 Y74.089 E.01955
G1 X93.535 Y73.711 E.01995
G1 X94.691 Y73.489 E.0195
G1 X95.789 Y73.416 E.01824
G1 X96.901 Y73.476 E.01845
G1 X98.297 Y73.745 E.02355
G1 X99.413 Y74.129 E.01956
G1 X100.441 Y74.636 E.01899
G1 X101.359 Y75.236 E.01817
G1 X102.2 Y75.942 E.01819
G1 X103.039 Y76.841 E.02037
G1 X103.347 Y77.305 E.00924
G1 X103.691 Y78.454 E.01988
G1 X103.691 Y86.849 E.13909
G1 X103.477 Y87.707 E.01467
G1 X103.141 Y88.334 E.01177
G1 X102.266 Y89.304 E.02166
G1 X101.365 Y90.068 E.01956
G1 X100.377 Y90.709 E.01952
G1 X99.363 Y91.2 E.01867
G1 X98.299 Y91.563 E.01863
G1 X97.147 Y91.802 E.0195
G1 X95.971 Y91.892 E.01954
G1 X94.793 Y91.832 E.01954
G1 X93.633 Y91.622 E.01954
G1 X92.52 Y91.27 E.01934
G1 X91.242 Y90.661 E.02346
G1 X90.346 Y90.073 E.01775
G1 X89.527 Y89.388 E.01769
G1 X88.669 Y88.471 E.02081
G1 X88.358 Y88.005 E.00927
G1 X88.013 Y86.854 E.01991
G1 X88.013 Y78.46 E.13909
G1 X88.228 Y77.601 E.01467
G1 X88.535 Y77.028 E.01077
G1 X88.876 Y77.224 F9000
G1 F1200
G1 X89.707 Y76.3 E.0206
G1 X90.567 Y75.568 E.0187
G1 X91.534 Y74.941 E.0191
G1 X92.552 Y74.454 E.0187
G1 X93.624 Y74.1 E.01869
G1 X94.73 Y73.886 E.01867
G1 X95.803 Y73.815 E.01782
G1 X96.866 Y73.873 E.01763
G1 X98.181 Y74.126 E.02219
G1 X99.249 Y74.493 E.0187
G1 X100.234 Y74.977 E.01818
G1 X101.112 Y75.549 E.01738
G1 X101.934 Y76.239 E.01778
G1 X102.735 Y77.1 E.01948
G1 X102.998 Y77.499 E.00793
G1 X103.293 Y78.484 E.01702
G1 X103.293 Y86.823 E.13818
G1 X103.097 Y87.584 E.01303
G1 X102.829 Y88.085 E.00941
G1 X101.997 Y89.009 E.0206
G1 X101.138 Y89.741 E.0187
G1 X100.171 Y90.368 E.01909
G1 X99.201 Y90.836 E.01784
G1 X98.183 Y91.182 E.01782
G1 X97.079 Y91.409 E.01867
G1 X95.954 Y91.494 E.0187
G1 X94.827 Y91.435 E.0187
G1 X93.717 Y91.233 E.0187
G1 X92.654 Y90.895 E.01848
G1 X91.449 Y90.32 E.02212
G1 X90.593 Y89.76 E.01695
G1 X89.792 Y89.09 E.01729
G1 X88.972 Y88.212 E.01991
G1 X88.707 Y87.811 E.00796
G1 X88.412 Y86.825 E.01704
G1 X88.412 Y78.486 E.13818
G1 X88.608 Y77.724 E.01303
G1 X88.848 Y77.277 E.00841
G1 X89.189 Y77.472 F9000
G1 F1200
G1 X89.976 Y76.594 E.01954
G1 X90.796 Y75.895 E.01784
G1 X91.719 Y75.294 E.01825
G1 X92.69 Y74.828 E.01785
G1 X93.713 Y74.489 E.01785
G1 X94.77 Y74.283 E.01784
G1 X95.794 Y74.213 E.01701
G1 X96.83 Y74.271 E.0172
G1 X98.065 Y74.508 E.02084
G1 X99.085 Y74.856 E.01785
G1 X100.026 Y75.317 E.01737
G1 X100.884 Y75.877 E.01697
G1 X101.668 Y76.536 E.01698
G1 X102.431 Y77.358 E.01858
G1 X102.648 Y77.692 E.00661
G1 X102.894 Y78.513 E.01419
G1 X102.894 Y86.796 E.13725
G1 X102.718 Y87.459 E.01137
G1 X102.516 Y87.837 E.0071
G1 X101.729 Y88.715 E.01954
G1 X100.909 Y89.414 E.01784
G1 X99.986 Y90.014 E.01824
G1 X99.039 Y90.471 E.01742
G1 X98.067 Y90.8 E.017
G1 X97.012 Y91.016 E.01784
G1 X95.937 Y91.095 E.01786
G1 X94.861 Y91.037 E.01786
G1 X93.801 Y90.843 E.01786
G1 X92.788 Y90.519 E.01763
G1 X91.656 Y89.979 E.02078
G1 X90.821 Y89.433 E.01654
G1 X90.058 Y88.793 E.0165
G1 X89.276 Y87.953 E.01901
G1 X89.057 Y87.618 E.00664
G1 X88.81 Y86.796 E.01421
G1 X88.81 Y78.513 E.13725
G1 X88.987 Y77.85 E.01137
G1 X89.16 Y77.525 E.0061
G1 X89.502 Y77.719 F9000
G1 F1200
G1 X90.246 Y76.888 E.01848
G1 X91.025 Y76.222 E.01699
G1 X91.904 Y75.648 E.0174
G1 X92.828 Y75.202 E.01701
G1 X93.802 Y74.877 E.01701
G1 X94.809 Y74.679 E.01701
G1 X95.808 Y74.612 E.01659
G1 X96.794 Y74.668 E.01636
G1 X97.95 Y74.89 E.01951
G1 X98.922 Y75.22 E.017
G1 X99.819 Y75.658 E.01654
G1 X100.656 Y76.204 E.01656
G1 X101.402 Y76.833 E.01616
G1 X102.126 Y77.615 E.01766
G1 X102.298 Y77.883 E.00528
G1 X102.496 Y78.542 E.0114
G1 X102.496 Y86.768 E.1363
G1 X102.34 Y87.331 E.00968
G1 X102.203 Y87.589 E.00484
G1 X101.459 Y88.421 E.01848
G1 X100.68 Y89.087 E.01699
G1 X99.801 Y89.661 E.0174
G1 X98.9 Y90.098 E.01659
G1 X97.952 Y90.419 E.01658
G1 X96.946 Y90.623 E.01701
G1 X95.922 Y90.697 E.01701
G1 X94.896 Y90.64 E.01701
G1 X93.887 Y90.453 E.01701
G1 X92.923 Y90.144 E.01678
G1 X91.863 Y89.638 E.01947
G1 X91.068 Y89.119 E.01573
G1 X90.323 Y88.496 E.01609
G1 X89.58 Y87.696 E.01809
G1 X89.407 Y87.426 E.0053
G1 X89.209 Y86.767 E.01141
G1 X89.209 Y78.541 E.1363
G1 X89.365 Y77.978 E.00968
G1 X89.474 Y77.772 E.00385
G1 X89.822 Y77.964 F9000
G1 F1200
G1 X90.532 Y77.165 E.01771
G1 X91.274 Y76.533 E.01614
G1 X92.089 Y76.001 E.01614
G1 X92.967 Y75.576 E.01617
G1 X93.892 Y75.266 E.01617
G1 X94.85 Y75.076 E.01617
G1 X95.798 Y75.01 E.01575
G1 X96.758 Y75.065 E.01593
G1 X97.836 Y75.272 E.01817
G1 X98.759 Y75.584 E.01616
G1 X99.613 Y75.999 E.01572
G1 X100.409 Y76.516 E.01573
G1 X101.135 Y77.129 E.01575
G1 X101.82 Y77.871 E.01673
G1 X101.946 Y78.072 E.00393
G1 X102.097 Y78.571 E.00865
G1 X102.097 Y86.739 E.13533
G1 X101.964 Y87.197 E.0079
G1 X101.866 Y87.376 E.00339
G1 X101.173 Y88.144 E.01715
G1 X100.431 Y88.776 E.01614
G1 X99.616 Y89.308 E.01614
G1 X98.738 Y89.733 E.01617
G1 X97.837 Y90.037 E.01575
G1 X96.88 Y90.229 E.01617
G1 X95.906 Y90.299 E.01617
G1 X94.932 Y90.243 E.01617
G1 X93.973 Y90.064 E.01617
G1 X93.058 Y89.769 E.01593
G1 X92.069 Y89.297 E.01815
G1 X91.296 Y88.792 E.0153
G1 X90.59 Y88.199 E.01529
G1 X89.886 Y87.439 E.01715
G1 X89.759 Y87.238 E.00395
G1 X89.608 Y86.737 E.00866
G1 X89.608 Y78.57 E.13533
G1 X89.74 Y78.112 E.0079
G1 X89.793 Y78.016 E.00181
G1 X90.136 Y78.214 F9000
G1 F1200
G1 X90.172 Y78.153 E.00118
G1 X90.818 Y77.443 E.0159
G1 X91.522 Y76.845 E.01531
G1 X92.275 Y76.354 E.0149
G1 X93.107 Y75.949 E.01533
G1 X93.983 Y75.654 E.01532
G1 X94.89 Y75.473 E.01533
G1 X95.813 Y75.409 E.01533
G1 X96.722 Y75.462 E.01508
G1 X97.721 Y75.654 E.01686
G1 X98.597 Y75.949 E.01532
G1 X99.407 Y76.34 E.0149
G1 X100.161 Y76.829 E.0149
G1 X100.868 Y77.426 E.01532
G1 X101.512 Y78.125 E.01575
G1 X101.592 Y78.257 E.00255
G1 X101.699 Y78.602 E.00598
G1 X101.699 Y86.707 E.1343
G1 X101.592 Y87.054 E.00602
G1 X101.533 Y87.156 E.00195
G1 X100.887 Y87.866 E.0159
G1 X100.183 Y88.464 E.01531
G1 X99.43 Y88.955 E.0149
G1 X98.598 Y89.36 E.01533
G1 X97.722 Y89.655 E.01532
G1 X96.815 Y89.836 E.01533
G1 X95.892 Y89.9 E.01533
G1 X94.968 Y89.846 E.01533
G1 X94.059 Y89.675 E.01533
G1 X93.194 Y89.394 E.01508
G1 X92.275 Y88.956 E.01686
G1 X91.543 Y88.479 E.01448
G1 X90.856 Y87.902 E.01487
G1 X90.193 Y87.185 E.01618
G1 X90.113 Y87.052 E.00257
G1 X90.006 Y86.707 E.00599
G1 X90.006 Y78.602 E.1343
G1 X90.109 Y78.267 E.0058
G1 X90.481 Y78.409 F9000
G1 F1200
G1 X91.086 Y77.739 E.01496
G1 X91.751 Y77.172 E.01447
G1 X92.482 Y76.694 E.01447
G1 X93.269 Y76.313 E.01448
G1 X94.097 Y76.036 E.01448
G1 X94.955 Y75.866 E.01448
G1 X95.827 Y75.807 E.01448
G1 X96.685 Y75.859 E.01424
G1 X97.608 Y76.036 E.01557
G1 X98.436 Y76.313 E.01447
G1 X99.201 Y76.682 E.01406
G1 X99.934 Y77.157 E.01448
G1 X100.601 Y77.721 E.01448
G1 X101.207 Y78.381 E.01484
G1 X101.3 Y78.637 E.00451
G1 X101.3 Y86.672 E.13314
G1 X101.206 Y86.928 E.00451
G1 X100.619 Y87.57 E.01443
G1 X99.954 Y88.137 E.01447
