; generated by PrusaSlicer 2.4.2+linux-x64-GTK2 on 2022-05-31 at 23:57:06 UTC

; 

; external perimeters extrusion width = 0.45mm
; perimeters extrusion width = 0.45mm
; infill extrusion width = 0.45mm
; solid infill extrusion width = 0.45mm
; top infill extrusion width = 0.40mm
; support material extrusion width = 0.38mm
; first layer extrusion width = 0.42mm

M107
;TYPE:Custom
G90 ; use absolute coordinates
M83 ; extruder relative mode
M140 S90 ; set final bed temp
M104 S150 ; set temporary nozzle temp to prevent oozing during homing
G4 S10 ; allow partial nozzle warmup
G28 ; home all axis
G1 Z50 F240
G1 X2 Y10 F3000
M104 S255 ; set final nozzle temp
M190 S90 ; wait for bed temp to stabilize
M109 S255 ; wait for nozzle temp to stabilize
G1 Z0.28 F240
G92 E0
G1 Y140 E10 F1500 ; prime the nozzle
G1 X2.3 F5000
G92 E0
G1 Y10 E10 F1200 ; prime the nozzle
G92 E0
G21 ; set units to millimeters
G90 ; use absolute coordinates
M83 ; use relative distances for extrusion
; Filament gcode
M107
;LAYER_CHANGE
;Z:0.2
;HEIGHT:0.2
;BEFORE_LAYER_CHANGE
G92 E0
;0.2


G1 E-6 F3600
G1 Z.2 F9000
;AFTER_LAYER_CHANGE
;0.2
G1 X77.394 Y67.628
G1 E6 F2400
M204 S500
;TYPE:Skirt/Brim
;WIDTH:0.42
G1 F1200
G1 X79.504 Y66.55 E.07428
G1 X82.982 Y66.17 E.10968
G1 X202.652 Y66.087 E3.75217
G1 X205.744 Y66.445 E.09761
G1 X207.744 Y67.412 E.06963
G1 X208.695 Y68.92 E.05592
G1 X208.843 Y69.91 E.03139
G1 X208.843 Y92.38 E.70452
G1 X208.143 Y94.439 E.0682
G1 X207.954 Y94.684 E.0097
G1 X206.808 Y95.635 E.0467
G1 X202.169 Y97.994 E.16317
G1 X200.642 Y98.361 E.04924
G1 X84.61 Y98.466 E3.63811
G1 X83.1 Y98.11 E.04866
G1 X78.383 Y95.751 E.16536
G1 X77.394 Y95.008 E.03877
G1 X76.554 Y93.61 E.05115
G1 X76.405 Y92.62 E.03138
G1 X76.405 Y70.016 E.70875
G1 X76.799 Y68.433 E.05115
G1 X77.359 Y67.676 E.0295
G1 E-4.2 F3600
;WIPE_START
G1 F7200
G1 X79.504 Y66.55 E-1.15089
G1 X80.675 Y66.422 E-.55911
;WIPE_END
G1 E-.09 F3600
G1 X185.585 Y73.736 F9000
G1 E6 F2400
G1 F1200
G1 X185.86 Y72.702 E.03355
G1 X186.267 Y71.893 E.02839
G1 X187.165 Y70.881 E.04242
G1 X187.798 Y70.381 E.02528
G1 X189.467 Y69.771 E.05573
G1 X191.133 Y69.756 E.05222
G1 X192.31 Y70.083 E.03831
G1 X193.381 Y70.73 E.03923
G1 X194.242 Y71.619 E.03882
G1 X194.844 Y72.686 E.03841
G1 X195.072 Y73.65 E.03107
G1 X195.366 Y73.655 E.0092
G1 X195.634 Y72.666 E.03213
G1 X196.053 Y71.853 E.02869
G1 X196.925 Y70.881 E.04092
G1 X197.558 Y70.381 E.02531
G1 X199.164 Y69.782 E.05373
G1 X200.944 Y69.763 E.05583
G1 X202.069 Y70.083 E.03666
G1 X203.14 Y70.73 E.03925
G1 X204.002 Y71.619 E.03882
G1 X204.603 Y72.686 E.0384
G1 X204.901 Y73.961 E.04105
G1 X204.887 Y77.101 E.09845
G1 X204.605 Y78.181 E.03501
G1 X204.171 Y79.03 E.02989
G1 X203.301 Y80.002 E.04091
G1 X202.67 Y80.501 E.02522
G1 X201.015 Y81.11 E.05529
G1 X199.324 Y81.129 E.05303
G1 X198.14 Y80.795 E.03855
G1 X197.116 Y80.172 E.0376
G1 X196.253 Y79.303 E.03839
G1 X195.621 Y78.194 E.04005
G1 X195.393 Y77.233 E.03094
G1 X195.1 Y77.229 E.0092
G1 X194.832 Y78.218 E.03213
G1 X194.439 Y78.99 E.02717
G1 X193.541 Y80.001 E.0424
G1 X192.86 Y80.529 E.02703
G1 X191.318 Y81.098 E.05152
G1 X189.564 Y81.129 E.05503
G1 X188.381 Y80.796 E.03852
G1 X187.322 Y80.144 E.03898
G1 X186.465 Y79.265 E.03851
G1 X185.842 Y78.144 E.04019
G1 X185.564 Y76.923 E.03928
G1 X185.585 Y73.796 E.09805
G1 X185.956 Y73.809 F9000
G1 F1200
G1 X186.22 Y72.818 E.03216
G1 X186.592 Y72.086 E.02575
G1 X187.435 Y71.145 E.0396
G1 X188.007 Y70.696 E.02282
G1 X189.503 Y70.147 E.04996
G1 X191.11 Y70.133 E.05037
G1 X192.137 Y70.419 E.03344
G1 X193.164 Y71.04 E.03763
G1 X193.953 Y71.862 E.03572
G1 X194.501 Y72.845 E.0353
G1 X194.769 Y74.023 E.03787
G1 X194.75 Y77.074 E.09566
G1 X194.487 Y78.065 E.03216
G1 X194.115 Y78.797 E.02575
G1 X193.272 Y79.738 E.0396
G1 X192.701 Y80.186 E.02275
G1 X191.219 Y80.733 E.04954
G1 X189.588 Y80.751 E.05112
G1 X188.511 Y80.441 E.03515
G1 X187.575 Y79.863 E.03449
G1 X186.78 Y79.057 E.03548
G1 X186.204 Y78.033 E.03684
G1 X185.937 Y76.86 E.03773
G1 X185.956 Y73.869 E.09378
G1 X186.327 Y73.883 F9000
G1 F1200
G1 X186.579 Y72.935 E.03074
G1 X186.915 Y72.281 E.02306
G1 X187.703 Y71.411 E.03679
G1 X188.215 Y71.013 E.02035
G1 X189.6 Y70.513 E.04618
G1 X191.036 Y70.504 E.04502
G1 X191.967 Y70.757 E.03025
G1 X192.912 Y71.32 E.0345
G1 X193.635 Y72.068 E.03262
G1 X194.158 Y73.005 E.03365
G1 X194.392 Y74.043 E.03335
G1 X194.379 Y77.001 E.09274
G1 X194.127 Y77.948 E.03074
G1 X193.791 Y78.602 E.02306
G1 X193.004 Y79.472 E.03679
G1 X192.493 Y79.869 E.02028
G1 X191.121 Y80.368 E.04578
G1 X189.666 Y80.382 E.0456
G1 X188.641 Y80.086 E.03345
G1 X187.795 Y79.556 E.03132
G1 X187.068 Y78.812 E.03259
G1 X186.547 Y77.874 E.03365
G1 X186.314 Y76.84 E.03323
G1 X186.326 Y73.943 E.09086
G1 X186.697 Y73.956 F9000
G1 F1200
G1 X186.938 Y73.053 E.0293
G1 X187.237 Y72.478 E.02032
G1 X187.969 Y71.678 E.03399
G1 X188.421 Y71.33 E.01788
G1 X189.694 Y70.88 E.04236
G1 X191.01 Y70.88 E.04126
G1 X191.798 Y71.094 E.02559
G1 X192.659 Y71.601 E.03133
G1 X193.347 Y72.311 E.031
G1 X193.815 Y73.162 E.03045
G1 X194.015 Y74.063 E.02892
G1 X194.009 Y76.927 E.08982
G1 X193.769 Y77.831 E.0293
G1 X193.469 Y78.405 E.02032
G1 X192.737 Y79.205 E.03399
G1 X192.286 Y79.553 E.01787
G1 X191.083 Y79.991 E.04015
G1 X189.741 Y80.011 E.04207
G1 X188.816 Y79.751 E.03013
G1 X188.048 Y79.276 E.02832
G1 X187.356 Y78.568 E.03103
G1 X186.89 Y77.717 E.0304
G1 X186.691 Y76.821 E.02881
G1 X186.697 Y74.016 E.08794
G1 X187.068 Y74.029 F9000
G1 F1200
G1 X187.296 Y73.171 E.02783
G1 X187.558 Y72.678 E.01752
G1 X188.234 Y71.947 E.03121
G1 X188.626 Y71.647 E.01546
G1 X189.728 Y71.256 E.03667
G1 X190.939 Y71.252 E.03797
G1 X191.632 Y71.434 E.02246
G1 X192.409 Y71.885 E.02816
G1 X193.029 Y72.516 E.02776
G1 X193.471 Y73.32 E.02876
G1 X193.638 Y74.083 E.02448
G1 X193.638 Y76.854 E.0869
G1 X193.41 Y77.712 E.02783
G1 X193.148 Y78.206 E.01752
G1 X192.472 Y78.936 E.03121
G1 X192.081 Y79.235 E.01543
G1 X190.986 Y79.626 E.03644
G1 X189.815 Y79.64 E.03674
G1 X188.989 Y79.415 E.02685
G1 X188.299 Y78.993 E.02534
G1 X187.674 Y78.363 E.02784
G1 X187.234 Y77.56 E.0287
G1 X187.068 Y76.8 E.02438
G1 X187.068 Y74.089 E.08502
G1 X187.445 Y74.089 F9000
G1 F1200
G1 X187.654 Y73.293 E.0258
G1 X187.878 Y72.88 E.01474
G1 X188.498 Y72.217 E.02845
G1 X188.829 Y71.967 E.01301
G1 X189.821 Y71.623 E.03291
G1 X190.87 Y71.623 E.03289
G1 X191.468 Y71.775 E.01937
G1 X192.158 Y72.168 E.0249
G1 X192.741 Y72.761 E.02607
G1 X193.126 Y73.475 E.02542
G1 X193.261 Y74.102 E.02014
G1 X193.261 Y76.828 E.08547
G1 X193.052 Y77.59 E.02477
G1 X192.829 Y78.004 E.01474
G1 X192.208 Y78.666 E.02845
G1 X191.877 Y78.917 E.01304
G1 X190.948 Y79.249 E.03093
G1 X189.888 Y79.269 E.03325
G1 X189.114 Y79.058 E.02513
G1 X188.551 Y78.712 E.02072
G1 X187.962 Y78.117 E.02626
G1 X187.579 Y77.406 E.02531
G1 X187.445 Y76.781 E.02005
G1 X187.445 Y74.149 E.08252
G1 X187.822 Y74.149 F9000
G1 F1200
G1 X187.822 Y74.082 E.00211
G1 X188.01 Y73.418 E.02162
G1 X188.195 Y73.084 E.01196
G1 X188.76 Y72.489 E.02573
G1 X189.031 Y72.286 E.01062
G1 X189.854 Y72 E.02733
G1 X190.804 Y71.995 E.02979
G1 X191.309 Y72.117 E.01626
G1 X191.911 Y72.454 E.02165
G1 X192.422 Y72.965 E.02266
G1 X192.781 Y73.629 E.02366
G1 X192.884 Y74.121 E.01577
G1 X192.884 Y76.802 E.08404
G1 X192.696 Y77.465 E.02162
G1 X192.511 Y77.799 E.01196
G1 X191.947 Y78.394 E.02573
G1 X191.675 Y78.597 E.01062
G1 X190.855 Y78.883 E.02725
G1 X189.912 Y78.892 E.02954
G1 X189.245 Y78.703 E.02176
G1 X188.772 Y78.406 E.01752
G1 X188.251 Y77.874 E.02333
G1 X187.925 Y77.255 E.02193
G1 X187.822 Y76.762 E.0158
G1 X187.822 Y74.209 E.08005
G1 X188.199 Y74.209 F9000
G1 F1200
G1 X188.199 Y74.11 E.00311
G1 X188.365 Y73.547 E.01838
G1 X188.51 Y73.293 E.00919
G1 X189.019 Y72.763 E.02305
G1 X189.23 Y72.608 E.00819
G1 X189.943 Y72.368 E.02361
G1 X190.78 Y72.371 E.02624
G1 X191.151 Y72.46 E.01196
G1 X191.665 Y72.74 E.01834
G1 X192.135 Y73.211 E.02086
G1 X192.434 Y73.779 E.02014
G1 X192.507 Y74.139 E.01152
G1 X192.507 Y76.774 E.08259
G1 X192.341 Y77.336 E.01838
G1 X192.196 Y77.591 E.00919
G1 X191.687 Y78.121 E.02305
G1 X191.477 Y78.275 E.00819
G1 X190.765 Y78.516 E.02355
G1 X189.941 Y78.516 E.02582
G1 X189.378 Y78.35 E.01842
G1 X189.023 Y78.124 E.01318
G1 X188.571 Y77.672 E.02004
G1 X188.272 Y77.104 E.02014
G1 X188.199 Y76.744 E.01152
G1 X188.199 Y74.269 E.0776
G1 X188.577 Y74.269 F9000
G1 F1200
G1 X188.577 Y74.139 E.00407
G1 X188.718 Y73.682 E.015
G1 X188.822 Y73.505 E.00643
G1 X189.277 Y73.038 E.02044
G1 X189.427 Y72.93 E.0058
G1 X189.973 Y72.745 E.01808
G1 X190.757 Y72.748 E.02458
G1 X190.998 Y72.805 E.00774
G1 X191.419 Y73.028 E.01494
G1 X191.846 Y73.456 E.01896
G1 X192.085 Y73.925 E.0165
G1 X192.13 Y74.156 E.0074
G1 X192.13 Y76.744 E.08113
G1 X191.989 Y77.201 E.015
G1 X191.884 Y77.378 E.00643
G1 X191.429 Y77.845 E.02044
G1 X191.279 Y77.953 E.0058
G1 X190.734 Y78.138 E.01806
G1 X189.971 Y78.138 E.02392
G1 X189.515 Y77.998 E.01496
G1 X189.276 Y77.844 E.00892
G1 X188.86 Y77.428 E.01845
G1 X188.621 Y76.959 E.0165
G1 X188.577 Y76.727 E.0074
G1 X188.577 Y74.329 E.07519
G1 X188.954 Y74.329 F9000
G1 F1200
G1 X188.954 Y74.171 E.00495
G1 X189.067 Y73.824 E.01144
G1 X189.13 Y73.724 E.00371
G1 X189.532 Y73.317 E.01795
G1 X189.621 Y73.254 E.00343
G1 X190.004 Y73.122 E.01268
G1 X190.734 Y73.125 E.02291
G1 X190.849 Y73.152 E.0037
G1 X191.175 Y73.317 E.01144
G1 X191.556 Y73.699 E.01693
G1 X191.734 Y74.063 E.0127
G1 X191.753 Y74.171 E.00345
G1 X191.753 Y76.712 E.07968
G1 X191.639 Y77.059 E.01144
G1 X191.577 Y77.159 E.00371
G1 X191.174 Y77.566 E.01795
G1 X191.085 Y77.629 E.00343
G1 X190.702 Y77.761 E.0127
G1 X190.003 Y77.761 E.02193
G1 X189.658 Y77.648 E.01136
G1 X189.529 Y77.564 E.00484
G1 X189.15 Y77.184 E.01682
G1 X188.972 Y76.82 E.0127
G1 X188.954 Y76.712 E.00345
G1 X188.954 Y74.389 E.07284
G1 X189.331 Y74.389 F9000
G1 F1200
G1 X189.331 Y74.206 E.00573
G1 X189.43 Y73.952 E.00856
G1 X189.783 Y73.598 E.01566
G1 X190.038 Y73.499 E.00856
G1 X190.714 Y73.505 E.02122
G1 X190.933 Y73.608 E.00757
G1 X191.266 Y73.942 E.01477
G1 X191.376 Y74.192 E.00856
G1 X191.376 Y76.677 E.07793
G1 X191.276 Y76.932 E.00856
G1 X190.896 Y77.303 E.01666
G1 X190.668 Y77.384 E.00757
G1 X190.038 Y77.384 E.01977
G1 X189.783 Y77.285 E.00856
G1 X189.44 Y76.942 E.01522
G1 X189.331 Y76.691 E.00856
G1 X189.331 Y74.449 E.07031
G1 X189.708 Y74.449 F9000
G1 F1200
G1 X189.708 Y74.248 E.0063
G1 X189.736 Y74.179 E.00235
G1 X190.01 Y73.905 E.01215
G1 X190.08 Y73.876 E.00235
G1 X190.627 Y73.876 E.01715
G1 X190.696 Y73.905 E.00235
G1 X190.97 Y74.179 E.01215
G1 X190.998 Y74.248 E.00235
G1 X190.998 Y76.635 E.07485
G1 X190.97 Y76.705 E.00235
G1 X190.696 Y76.979 E.01215
G1 X190.627 Y77.007 E.00235
G1 X190.08 Y77.007 E.01715
G1 X190.01 Y76.979 E.00235
G1 X189.736 Y76.705 E.01215
G1 X189.708 Y76.635 E.00235
G1 X189.708 Y74.509 E.06667
G1 X190.085 Y74.509 F9000
G1 F1200
G1 X190.085 Y74.364 E.00456
G1 X190.195 Y74.253 E.0049
G1 X190.511 Y74.253 E.0099
G1 X190.621 Y74.364 E.0049
G1 X190.621 Y76.52 E.06761
G1 X190.511 Y76.63 E.0049
G1 X190.195 Y76.63 E.0099
G1 X190.085 Y76.52 E.0049
G1 X190.085 Y74.569 E.06117
G1 E-4.2 F3600
;WIPE_START
G1 F7200
G1 X190.085 Y74.364 E-.09755
G1 X190.195 Y74.253 E-.07419
G1 X190.511 Y74.253 E-.14994
G1 X190.621 Y74.364 E-.07419
G1 X190.621 Y76.52 E-1.02419
G1 X190.511 Y76.63 E-.07419
G1 X190.195 Y76.63 E-.14993
G1 X190.097 Y76.532 E-.06581
;WIPE_END
G1 E-.09 F3600
G1 X195.711 Y74.604 F9000
G1 E6 F2400
G1 F1200
G1 X195.716 Y73.809 E.02492
G1 X195.979 Y72.818 E.03216
G1 X196.351 Y72.086 E.02575
G1 X197.194 Y71.145 E.0396
G1 X197.767 Y70.696 E.02282
G1 X199.263 Y70.147 E.04996
G1 X200.869 Y70.133 E.05037
G1 X201.896 Y70.419 E.03344
G1 X202.924 Y71.04 E.03763
G1 X203.712 Y71.862 E.03572
G1 X204.26 Y72.845 E.0353
G1 X204.529 Y74.023 E.03787
G1 X204.51 Y77.074 E.09566
G1 X204.246 Y78.065 E.03216
G1 X203.874 Y78.797 E.02575
G1 X203.031 Y79.738 E.0396
G1 X202.46 Y80.186 E.02275
G1 X200.978 Y80.733 E.04954
G1 X199.348 Y80.751 E.05112
G1 X198.27 Y80.441 E.03515
G1 X197.334 Y79.863 E.03449
G1 X196.54 Y79.057 E.03548
G1 X195.963 Y78.033 E.03684
G1 X195.696 Y76.86 E.03773
G1 X195.71 Y74.664 E.06886
G1 X196.083 Y74.666 F9000
G1 F1200
G1 X196.086 Y73.883 E.02455
G1 X196.338 Y72.935 E.03074
G1 X196.675 Y72.281 E.02306
G1 X197.462 Y71.411 E.03679
G1 X197.974 Y71.013 E.02035
G1 X199.36 Y70.513 E.04618
G1 X200.795 Y70.504 E.04502
G1 X201.726 Y70.757 E.03025
G1 X202.671 Y71.32 E.0345
G1 X203.395 Y72.068 E.03262
G1 X203.918 Y73.005 E.03365
G1 X204.152 Y74.043 E.03335
G1 X204.139 Y77.001 E.09274
G1 X203.887 Y77.948 E.03074
G1 X203.551 Y78.602 E.02306
G1 X202.763 Y79.472 E.03679
G1 X202.253 Y79.869 E.02028
G1 X200.88 Y80.368 E.04578
G1 X199.426 Y80.382 E.0456
G1 X198.401 Y80.086 E.03345
G1 X197.554 Y79.556 E.03132
G1 X196.828 Y78.812 E.03259
G1 X196.306 Y77.874 E.03365
G1 X196.074 Y76.84 E.03323
G1 X196.083 Y74.726 E.06631
G1 X196.455 Y74.726 F9000
G1 F1200
G1 X196.457 Y73.956 E.02416
G1 X196.697 Y73.053 E.0293
G1 X196.997 Y72.478 E.02032
G1 X197.729 Y71.678 E.03399
G1 X198.18 Y71.33 E.01788
G1 X199.454 Y70.88 E.04236
G1 X200.769 Y70.88 E.04126
G1 X201.557 Y71.094 E.02559
G1 X202.418 Y71.601 E.03133
G1 X203.106 Y72.311 E.031
G1 X203.574 Y73.162 E.03045
G1 X203.775 Y74.063 E.02892
G1 X203.768 Y76.927 E.08982
G1 X203.528 Y77.831 E.0293
G1 X203.228 Y78.405 E.02032
G1 X202.496 Y79.205 E.03399
G1 X202.045 Y79.553 E.01787
G1 X200.842 Y79.991 E.04015
G1 X199.501 Y80.011 E.04207
G1 X198.576 Y79.751 E.03013
G1 X197.807 Y79.276 E.02832
G1 X197.116 Y78.568 E.03103
G1 X196.65 Y77.717 E.0304
G1 X196.451 Y76.821 E.02881
G1 X196.455 Y74.786 E.06378
G1 X196.828 Y74.786 F9000
G1 F1200
G1 X196.828 Y74.029 E.02375
G1 X197.056 Y73.171 E.02783
G1 X197.318 Y72.678 E.01752
G1 X197.994 Y71.947 E.03121
G1 X198.385 Y71.647 E.01546
G1 X199.488 Y71.256 E.03667
G1 X200.699 Y71.252 E.03797
G1 X201.391 Y71.434 E.02246
G1 X202.168 Y71.885 E.02816
G1 X202.789 Y72.516 E.02776
G1 X203.23 Y73.32 E.02876
G1 X203.397 Y74.083 E.02448
G1 X203.397 Y76.854 E.0869
G1 X203.169 Y77.712 E.02783
G1 X202.907 Y78.206 E.01752
G1 X202.231 Y78.936 E.03121
G1 X201.841 Y79.235 E.01543
G1 X200.746 Y79.626 E.03644
G1 X199.574 Y79.64 E.03674
G1 X198.748 Y79.415 E.02685
G1 X198.058 Y78.993 E.02534
G1 X197.434 Y78.363 E.02784
G1 X196.994 Y77.56 E.0287
G1 X196.828 Y76.8 E.02438
G1 X196.828 Y74.846 E.06126
G1 X197.205 Y74.846 F9000
G1 F1200
G1 X197.205 Y74.055 E.02482
G1 X197.413 Y73.293 E.02477
G1 X197.637 Y72.88 E.01474
G1 X198.257 Y72.217 E.02845
G1 X198.588 Y71.967 E.01301
G1 X199.58 Y71.623 E.03291
G1 X200.629 Y71.623 E.03289
G1 X201.228 Y71.775 E.01937
G1 X201.918 Y72.168 E.0249
G1 X202.5 Y72.761 E.02607
G1 X202.885 Y73.475 E.02542
G1 X203.02 Y74.102 E.02014
G1 X203.02 Y76.828 E.08547
G1 X202.812 Y77.59 E.02477
G1 X202.588 Y78.004 E.01474
G1 X201.968 Y78.666 E.02845
G1 X201.636 Y78.917 E.01304
G1 X200.707 Y79.249 E.03093
G1 X199.647 Y79.269 E.03325
G1 X198.874 Y79.058 E.02513
G1 X198.31 Y78.712 E.02072
G1 X197.721 Y78.117 E.02626
G1 X197.339 Y77.406 E.02531
G1 X197.205 Y76.781 E.02005
G1 X197.205 Y74.906 E.05877
G1 X197.582 Y74.906 F9000
G1 F1200
G1 X197.582 Y74.082 E.02586
G1 X197.77 Y73.418 E.02162
G1 X197.954 Y73.084 E.01196
G1 X198.519 Y72.489 E.02573
G1 X198.79 Y72.286 E.01062
G1 X199.614 Y72 E.02733
G1 X200.564 Y71.995 E.02979
G1 X201.068 Y72.117 E.01626
G1 X201.671 Y72.454 E.02165
G1 X202.182 Y72.965 E.02266
G1 X202.54 Y73.629 E.02366
G1 X202.643 Y74.121 E.01577
G1 X202.643 Y76.802 E.08404
G1 X202.456 Y77.465 E.02162
G1 X202.271 Y77.799 E.01196
G1 X201.706 Y78.394 E.02573
G1 X201.435 Y78.597 E.01062
G1 X200.614 Y78.883 E.02725
G1 X199.672 Y78.892 E.02954
G1 X199.004 Y78.703 E.02176
G1 X198.531 Y78.406 E.01752
G1 X198.011 Y77.874 E.02333
G1 X197.685 Y77.255 E.02193
G1 X197.582 Y76.762 E.0158
G1 X197.582 Y74.966 E.05629
G1 X197.959 Y74.966 F9000
G1 F1200
G1 X197.959 Y74.11 E.02686
G1 X198.124 Y73.547 E.01838
G1 X198.269 Y73.293 E.00919
G1 X198.779 Y72.763 E.02305
G1 X198.989 Y72.608 E.00819
G1 X199.703 Y72.368 E.02361
G1 X200.54 Y72.371 E.02624
G1 X200.911 Y72.46 E.01196
G1 X201.424 Y72.74 E.01834
G1 X201.894 Y73.211 E.02086
G1 X202.194 Y73.779 E.02014
G1 X202.266 Y74.139 E.01152
