; generated by PrusaSlicer 2.4.1+linux-x64-GTK2 on 2022-03-25 at 00:34:34 UTC

; 

; external perimeters extrusion width = 0.45mm
; perimeters extrusion width = 0.45mm
; infill extrusion width = 0.45mm
; solid infill extrusion width = 0.45mm
; top infill extrusion width = 0.40mm
; first layer extrusion width = 0.42mm

M107
;TYPE:Custom
G90 ; use absolute coordinates
M83 ; extruder relative mode
M140 S90 ; set final bed temp
M104 S150 ; set temporary nozzle temp to prevent oozing during homing
G4 S10 ; allow partial nozzle warmup
G28 ; home all axis
G1 Z50 F240
G1 X2 Y10 F3000
M104 S245 ; set final nozzle temp
M190 S90 ; wait for bed temp to stabilize
M109 S245 ; wait for nozzle temp to stabilize
G1 Z0.28 F240
G92 E0
G1 Y140 E10 F1500 ; prime the nozzle
G1 X2.3 F5000
G92 E0
G1 Y10 E10 F1200 ; prime the nozzle
G92 E0
G21 ; set units to millimeters
G90 ; use absolute coordinates
M83 ; use relative distances for extrusion
; Filament gcode
M107
;LAYER_CHANGE
;Z:0.2
;HEIGHT:0.2
;BEFORE_LAYER_CHANGE
G92 E0
;0.2


G1 E-6 F3600
G1 Z.2 F9000
;AFTER_LAYER_CHANGE
;0.2
G1 X144.694 Y144.095
G1 E6 F2400
M204 S500
;TYPE:Skirt/Brim
;WIDTH:0.42
G1 F1200
G1 X146.154 Y142.88 E.05954
G1 X147.967 Y141.748 E.06701
G1 X149.511 Y141.035 E.05334
G1 X150.82 Y140.593 E.04333
G1 X152.93 Y140.139 E.06766
G1 X155.399 Y140.004 E.07754
G1 X157.073 Y140.139 E.05266
G1 X158.956 Y140.526 E.06026
G1 X160.489 Y141.035 E.05066
G1 X162.032 Y141.748 E.05331
G1 X164.266 Y143.202 E.08357
G1 X165.529 Y144.31 E.05266
G1 X166.943 Y145.845 E.06545
G1 X167.672 Y147.02 E.04334
G1 X168.35 Y148.766 E.05873
G1 X168.604 Y150.125 E.04334
G1 X168.604 Y159.875 E.30572
G1 X168.35 Y161.234 E.04334
G1 X167.672 Y162.98 E.05873
G1 X166.943 Y164.155 E.04334
G1 X165.306 Y165.905 E.07513
G1 X163.846 Y167.12 E.05954
G1 X162.033 Y168.252 E.06701
G1 X160.489 Y168.965 E.05334
G1 X159.18 Y169.407 E.04333
G1 X157.07 Y169.861 E.06766
G1 X154.84 Y170.004 E.07006
G1 X152.93 Y169.861 E.06006
G1 X151.346 Y169.553 E.0506
G1 X149.511 Y168.965 E.06041
G1 X147.968 Y168.252 E.05331
G1 X145.734 Y166.798 E.08357
G1 X144.471 Y165.69 E.05266
G1 X143.057 Y164.155 E.06545
G1 X142.328 Y162.98 E.04334
G1 X141.65 Y161.234 E.05873
G1 X141.396 Y159.875 E.04334
G1 X141.396 Y150.125 E.30572
G1 X141.65 Y148.766 E.04334
G1 X142.328 Y147.02 E.05873
G1 X143.057 Y145.845 E.04334
G1 X144.653 Y144.139 E.07325
G1 X144.928 Y144.396 F9000
G1 F1200
G1 X146.379 Y143.182 E.05932
G1 X148.132 Y142.087 E.0648
G1 X149.653 Y141.384 E.05253
G1 X150.939 Y140.951 E.04254
G1 X152.978 Y140.513 E.0654
G1 X155.375 Y140.38 E.07527
G1 X157.025 Y140.513 E.0519
G1 X158.86 Y140.891 E.05873
G1 X160.347 Y141.384 E.04914
G1 X161.868 Y142.087 E.05253
G1 X164.022 Y143.49 E.08061
G1 X165.267 Y144.581 E.05188
G1 X166.664 Y146.1 E.06472
G1 X167.32 Y147.156 E.03899
G1 X167.998 Y148.903 E.05873
G1 X168.227 Y150.125 E.03899
G1 X168.227 Y159.875 E.30572
G1 X167.998 Y161.097 E.03899
G1 X167.32 Y162.844 E.05873
G1 X166.664 Y163.9 E.03899
G1 X165.044 Y165.634 E.0744
G1 X163.621 Y166.818 E.05805
G1 X161.868 Y167.913 E.0648
G1 X160.347 Y168.616 E.05253
G1 X159.061 Y169.049 E.04254
G1 X157.022 Y169.487 E.0654
G1 X154.84 Y169.627 E.06855
G1 X152.978 Y169.487 E.05855
G1 X151.442 Y169.188 E.04908
G1 X149.653 Y168.616 E.05889
G1 X148.132 Y167.913 E.05253
G1 X145.978 Y166.51 E.08061
G1 X144.733 Y165.419 E.05188
G1 X143.336 Y163.9 E.06472
G1 X142.68 Y162.844 E.03899
G1 X142.002 Y161.097 E.05873
G1 X141.773 Y159.875 E.03899
G1 X141.773 Y150.125 E.30572
G1 X142.002 Y148.903 E.03899
G1 X142.68 Y147.156 E.05873
G1 X143.336 Y146.1 E.03899
G1 X144.887 Y144.44 E.07125
G1 E-4.2 F3600
;WIPE_START
G1 F7200
G1 X146.379 Y143.182 E-.92693
G1 X147.777 Y142.309 E-.78307
;WIPE_END
G1 E-.09 F3600
G1 X147.393 Y147.105 F9000
G1 E6 F2400
G1 F1200
G1 X148.449 Y146.209 E.04343
G1 X149.606 Y145.456 E.04329
G1 X150.921 Y144.824 E.04575
G1 X152.355 Y144.361 E.04724
G1 X153.734 Y144.11 E.04393
G1 X154.821 Y144.038 E.03416
G1 X155.64 Y144.068 E.02569
G1 X156.598 Y144.154 E.03018
G1 X157.95 Y144.441 E.04332
G1 X159.181 Y144.866 E.04083
G1 X160.358 Y145.436 E.04101
G1 X161.469 Y146.149 E.0414
G1 X162.498 Y147.001 E.04186
G1 X163.567 Y148.162 E.04951
G1 X163.996 Y148.787 E.02374
G1 X164.563 Y150.677 E.0619
G1 X164.563 Y159.293 E.27015
G1 X164.28 Y160.547 E.04028
G1 X163.748 Y161.601 E.03703
G1 X162.641 Y162.861 E.05258
G1 X161.507 Y163.823 E.04666
G1 X160.371 Y164.557 E.0424
G1 X159.145 Y165.149 E.04269
G1 X157.778 Y165.603 E.04516
G1 X156.312 Y165.884 E.0468
G1 X154.811 Y165.962 E.04714
G1 X153.519 Y165.862 E.04063
G1 X152.23 Y165.605 E.04119
G1 X150.979 Y165.199 E.04126
G1 X149.802 Y164.653 E.04069
G1 X148.596 Y163.898 E.04458
G1 X147.504 Y163.001 E.04431
G1 X146.433 Y161.838 E.0496
G1 X146.004 Y161.213 E.02374
G1 X145.437 Y159.323 E.0619
G1 X145.437 Y150.707 E.27015
G1 X145.719 Y149.454 E.04027
G1 X146.305 Y148.323 E.03994
G1 X147.353 Y147.15 E.04932
G1 X147.633 Y147.402 F9000
G1 F1200
G1 X148.665 Y146.519 E.04261
G1 X149.781 Y145.79 E.04176
G1 X151.073 Y145.17 E.04495
G1 X152.459 Y144.724 E.04564
G1 X153.769 Y144.485 E.04176
G1 X154.836 Y144.415 E.03352
G1 X155.621 Y144.445 E.02463
G1 X156.532 Y144.526 E.02868
G1 X157.839 Y144.802 E.04188
G1 X159.027 Y145.21 E.03942
G1 X160.164 Y145.759 E.03958
G1 X161.256 Y146.46 E.04068
G1 X162.247 Y147.283 E.04038
G1 X163.28 Y148.407 E.04788
G1 X163.668 Y148.975 E.02155
G1 X164.186 Y150.705 E.05662
G1 X164.186 Y159.272 E.26861
G1 X163.918 Y160.439 E.03754
G1 X163.424 Y161.408 E.03411
G1 X162.368 Y162.601 E.04994
G1 X161.292 Y163.513 E.04425
G1 X160.176 Y164.234 E.04165
G1 X158.992 Y164.804 E.0412
G1 X157.671 Y165.241 E.04362
G1 X156.254 Y165.511 E.04523
G1 X154.827 Y165.585 E.0448
G1 X153.559 Y165.487 E.03989
G1 X152.315 Y165.238 E.03977
G1 X151.107 Y164.844 E.03986
G1 X149.972 Y164.316 E.03925
G1 X148.807 Y163.585 E.04309
G1 X147.754 Y162.718 E.04276
G1 X146.72 Y161.593 E.04794
G1 X146.332 Y161.025 E.02155
G1 X145.814 Y159.295 E.05662
G1 X145.814 Y150.728 E.26861
G1 X146.081 Y149.563 E.0375
G1 X146.627 Y148.519 E.03693
G1 X147.593 Y147.447 E.04524
G1 X147.872 Y147.698 F9000
G1 F1200
G1 X148.9 Y146.814 E.04251
G1 X149.976 Y146.113 E.04026
G1 X151.224 Y145.515 E.0434
G1 X152.539 Y145.092 E.04329
G1 X153.805 Y144.861 E.04036
G1 X154.851 Y144.792 E.03286
G1 X155.601 Y144.821 E.02356
G1 X156.465 Y144.897 E.02719
G1 X157.728 Y145.162 E.04044
G1 X158.874 Y145.555 E.038
G1 X159.971 Y146.083 E.03816
G1 X161.024 Y146.758 E.03923
G1 X161.996 Y147.565 E.03961
G1 X162.993 Y148.652 E.04624
G1 X163.34 Y149.163 E.01936
G1 X163.809 Y150.732 E.05137
G1 X163.809 Y159.25 E.26706
G1 X163.557 Y160.329 E.03476
G1 X163.1 Y161.213 E.03118
G1 X162.096 Y162.34 E.04733
G1 X161.077 Y163.203 E.04189
G1 X160.002 Y163.9 E.04015
G1 X158.84 Y164.459 E.04043
G1 X157.565 Y164.879 E.04208
G1 X156.222 Y165.135 E.04288
G1 X154.844 Y165.208 E.04327
G1 X153.621 Y165.115 E.03843
G1 X152.421 Y164.876 E.03837
G1 X151.255 Y164.497 E.03844
G1 X150.142 Y163.979 E.03851
G1 X149.018 Y163.273 E.0416
G1 X148.005 Y162.436 E.04121
G1 X147.007 Y161.348 E.04627
G1 X146.66 Y160.837 E.01936
G1 X146.191 Y159.268 E.05137
G1 X146.191 Y150.75 E.26706
G1 X146.443 Y149.672 E.03472
G1 X146.924 Y148.753 E.03251
G1 X147.832 Y147.743 E.04262
G1 X148.112 Y147.993 F9000
G1 F1200
G1 X149.116 Y147.123 E.04166
G1 X150.171 Y146.436 E.03949
G1 X151.352 Y145.87 E.04105
G1 X152.619 Y145.461 E.04174
G1 X153.841 Y145.237 E.03894
G1 X154.865 Y145.169 E.0322
G1 X155.582 Y145.198 E.02249
G1 X156.4 Y145.269 E.02573
G1 X157.617 Y145.523 E.03899
G1 X158.721 Y145.9 E.03658
G1 X159.777 Y146.407 E.03672
G1 X160.811 Y147.069 E.0385
G1 X161.745 Y147.846 E.03811
G1 X162.705 Y148.896 E.04459
G1 X163.011 Y149.349 E.01716
G1 X163.432 Y150.76 E.04615
G1 X163.432 Y159.227 E.26549
G1 X163.196 Y160.218 E.03194
G1 X162.777 Y161.016 E.02825
G1 X161.824 Y162.078 E.04475
G1 X160.861 Y162.894 E.03957
G1 X159.827 Y163.565 E.03865
G1 X158.688 Y164.114 E.03966
G1 X157.459 Y164.517 E.04053
G1 X156.164 Y164.763 E.04134
G1 X154.86 Y164.831 E.04096
G1 X153.684 Y164.743 E.03697
G1 X152.506 Y164.508 E.03765
G1 X151.383 Y164.142 E.03703
G1 X150.312 Y163.642 E.03706
G1 X149.23 Y162.96 E.0401
G1 X148.255 Y162.154 E.03966
G1 X147.295 Y161.104 E.0446
G1 X146.989 Y160.651 E.01716
G1 X146.568 Y159.24 E.04615
G1 X146.568 Y150.773 E.26549
G1 X146.804 Y149.783 E.03192
G1 X147.22 Y148.988 E.02814
G1 X148.072 Y148.038 E.03999
G1 X148.351 Y148.288 F9000
G1 F1200
G1 X148.426 Y148.204 E.00352
G1 X149.351 Y147.419 E.03805
G1 X150.366 Y146.759 E.03797
G1 X151.503 Y146.216 E.0395
G1 X152.7 Y145.829 E.03942
G1 X153.876 Y145.612 E.03752
G1 X154.88 Y145.546 E.03153
G1 X155.562 Y145.574 E.02141
G1 X156.334 Y145.64 E.0243
G1 X157.507 Y145.884 E.03754
G1 X158.569 Y146.245 E.03517
G1 X159.584 Y146.731 E.03529
G1 X160.579 Y147.367 E.03703
G1 X161.494 Y148.128 E.03732
G1 X162.416 Y149.139 E.04292
G1 X162.682 Y149.535 E.01495
G1 X163.055 Y150.787 E.04096
G1 X163.055 Y159.204 E.26391
G1 X162.835 Y160.106 E.0291
G1 X162.481 Y160.782 E.02392
G1 X161.552 Y161.816 E.0436
G1 X160.645 Y162.584 E.03726
G1 X159.653 Y163.231 E.03714
G1 X158.535 Y163.769 E.03888
G1 X157.354 Y164.155 E.03897
G1 X156.131 Y164.387 E.03902
G1 X154.875 Y164.454 E.03944
G1 X153.746 Y164.371 E.03551
G1 X152.612 Y164.146 E.03623
G1 X151.511 Y163.787 E.03631
G1 X150.483 Y163.306 E.0356
G1 X149.442 Y162.648 E.03861
G1 X148.506 Y161.872 E.03811
G1 X147.584 Y160.861 E.04292
G1 X147.318 Y160.465 E.01495
G1 X146.945 Y159.213 E.04095
G1 X146.945 Y150.796 E.26391
G1 X147.165 Y149.895 E.02908
G1 X147.517 Y149.221 E.02383
G1 X148.311 Y148.333 E.03737
G1 X148.592 Y148.583 F9000
G1 F1200
G1 X148.681 Y148.483 E.0042
G1 X149.567 Y147.728 E.03649
G1 X150.561 Y147.082 E.03719
G1 X151.632 Y146.571 E.03718
G1 X152.781 Y146.198 E.03788
G1 X153.912 Y145.988 E.03609
G1 X154.894 Y145.923 E.03085
G1 X155.542 Y145.951 E.02033
G1 X156.269 Y146.012 E.02289
G1 X157.397 Y146.244 E.0361
G1 X158.417 Y146.59 E.03375
G1 X159.391 Y147.055 E.03384
G1 X160.365 Y147.678 E.03628
G1 X161.242 Y148.409 E.03579
G1 X162.127 Y149.382 E.04124
G1 X162.352 Y149.72 E.01273
G1 X162.678 Y150.814 E.0358
G1 X162.678 Y159.18 E.26231
G1 X162.475 Y159.992 E.02624
G1 X162.184 Y160.548 E.01965
G1 X161.298 Y161.537 E.04166
G1 X160.429 Y162.275 E.03572
G1 X159.457 Y162.908 E.03638
G1 X158.384 Y163.423 E.03734
G1 X157.249 Y163.792 E.03741
G1 X156.074 Y164.014 E.03749
G1 X154.891 Y164.077 E.03715
G1 X153.785 Y163.996 E.03476
G1 X152.697 Y163.779 E.03478
G1 X151.64 Y163.433 E.03489
G1 X150.654 Y162.97 E.03414
G1 X149.654 Y162.336 E.03711
G1 X148.758 Y161.591 E.03655
G1 X147.873 Y160.618 E.04123
G1 X147.648 Y160.28 E.01273
G1 X147.322 Y159.186 E.0358
G1 X147.322 Y150.82 E.26231
G1 X147.525 Y150.008 E.02622
G1 X147.814 Y149.455 E.01958
G1 X148.552 Y148.628 E.03476
G1 X148.832 Y148.877 F9000
G1 F1200
G1 X148.936 Y148.761 E.00487
G1 X149.802 Y148.023 E.03569
G1 X150.756 Y147.405 E.03564
G1 X151.782 Y146.916 E.03564
G1 X152.862 Y146.566 E.03559
G1 X153.948 Y146.363 E.03465
G1 X154.908 Y146.3 E.03016
G1 X156.205 Y146.383 E.04074
G1 X157.288 Y146.606 E.03465
G1 X158.265 Y146.935 E.03234
G1 X159.198 Y147.379 E.0324
G1 X160.133 Y147.975 E.03478
G1 X160.991 Y148.69 E.035
G1 X161.838 Y149.624 E.03953
G1 X162.021 Y149.903 E.01049
G1 X162.301 Y150.842 E.0307
G1 X162.301 Y159.156 E.26069
G1 X162.115 Y159.877 E.02334
G1 X161.887 Y160.314 E.01546
G1 X161.044 Y161.258 E.0397
G1 X160.195 Y161.98 E.03493
G1 X159.262 Y162.585 E.03485
G1 X158.232 Y163.078 E.0358
G1 X157.167 Y163.424 E.03513
G1 X156.04 Y163.638 E.03595
G1 X154.906 Y163.7 E.03563
G1 X153.847 Y163.624 E.03329
G1 X152.803 Y163.416 E.03336
G1 X151.789 Y163.086 E.03344
G1 X150.825 Y162.634 E.03339
G1 X149.867 Y162.025 E.0356
G1 X149.009 Y161.31 E.035
G1 X148.162 Y160.376 E.03953
G1 X147.979 Y160.097 E.01049
G1 X147.699 Y159.158 E.0307
G1 X147.699 Y150.844 E.26069
G1 X147.884 Y150.124 E.02333
G1 X148.111 Y149.688 E.0154
G1 X148.792 Y148.922 E.03213
G1 X149.073 Y149.172 F9000
G1 F1200
G1 X149.191 Y149.039 E.00554
G1 X150.017 Y148.333 E.03411
G1 X150.951 Y147.728 E.03486
G1 X151.911 Y147.271 E.03334
G1 X152.944 Y146.935 E.03407
G1 X153.985 Y146.739 E.0332
G1 X154.922 Y146.677 E.02946
G1 X156.141 Y146.755 E.0383
G1 X157.179 Y146.967 E.0332
G1 X158.114 Y147.281 E.03093
G1 X159.005 Y147.703 E.03094
G1 X159.92 Y148.287 E.03402
G1 X160.738 Y148.971 E.03344
G1 X161.548 Y149.865 E.03781
G1 X161.69 Y150.085 E.00822
G1 X161.924 Y150.869 E.02565
G1 X161.924 Y159.131 E.25904
G1 X161.757 Y159.76 E.02041
G1 X161.59 Y160.081 E.01136
G1 X160.789 Y160.98 E.03774
G1 X159.979 Y161.67 E.03337
G1 X159.067 Y162.262 E.03408
G1 X158.081 Y162.732 E.03425
G1 X157.062 Y163.062 E.0336
G1 X156.007 Y163.262 E.03368
G1 X154.921 Y163.323 E.03411
G1 X153.886 Y163.248 E.03253
G1 X152.888 Y163.049 E.03189
G1 X151.918 Y162.732 E.03202
G1 X150.997 Y162.298 E.03191
G1 X150.08 Y161.713 E.0341
G1 X149.261 Y161.029 E.03344
G1 X148.452 Y160.135 E.03781
G1 X148.31 Y159.915 E.00822
G1 X148.076 Y159.131 E.02565
G1 X148.076 Y150.869 E.25904
G1 X148.243 Y150.241 E.02039
G1 X148.409 Y149.92 E.01131
G1 X149.034 Y149.216 E.02951
G1 X149.314 Y149.467 F9000
G1 F1200
G1 X149.463 Y149.301 E.007
G1 X150.252 Y148.628 E.03253
G1 X151.145 Y148.052 E.0333
G1 X152.061 Y147.617 E.03181
G1 X153.026 Y147.303 E.03182
G1 X154.021 Y147.114 E.03175
G1 X154.936 Y147.054 E.02875
G1 X156.078 Y147.127 E.03588
G1 X157.07 Y147.328 E.03173
G1 X157.983 Y147.635 E.0302
G1 X158.832 Y148.039 E.0295
G1 X159.707 Y148.598 E.03253
G1 X160.486 Y149.251 E.03189
G1 X161.256 Y150.105 E.03606
G1 X161.357 Y150.264 E.00593
G1 X161.547 Y150.897 E.02069
G1 X161.547 Y159.104 E.25734
G1 X161.399 Y159.637 E.01734
G1 X161.269 Y159.883 E.00871
G1 X160.518 Y160.718 E.03522
G1 X159.745 Y161.374 E.03181
G1 X158.873 Y161.939 E.03255
G1 X157.953 Y162.377 E.03195
G1 X156.979 Y162.694 E.03211
G1 X155.973 Y162.887 E.03214
G1 X154.935 Y162.946 E.03259
G1 X153.947 Y162.876 E.03104
G1 X152.994 Y162.687 E.03047
G1 X152.068 Y162.385 E.03055
G1 X151.169 Y161.962 E.03115
G1 X150.293 Y161.402 E.03258
G1 X149.514 Y160.749 E.03189
G1 X148.744 Y159.895 E.03606
G1 X148.643 Y159.736 E.00593
G1 X148.453 Y159.103 E.02069
G1 X148.453 Y150.896 E.25734
G1 X148.6 Y150.363 E.01733
G1 X148.73 Y150.119 E.00868
G1 X149.274 Y149.512 E.02553
G1 X149.552 Y149.764 F9000
G1 F1200
G1 X149.734 Y149.563 E.00848
G1 X150.487 Y148.923 E.03099
G1 X151.318 Y148.387 E.03101
G1 X152.19 Y147.972 E.0303
G1 X153.109 Y147.671 E.03031
G1 X154.057 Y147.49 E.03028
G1 X154.95 Y147.431 E.02803
G1 X156.015 Y147.499 E.03349
G1 X156.962 Y147.689 E.03026
G1 X157.831 Y147.98 E.02875
G1 X158.66 Y148.374 E.02876
G1 X159.493 Y148.908 E.03103
G1 X160.233 Y149.531 E.03033
G1 X160.964 Y150.343 E.03425
G1 X161.023 Y150.44 E.00358
G1 X161.17 Y150.925 E.01586
G1 X161.17 Y159.076 E.25559
G1 X161.044 Y159.51 E.01415
G1 X160.95 Y159.68 E.00609
G1 X160.247 Y160.455 E.03281
G1 X159.51 Y161.079 E.03026
G1 X158.679 Y161.615 E.03102
G1 X157.803 Y162.031 E.03042
G1 X156.875 Y162.331 E.03058
G1 X155.914 Y162.514 E.03065
G1 X154.949 Y162.569 E.03032
G1 X154.008 Y162.504 E.02956
G1 X153.1 Y162.325 E.02904
G1 X152.196 Y162.031 E.02981
G1 X151.341 Y161.626 E.02964
G1 X150.507 Y161.092 E.03106
G1 X149.767 Y160.469 E.03033
G1 X149.036 Y159.657 E.03425
G1 X148.977 Y159.56 E.00358
G1 X148.83 Y159.075 E.01586
G1 X148.83 Y150.924 E.25559
G1 X148.956 Y150.49 E.01414
G1 X149.049 Y150.321 E.00607
G1 X149.512 Y149.808 E.02166
G1 X149.79 Y150.061 F9000
G1 F1200
G1 X150.004 Y149.827 E.00996
G1 X150.721 Y149.219 E.02947
G1 X151.491 Y148.722 E.02874
G1 X152.32 Y148.326 E.0288
G1 X153.192 Y148.039 E.0288
G1 X154.094 Y147.865 E.02879
G1 X154.963 Y147.808 E.0273
G1 X155.954 Y147.871 E.03112
G1 X156.853 Y148.051 E.02877
G1 X157.701 Y148.334 E.02801
G1 X158.486 Y148.709 E.0273
G1 X159.278 Y149.219 E.02953
G1 X159.98 Y149.811 E.02877
G1 X160.668 Y150.579 E.03235
G1 X160.793 Y150.954 E.01238
G1 X160.793 Y159.046 E.25375
G1 X160.691 Y159.375 E.01079
G1 X160.635 Y159.472 E.0035
G1 X159.978 Y160.191 E.03056
G1 X159.277 Y160.782 E.02874
G1 X158.486 Y161.291 E.0295
G1 X157.653 Y161.685 E.02888
