; generated by PrusaSlicer 2.4.2+linux-x64-GTK2 on 2022-07-18 at 22:12:57 UTC

; 

; external perimeters extrusion width = 0.90mm
; perimeters extrusion width = 0.90mm
; infill extrusion width = 0.90mm
; solid infill extrusion width = 0.90mm
; top infill extrusion width = 0.80mm
; first layer extrusion width = 0.90mm

M107
;TYPE:Custom
G90 ; use absolute coordinates
M83 ; extruder relative mode
M140 S90 ; set final bed temp
;M104 S150 ; set temporary nozzle temp to prevent oozing during homing
G4 S10 ; allow partial nozzle warmup
G28 ; home all axis
G1 Z50 F240
G1 X2 Y10 F3000
M104 S250 ; set final nozzle temp
M190 S90 ; wait for bed temp to stabilize
M109 S250 ; wait for nozzle temp to stabilize
G1 Z0.28 F240
G92 E0
G1 Y140 E10 F1500 ; prime the nozzle
G1 X2.3 F5000
G92 E0
G1 Y10 E10 F1200 ; prime the nozzle
G92 E0
G21 ; set units to millimeters
G90 ; use absolute coordinates
M83 ; use relative distances for extrusion
; Filament gcode
M107
;LAYER_CHANGE
;Z:0.3
;HEIGHT:0.3
;BEFORE_LAYER_CHANGE
G92 E0
;0.3


G1 E-2 F2100
G1 Z.4 F720
;AFTER_LAYER_CHANGE
;0.3
G1 X88.726 Y132.479 F10800
G1 Z.3 F720
G1 E2 F2100
;TYPE:Skirt/Brim
;WIDTH:0.9
G1 F1200
G1 X90.908 Y131.292 E.25893
G1 X91.711 Y130.939 E.09143
G1 X94.083 Y130.2 E.25893
G1 X94.94 Y130.011 E.09143
G1 X97.41 Y129.749 E.25893
G1 X98.663 Y129.749 E.13059
G1 X101.625 Y130.109 E.31099
G1 X104.008 Y130.812 E.25893
G1 X104.826 Y131.131 E.09143
G1 X107.025 Y132.285 E.25893
G1 X107.765 Y132.757 E.09143
G1 X109.697 Y134.319 E.25893
G1 X110.33 Y134.926 E.09143
G1 X111.92 Y136.835 E.25893
G1 X112.423 Y137.554 E.09143
G1 X113.61 Y139.736 E.25893
G1 X113.963 Y140.539 E.09143
G1 X114.702 Y142.911 E.25893
G1 X114.891 Y143.768 E.09143
G1 X115.153 Y146.239 E.25893
G1 X115.172 Y147.116 E.09143
G1 X114.946 Y149.59 E.25893
G1 X114.793 Y150.454 E.09143
G1 X114.09 Y152.836 E.25893
G1 X113.771 Y153.654 E.09143
G1 X112.617 Y155.853 E.25893
G1 X112.145 Y156.593 E.09143
G1 X110.583 Y158.525 E.25893
G1 X109.976 Y159.158 E.09143
G1 X108.067 Y160.749 E.25893
G1 X107.348 Y161.251 E.09143
G1 X105.166 Y162.439 E.25893
G1 X104.363 Y162.791 E.09143
G1 X101.991 Y163.53 E.25893
G1 X101.134 Y163.719 E.09143
G1 X98.663 Y163.981 E.25893
G1 X97.786 Y164 E.09143
G1 X95.312 Y163.775 E.25893
G1 X94.448 Y163.622 E.09143
G1 X92.066 Y162.918 E.25893
G1 X91.248 Y162.6 E.09143
G1 X89.049 Y161.445 E.25893
G1 X88.309 Y160.973 E.09143
G1 X86.377 Y159.411 E.25893
G1 X85.744 Y158.804 E.09143
G1 X84.153 Y156.895 E.25893
G1 X83.651 Y156.176 E.09143
G1 X82.463 Y153.994 E.25893
G1 X82.111 Y153.191 E.09143
G1 X81.372 Y150.819 E.25893
G1 X81.183 Y149.962 E.09143
G1 X80.921 Y147.492 E.25893
G1 X80.902 Y146.615 E.09143
G1 X81.127 Y144.14 E.25893
G1 X81.28 Y143.277 E.09143
G1 X81.984 Y140.894 E.25893
G1 X82.302 Y140.077 E.09143
G1 X83.457 Y137.877 E.25893
G1 X83.929 Y137.137 E.09143
G1 X85.491 Y135.205 E.25893
G1 X86.098 Y134.572 E.09143
G1 X88.007 Y132.982 E.25893
G1 X88.627 Y132.548 E.07892
;WIPE_START
G1 F8640
G1 X90.908 Y131.292 E-.6012
G1 X91.711 Y130.939 E-.20256
G1 X94.083 Y130.2 E-.57366
G1 X94.94 Y130.011 E-.20256
G1 X96.318 Y129.865 E-.32003
;WIPE_END
G1 E-.1 F2100
G1 Z.7 F720
G1 X91.538 Y136.709 F10800
G1 Z.3 F720
G1 E2 F2100
G1 F1200
G1 X93.644 Y135.636 E.24627
G1 X95.896 Y134.998 E.24398
G1 X97.794 Y134.811 E.19881
G1 X98.4 Y134.825 E.06319
G1 X100.624 Y135.088 E.23332
G1 X102.871 Y135.819 E.24631
G1 X104.933 Y136.974 E.24635
G1 X106.73 Y138.51 E.24635
G1 X108.193 Y140.366 E.24635
G1 X109.266 Y142.473 E.24635
G1 X109.907 Y144.748 E.24635
G1 X110.092 Y147.104 E.24635
G1 X109.814 Y149.451 E.24635
G1 X109.083 Y151.699 E.24635
G1 X107.928 Y153.761 E.24635
G1 X106.392 Y155.559 E.24635
G1 X104.536 Y157.022 E.24635
G1 X102.43 Y158.094 E.24635
G1 X100.154 Y158.735 E.24635
G1 X97.798 Y158.92 E.24635
G1 X95.451 Y158.642 E.24635
G1 X93.203 Y157.911 E.24635
G1 X91.141 Y156.756 E.24635
G1 X89.344 Y155.221 E.24635
G1 X87.881 Y153.364 E.24635
G1 X86.808 Y151.258 E.24635
G1 X86.167 Y148.983 E.24635
G1 X85.982 Y146.626 E.24635
G1 X86.26 Y144.279 E.24635
G1 X86.991 Y142.031 E.24635
G1 X88.146 Y139.969 E.24635
G1 X89.681 Y138.172 E.24636
G1 X91.444 Y136.783 E.23385
G1 X91.957 Y137.433 F10800
G1 F1200
G1 X93.914 Y136.428 E.22925
G1 X96.016 Y135.826 E.22787
G1 X97.849 Y135.645 E.19193
G1 X98.358 Y135.66 E.05309
G1 X100.408 Y135.897 E.2151
G1 X102.502 Y136.57 E.22925
G1 X104.425 Y137.639 E.22928
G1 X106.102 Y139.062 E.22928
G1 X107.469 Y140.786 E.22928
G1 X108.474 Y142.743 E.22928
G1 X109.078 Y144.858 E.22928
G1 X109.257 Y147.051 E.22928
G1 X109.006 Y149.236 E.22928
G1 X108.332 Y151.33 E.22928
G1 X107.263 Y153.253 E.22928
G1 X105.84 Y154.93 E.22928
G1 X104.116 Y156.298 E.22928
G1 X102.159 Y157.302 E.22928
G1 X100.044 Y157.906 E.22928
G1 X97.851 Y158.086 E.22928
G1 X95.666 Y157.834 E.22928
G1 X93.572 Y157.161 E.22928
G1 X91.649 Y156.092 E.22928
G1 X89.972 Y154.668 E.22928
G1 X88.604 Y152.945 E.22928
G1 X87.6 Y150.988 E.22928
G1 X86.996 Y148.872 E.22928
G1 X86.816 Y146.68 E.22928
G1 X87.068 Y144.494 E.22928
G1 X87.742 Y142.4 E.22928
G1 X88.81 Y140.477 E.22928
G1 X90.234 Y138.8 E.22928
G1 X91.863 Y137.507 E.21677
G1 X92.379 Y138.155 F10800
G1 F1200
G1 X94.187 Y137.219 E.2122
G1 X96.137 Y136.654 E.21154
G1 X97.901 Y136.48 E.1848
G1 X98.311 Y136.494 E.04278
G1 X100.196 Y136.706 E.1976
G1 X102.136 Y137.322 E.21219
G1 X103.919 Y138.305 E.21221
G1 X105.476 Y139.617 E.21221
G1 X106.747 Y141.208 E.21221
G1 X107.683 Y143.016 E.21221
G1 X108.249 Y144.971 E.21221
G1 X108.422 Y147 E.21221
G1 X108.196 Y149.024 E.21221
G1 X107.58 Y150.964 E.21221
G1 X106.597 Y152.747 E.2122
G1 X105.285 Y154.304 E.21221
G1 X103.694 Y155.575 E.21221
G1 X101.887 Y156.512 E.21221
G1 X99.931 Y157.077 E.21221
G1 X97.902 Y157.251 E.21221
G1 X95.878 Y157.025 E.21221
G1 X93.938 Y156.408 E.21221
G1 X92.155 Y155.425 E.2122
G1 X90.598 Y154.113 E.21221
G1 X89.327 Y152.523 E.21221
G1 X88.39 Y150.715 E.21221
G1 X87.825 Y148.759 E.21221
G1 X87.651 Y146.73 E.21221
G1 X87.877 Y144.707 E.21221
G1 X88.494 Y142.766 E.21221
G1 X89.477 Y140.983 E.21221
G1 X90.789 Y139.426 E.21221
G1 X92.286 Y138.23 E.1997
G1 X92.804 Y138.876 F10800
G1 F1200
G1 X94.463 Y138.008 E.19513
G1 X96.258 Y137.481 E.19497
G1 X97.951 Y137.315 E.17731
G1 X98.26 Y137.328 E.03214
G1 X99.986 Y137.516 E.18102
G1 X101.773 Y138.076 E.19513
G1 X103.416 Y138.973 E.19513
G1 X104.852 Y140.174 E.19513
G1 X106.026 Y141.632 E.19513
G1 X106.894 Y143.292 E.19513
G1 X107.421 Y145.088 E.19513
G1 X107.587 Y146.953 E.19513
G1 X107.386 Y148.815 E.19513
G1 X106.827 Y150.601 E.19513
G1 X105.929 Y152.244 E.19513
G1 X104.728 Y153.68 E.19513
G1 X103.27 Y154.855 E.19513
G1 X101.61 Y155.722 E.19513
G1 X99.814 Y156.249 E.19513
G1 X97.949 Y156.415 E.19513
G1 X96.088 Y156.215 E.19513
G1 X94.301 Y155.655 E.19513
G1 X92.658 Y154.757 E.19513
G1 X91.222 Y153.556 E.19513
G1 X90.047 Y152.098 E.19513
G1 X89.18 Y150.439 E.19513
G1 X88.653 Y148.642 E.19513
G1 X88.487 Y146.777 E.19513
G1 X88.687 Y144.916 E.19513
G1 X89.247 Y143.129 E.19513
G1 X90.145 Y141.486 E.19513
G1 X91.346 Y140.05 E.19513
G1 X92.711 Y138.951 E.18262
G1 X93.232 Y139.594 F10800
G1 F1200
G1 X94.743 Y138.797 E.17806
G1 X96.381 Y138.309 E.17813
G1 X97.997 Y138.15 E.16929
G1 X99.78 Y138.326 E.18675
G1 X101.413 Y138.831 E.17807
G1 X102.915 Y139.644 E.17806
G1 X104.231 Y140.734 E.17806
G1 X105.308 Y142.06 E.17806
G1 X106.105 Y143.571 E.17806
G1 X106.593 Y145.208 E.17806
G1 X106.752 Y146.909 E.17806
G1 X106.576 Y148.609 E.17806
G1 X106.071 Y150.241 E.17806
G1 X105.258 Y151.744 E.17806
G1 X104.168 Y153.059 E.17806
G1 X102.842 Y154.136 E.17806
G1 X101.331 Y154.934 E.17806
G1 X99.694 Y155.421 E.17806
G1 X97.993 Y155.58 E.17806
G1 X96.293 Y155.404 E.17806
G1 X94.661 Y154.9 E.17806
G1 X93.158 Y154.087 E.17806
G1 X91.843 Y152.996 E.17806
G1 X90.766 Y151.67 E.17806
G1 X89.969 Y150.159 E.17806
G1 X89.481 Y148.522 E.17806
G1 X89.322 Y146.821 E.17806
G1 X89.498 Y145.122 E.17806
G1 X90.002 Y143.489 E.17806
G1 X90.815 Y141.987 E.17806
G1 X91.906 Y140.672 E.17806
G1 X93.139 Y139.67 E.16555
G1 X93.733 Y140.424 F10800
;TYPE:External perimeter
G1 F1200
G1 X95.072 Y139.708 E.15828
G1 X96.526 Y139.267 E.15828
G1 X98.037 Y139.118 E.15828
G1 X99.548 Y139.267 E.15828
G1 X101.002 Y139.708 E.15828
G1 X102.341 Y140.424 E.15828
G1 X103.515 Y141.387 E.15828
G1 X104.478 Y142.561 E.15828
G1 X105.194 Y143.901 E.15828
G1 X105.635 Y145.354 E.15828
G1 X105.784 Y146.865 E.15828
G1 X105.635 Y148.376 E.15828
G1 X105.194 Y149.83 E.15828
G1 X104.478 Y151.169 E.15828
G1 X103.515 Y152.343 E.15828
G1 X102.341 Y153.306 E.15828
G1 X101.002 Y154.022 E.15828
G1 X99.548 Y154.463 E.15828
G1 X98.037 Y154.612 E.15828
G1 X96.526 Y154.463 E.15828
G1 X95.072 Y154.022 E.15828
G1 X93.733 Y153.306 E.15828
G1 X92.559 Y152.343 E.15828
G1 X91.596 Y151.169 E.15828
G1 X90.88 Y149.83 E.15828
G1 X90.439 Y148.376 E.15828
G1 X90.29 Y146.865 E.15828
G1 X90.439 Y145.354 E.15828
G1 X90.88 Y143.901 E.15828
G1 X91.596 Y142.561 E.15828
G1 X92.559 Y141.387 E.15828
G1 X93.64 Y140.5 E.14577
G1 X94.451 Y140.778 F10800
G1 X94.17 Y141.146
;TYPE:Perimeter
G1 F1200
G1 X95.394 Y140.484 E.14498
G1 X96.689 Y140.091 E.14112
G1 X98.037 Y139.958 E.14112
G1 X99.384 Y140.091 E.14112
G1 X100.68 Y140.484 E.14112
G1 X101.874 Y141.122 E.14112
G1 X102.921 Y141.981 E.14112
G1 X103.78 Y143.028 E.14112
G1 X104.418 Y144.222 E.14112
G1 X104.811 Y145.518 E.14112
G1 X104.944 Y146.865 E.14112
G1 X104.811 Y148.213 E.14112
G1 X104.418 Y149.508 E.14112
G1 X103.78 Y150.703 E.14112
G1 X102.921 Y151.749 E.14112
G1 X101.874 Y152.608 E.14112
G1 X100.68 Y153.247 E.14112
G1 X99.384 Y153.64 E.14112
G1 X98.037 Y153.772 E.14112
G1 X96.689 Y153.64 E.14112
G1 X95.394 Y153.247 E.14112
G1 X94.199 Y152.608 E.14112
G1 X93.153 Y151.749 E.14112
G1 X92.294 Y150.703 E.14112
G1 X91.656 Y149.508 E.14112
G1 X91.262 Y148.213 E.14112
G1 X91.13 Y146.865 E.14112
G1 X91.262 Y145.518 E.14112
G1 X91.656 Y144.222 E.14112
G1 X92.294 Y143.028 E.14112
G1 X93.153 Y141.981 E.14112
G1 X94.078 Y141.222 E.12469
;WIPE_START
G1 F8640
G1 X95.394 Y140.484 E-.34844
G1 X96.689 Y140.091 E-.31266
G1 X98.037 Y139.958 E-.31265
G1 X99.384 Y140.091 E-.31265
G1 X100.68 Y140.484 E-.31265
G1 X101.83 Y141.098 E-.30095
;WIPE_END
G1 E-.1 F2100
G1 Z.7 F720
G1 X95.462 Y142.405 F10800
G1 Z.3 F720
G1 E2 F2100
;TYPE:External perimeter
G1 F1200
G1 X100.612 Y142.405 E.53681
G1 X103.187 Y146.865 E.53681
G1 X100.612 Y151.326 E.53681
G1 X95.462 Y151.326 E.53681
G1 X92.886 Y146.865 E.53681
G1 X95.402 Y142.509 E.5243
G1 X95.462 Y141.605 F10800
;WIPE_START
G1 F8640
G1 X100.612 Y142.405 E-1.20337
G1 X102.121 Y145.017 E-.69663
;WIPE_END
G1 E-.1 F2100
G1 Z.7 F720
G1 X94.979 Y141.569 F10800
G1 Z.3 F720
G1 E2 F2100
;TYPE:Perimeter
G1 F1200
G1 X101.095 Y141.569 E.63737
G1 X104.152 Y146.865 E.63737
G1 X101.095 Y152.161 E.63737
G1 X94.979 Y152.161 E.63737
G1 X91.921 Y146.865 E.63737
G1 X94.919 Y141.673 E.62486
G1 X94.505 Y141.477 F10800
;TYPE:Gap fill
;WIDTH:0.174203
G1 F1200
G1 X94.463 Y141.517 E.00079
;WIDTH:0.21928
G1 X94.382 Y141.613 E.00243
;WIDTH:0.26436
G1 X94.3 Y141.709 E.00314
;WIDTH:0.309439
G1 X94.219 Y141.805 E.00385
;WIDTH:0.354518
G1 X94.138 Y141.901 E.00456
;WIDTH:0.399598
G1 X94.056 Y141.997 E.00526
;WIDTH:0.444677
G1 X93.975 Y142.093 E.00597
;WIDTH:0.489756
G1 X93.893 Y142.189 E.00668
;WIDTH:0.534836
G1 X93.812 Y142.285 E.00739
;WIDTH:0.579915
G1 X93.73 Y142.381 E.0081
;WIDTH:0.624994
G1 X93.649 Y142.477 E.0088
;WIDTH:0.674468
G1 X93.477 Y142.726 E.02303
;WIDTH:0.723944
G1 X93.304 Y142.975 E.0249
;WIDTH:0.77342
G1 X93.132 Y143.224 E.02677
;WIDTH:0.822896
G1 X92.96 Y143.473 E.02864
;WIDTH:0.822894
G1 X92.377 Y144.521 E.11344
;WIDTH:0.783655
G1 X92.249 Y144.818 E.02903
;WIDTH:0.737076
G1 X92.12 Y145.115 E.02715
;WIDTH:0.690497
G1 X91.991 Y145.412 E.02527
;WIDTH:0.643918
G1 X91.862 Y145.708 E.02339
;WIDTH:0.597338
G1 X91.734 Y146.005 E.02151
;WIDTH:0.550759
G1 X91.605 Y146.302 E.01963
;WIPE_START
G1 F8640
G1 X91.734 Y146.005 E-.07472
;WIPE_END
G1 E-1.92528 F2100
G1 Z.7 F720
G1 X91.605 Y147.428 F10800
G1 Z.3 F720
G1 E2 F2100
;WIDTH:0.550758
G1 F1200
G1 X91.734 Y147.725 E.01963
;WIDTH:0.597337
G1 X91.862 Y148.022 E.02151
;WIDTH:0.643917
G1 X91.991 Y148.319 E.02339
;WIDTH:0.690496
G1 X92.12 Y148.616 E.02527
;WIDTH:0.737075
G1 X92.249 Y148.913 E.02715
;WIDTH:0.783655
G1 X92.377 Y149.209 E.02903
;WIDTH:0.822893
G1 X92.96 Y150.258 E.11344
;WIDTH:0.822895
G1 X93.132 Y150.507 E.02864
;WIDTH:0.773419
G1 X93.304 Y150.755 E.02677
;WIDTH:0.723943
G1 X93.477 Y151.004 E.0249
;WIDTH:0.674468
G1 X93.649 Y151.253 E.02303
;WIDTH:0.624993
G1 X93.719 Y151.336 E.00762
;WIDTH:0.585977
G1 X93.79 Y151.419 E.00709
;WIDTH:0.546961
G1 X93.86 Y151.503 E.00656
;WIDTH:0.507945
G1 X93.931 Y151.586 E.00603
;WIDTH:0.46893
G1 X94.02 Y151.69 E.00692
;WIDTH:0.419809
G1 X94.108 Y151.795 E.00608
;WIDTH:0.370687
G1 X94.197 Y151.899 E.00524
;WIDTH:0.321566
G1 X94.286 Y152.004 E.0044
;WIDTH:0.272445
G1 X94.375 Y152.109 E.00356
;WIDTH:0.223324
G1 X94.463 Y152.213 E.00272
;WIDTH:0.174201
G1 X94.505 Y152.253 E.00079
G1 X95.184 Y152.661 F10800
;WIDTH:0.399805
G1 F1200
G1 X95.391 Y152.692 E.00873
;WIDTH:0.445244
G1 X95.597 Y152.722 E.00991
;WIDTH:0.490683
G1 X95.803 Y152.753 E.01109
;WIDTH:0.536121
G1 X96.01 Y152.783 E.01228
;WIDTH:0.58156
G1 X96.216 Y152.814 E.01346
;WIDTH:0.626999
G1 X96.423 Y152.845 E.01464
;WIDTH:0.672437
G1 X96.629 Y152.875 E.01582
;WIDTH:0.717876
G1 X96.835 Y152.906 E.01701
;WIDTH:0.757227
G1 X97.236 Y152.926 E.03465
;WIDTH:0.79658
G1 X97.636 Y152.945 E.03662
;WIDTH:0.835933
G1 X98.037 Y152.965 E.03859
;WIDTH:0.835935
G1 X98.437 Y152.945 E.03859
;WIDTH:0.796582
G1 X98.838 Y152.926 E.03662
;WIDTH:0.757229
G1 X99.238 Y152.906 E.03465
;WIDTH:0.717875
G1 X99.445 Y152.875 E.01701
;WIDTH:0.672436
G1 X99.651 Y152.845 E.01582
;WIDTH:0.626997
G1 X99.858 Y152.814 E.01464
;WIDTH:0.581559
G1 X100.064 Y152.783 E.01346
;WIDTH:0.53612
G1 X100.27 Y152.753 E.01228
;WIDTH:0.490682
G1 X100.477 Y152.722 E.01109
;WIDTH:0.445243
G1 X100.683 Y152.692 E.00991
;WIDTH:0.399805
G1 X100.89 Y152.661 E.00873
G1 X101.569 Y152.253 F10800
;WIDTH:0.174203
G1 F1200
G1 X101.61 Y152.213 E.00079
;WIDTH:0.21928
G1 X101.692 Y152.117 E.00243
;WIDTH:0.264359
G1 X101.773 Y152.021 E.00314
;WIDTH:0.309438
G1 X101.855 Y151.925 E.00385
;WIDTH:0.354518
G1 X101.936 Y151.829 E.00456
;WIDTH:0.399597
G1 X102.018 Y151.733 E.00526
;WIDTH:0.444676
G1 X102.099 Y151.637 E.00597
;WIDTH:0.489755
G1 X102.181 Y151.541 E.00668
;WIDTH:0.534835
G1 X102.262 Y151.445 E.00739
;WIDTH:0.579914
G1 X102.344 Y151.349 E.0081
;WIDTH:0.624993
G1 X102.425 Y151.253 E.0088
;WIDTH:0.674469
G1 X102.597 Y151.004 E.02303
;WIDTH:0.723945
G1 X102.77 Y150.755 E.0249
;WIDTH:0.773421
G1 X102.942 Y150.507 E.02677
;WIDTH:0.822896
G1 X103.114 Y150.258 E.02864
;WIDTH:0.822896
G1 X103.697 Y149.209 E.11344
;WIDTH:0.783653
G1 X103.825 Y148.913 E.02903
;WIDTH:0.737074
G1 X103.954 Y148.616 E.02715
;WIDTH:0.690496
G1 X104.083 Y148.319 E.02527
;WIDTH:0.643917
G1 X104.211 Y148.022 E.02339
;WIDTH:0.597338
G1 X104.34 Y147.725 E.02151
;WIDTH:0.550759
G1 X104.469 Y147.428 E.01963
;WIPE_START
G1 F8640
G1 X104.34 Y147.725 E-.07472
;WIPE_END
G1 E-1.92528 F2100
G1 Z.7 F720
G1 X104.469 Y146.302 F10800
G1 Z.3 F720
G1 E2 F2100
;WIDTH:0.550758
G1 F1200
G1 X104.34 Y146.005 E.01963
;WIDTH:0.597337
G1 X104.211 Y145.708 E.02151
;WIDTH:0.643917
G1 X104.083 Y145.412 E.02339
;WIDTH:0.690496
G1 X103.954 Y145.115 E.02527
;WIDTH:0.737075
G1 X103.825 Y144.818 E.02715
;WIDTH:0.783655
G1 X103.697 Y144.521 E.02903
;WIDTH:0.822893
G1 X103.114 Y143.473 E.11344
;WIDTH:0.822895
G1 X102.942 Y143.224 E.02864
;WIDTH:0.773419
G1 X102.77 Y142.975 E.02677
;WIDTH:0.723943
G1 X102.597 Y142.726 E.0249
;WIDTH:0.674468
G1 X102.425 Y142.477 E.02303
;WIDTH:0.624993
G1 X102.355 Y142.394 E.00762
;WIDTH:0.585977
G1 X102.284 Y142.311 E.00709
;WIDTH:0.546961
G1 X102.214 Y142.228 E.00656
;WIDTH:0.507944
G1 X102.143 Y142.145 E.00603
G1 X102.143 Y142.145 F10800
;WIDTH:0.468928
G1 F1200
G1 X102.054 Y142.04 E.00692
;WIDTH:0.419807
G1 X101.965 Y141.935 E.00608
;WIDTH:0.370686
G1 X101.877 Y141.831 E.00524
;WIDTH:0.321565
G1 X101.788 Y141.726 E.0044
;WIDTH:0.272444
G1 X101.699 Y141.622 E.00356
