; generated by PrusaSlicer 2.4.2+linux-x64-GTK2 on 2022-07-18 at 22:32:22 UTC

; 

; external perimeters extrusion width = 0.90mm
; perimeters extrusion width = 0.90mm
; infill extrusion width = 0.90mm
; solid infill extrusion width = 0.90mm
; top infill extrusion width = 0.80mm
; first layer extrusion width = 0.90mm

M107
;TYPE:Custom
G90 ; use absolute coordinates
M83 ; extruder relative mode
M140 S90 ; set final bed temp
;M104 S150 ; set temporary nozzle temp to prevent oozing during homing
G4 S10 ; allow partial nozzle warmup
G28 ; home all axis
G1 Z50 F240
G1 X2 Y10 F3000
M104 S250 ; set final nozzle temp
M190 S90 ; wait for bed temp to stabilize
M109 S250 ; wait for nozzle temp to stabilize
G1 Z0.28 F240
G92 E0
G1 Y140 E10 F1500 ; prime the nozzle
G1 X2.3 F5000
G92 E0
G1 Y10 E10 F1200 ; prime the nozzle
G92 E0
G21 ; set units to millimeters
G90 ; use absolute coordinates
M83 ; use relative distances for extrusion
; Filament gcode
M107
;LAYER_CHANGE
;Z:0.3
;HEIGHT:0.3
;BEFORE_LAYER_CHANGE
G92 E0
;0.3


G1 E-2 F2100
G1 Z.4 F720
;AFTER_LAYER_CHANGE
;0.3
G1 X128.624 Y72.204 F10800
G1 Z.3 F720
G1 E2 F2100
;TYPE:Skirt/Brim
;WIDTH:0.9
G1 F1200
G1 X129.096 Y71.464 E.09143
G1 X130.658 Y69.532 E.25893
G1 X131.265 Y68.899 E.09143
G1 X133.174 Y67.309 E.25893
G1 X133.893 Y66.806 E.09143
G1 X136.075 Y65.619 E.25893
G1 X136.878 Y65.266 E.09143
G1 X139.25 Y64.527 E.25893
G1 X140.107 Y64.338 E.09143
G1 X142.578 Y64.076 E.25893
G1 X143.831 Y64.076 E.13059
G1 X146.793 Y64.436 E.31099
G1 X149.175 Y65.139 E.25893
G1 X150.333 Y65.619 E.13059
G1 X152.308 Y66.677 E.2335
G1 X171.975 Y78.077 E2.36926
G1 X172.902 Y78.709 E.11688
G1 X175.165 Y80.653 E.31098
G1 X176.755 Y82.562 E.25893
G1 X177.451 Y83.604 E.13059
G1 X178.445 Y85.463 E.21974
G1 X178.925 Y86.621 E.13059
G1 X179.628 Y89.004 E.25893
G1 X179.781 Y89.868 E.09143
G1 X180.006 Y92.843 E.31098
G1 X179.781 Y95.317 E.25893
G1 X179.628 Y96.181 E.09143
G1 X178.925 Y98.564 E.25893
G1 X178.445 Y99.721 E.13059
G1 X177.451 Y101.581 E.21974
G1 X176.755 Y102.622 E.13059
G1 X174.81 Y104.885 E.31098
G1 X172.902 Y106.476 E.25893
G1 X171.975 Y107.108 E.11688
G1 X152.308 Y118.508 E2.36926
G1 X150.333 Y119.566 E.23351
G1 X149.175 Y120.045 E.13059
G1 X146.793 Y120.749 E.25893
G1 X145.929 Y120.902 E.09143
G1 X142.954 Y121.127 E.31098
G1 X140.479 Y120.902 E.25893
G1 X139.25 Y120.657 E.13059
G1 X136.415 Y119.727 E.31098
G1 X133.893 Y118.378 E.29811
G1 X131.544 Y116.538 E.31098
G1 X130.658 Y115.652 E.13059
G1 X128.818 Y113.303 E.31098
G1 X127.47 Y110.781 E.29811
G1 X127.151 Y109.964 E.09143
G1 X126.448 Y107.581 E.25893
G1 X126.295 Y106.717 E.09143
G1 X126.069 Y104.243 E.25893
G1 X126.069 Y80.942 E2.42851
G1 X126.295 Y78.468 E.25893
G1 X126.448 Y77.604 E.09143
G1 X127.151 Y75.221 E.25893
G1 X127.47 Y74.404 E.09143
G1 X128.569 Y72.31 E.24642
;WIPE_START
G1 F8640
G1 X129.096 Y71.464 E-.23018
G1 X130.658 Y69.532 E-.57365
G1 X131.265 Y68.899 E-.20256
G1 X133.174 Y67.309 E-.57366
G1 X133.893 Y66.806 E-.20256
G1 X134.339 Y66.563 E-.11738
;WIPE_END
G1 E-.1 F2100
G1 Z.7 F720
G1 X133.04 Y74.775 F10800
G1 Z.3 F720
G1 E2 F2100
G1 F1200
G1 X133.266 Y74.365 E.04877
G1 X134.849 Y72.499 E.25502
G1 X136.705 Y71.036 E.24635
G1 X138.811 Y69.963 E.24627
G1 X141.063 Y69.325 E.24398
G1 X142.961 Y69.138 E.19881
G1 X143.568 Y69.153 E.0632
G1 X145.789 Y69.415 E.23317
G1 X147.96 Y70.112 E.23764
G1 X150.03 Y71.253 E.24635
G1 X151.838 Y72.776 E.24635
G1 X153.314 Y74.622 E.24635
G1 X154.402 Y76.722 E.24651
G1 X155.075 Y79.075 E.25509
G1 X155.261 Y81.352 E.23805
G1 X155.038 Y83.471 E.22212
G1 X156.37 Y82.437 E.17574
G1 X158.4 Y81.394 E.23786
G1 X160.579 Y80.754 E.23668
G1 X162.682 Y80.537 E.22033
G1 X163.301 Y80.557 E.06459
G1 X165.457 Y80.815 E.22625
G1 X167.629 Y81.513 E.23781
G1 X169.768 Y82.701 E.25502
G1 X171.564 Y84.236 E.2462
G1 X172.983 Y86.023 E.23784
G1 X174.1 Y88.198 E.25487
G1 X174.727 Y90.392 E.23776
G1 X174.929 Y92.666 E.23798
G1 X174.666 Y95.099 E.25502
G1 X173.917 Y97.427 E.25487
G1 X172.762 Y99.489 E.24635
G1 X171.285 Y101.23 E.23798
G1 X169.508 Y102.66 E.23769
G1 X167.265 Y103.821 E.26324
G1 X165.073 Y104.447 E.23761
G1 X162.716 Y104.649 E.24658
G1 X160.365 Y104.386 E.2465
G1 X158.187 Y103.703 E.23791
G1 X156.108 Y102.575 E.24657
G1 X155.068 Y101.74 E.13898
G1 X155.261 Y104.146 E.25166
G1 X155.016 Y106.417 E.23803
G1 X154.315 Y108.675 E.24643
G1 X153.141 Y110.822 E.25502
G1 X151.617 Y112.63 E.24651
G1 X149.77 Y114.106 E.24635
G1 X147.748 Y115.161 E.23768
G1 X145.483 Y115.833 E.2462
G1 X143.13 Y116.05 E.24628
G1 X140.617 Y115.769 E.26361
G1 X138.443 Y115.07 E.23791
G1 X136.373 Y113.928 E.24643
G1 X134.566 Y112.405 E.24635
G1 X133.137 Y110.628 E.23761
G1 X131.974 Y108.384 E.26346
G1 X131.348 Y106.189 E.23791
G1 X131.147 Y103.833 E.24643
G1 X131.41 Y101.484 E.24635
G1 X132.126 Y99.231 E.24635
G1 X133.268 Y97.161 E.24635
G1 X134.792 Y95.354 E.24635
G1 X136.639 Y93.879 E.24637
G1 X139.048 Y92.619 E.28341
G1 X136.307 Y91.083 E.32748
G1 X134.567 Y89.606 E.23791
G1 X133.093 Y87.762 E.24598
G1 X132.006 Y85.663 E.24635
G1 X131.364 Y83.473 E.23791
G1 X131.147 Y81.038 E.2548
G1 X131.409 Y78.689 E.24628
G1 X132.124 Y76.436 E.24635
G1 X132.982 Y74.88 E.18522
G1 X133.71 Y75.278 F10800
G1 F1200
G1 X133.932 Y74.87 E.0484
G1 X135.402 Y73.127 E.23764
G1 X137.125 Y71.76 E.2292
G1 X139.081 Y70.755 E.22925
G1 X141.183 Y70.153 E.22787
G1 X143.016 Y69.972 E.19193
G1 X143.525 Y69.987 E.05309
G1 X145.576 Y70.224 E.21518
G1 X147.596 Y70.865 E.22089
G1 X149.527 Y71.921 E.22936
G1 X151.214 Y73.333 E.22928
G1 X152.594 Y75.046 E.22928
G1 X153.612 Y76.996 E.2292
G1 X154.245 Y79.186 E.23764
G1 X154.425 Y81.378 E.22928
G1 X154.189 Y83.485 E.22097
G1 X153.68 Y85.122 E.17859
G1 X154.276 Y85.451 E.07095
G1 X155.068 Y84.528 E.12681
G1 X156.793 Y83.159 E.22947
G1 X158.675 Y82.185 E.2209
G1 X160.777 Y81.567 E.22838
G1 X162.684 Y81.373 E.19971
G1 X163.224 Y81.389 E.05631
G1 X165.243 Y81.624 E.21193
G1 X167.263 Y82.265 E.22082
G1 X169.26 Y83.366 E.23772
G1 X170.937 Y84.79 E.22928
G1 X172.26 Y86.445 E.22084
G1 X173.309 Y88.471 E.23779
G1 X173.898 Y90.507 E.22084
G1 X174.093 Y92.698 E.22928
G1 X173.84 Y94.964 E.23764
G1 X173.167 Y97.057 E.2292
G1 X172.098 Y98.98 E.22928
G1 X170.674 Y100.658 E.22936
G1 X169.019 Y101.981 E.22084
G1 X166.993 Y103.03 E.23779
G1 X164.957 Y103.619 E.22084
G1 X162.766 Y103.814 E.22928
G1 X160.499 Y103.561 E.23772
G1 X158.48 Y102.919 E.22084
G1 X156.549 Y101.864 E.22936
G1 X154.86 Y100.45 E.22952
G1 X154.311 Y99.783 E.09002
G1 X153.709 Y100.099 E.07078
G1 X154.245 Y101.986 E.20444
G1 X154.426 Y104.098 E.22095
G1 X154.189 Y106.286 E.22936
G1 X153.531 Y108.384 E.2292
G1 X152.43 Y110.381 E.23764
G1 X151.007 Y112.057 E.2292
G1 X149.283 Y113.425 E.22936
G1 X147.401 Y114.4 E.22092
G1 X145.289 Y115.019 E.22936
G1 X143.098 Y115.214 E.2292
G1 X140.832 Y114.961 E.23764
G1 X138.739 Y114.288 E.2292
G1 X136.816 Y113.219 E.22928
G1 X135.138 Y111.795 E.22936
G1 X133.815 Y110.139 E.22084
G1 X132.767 Y108.114 E.23772
G1 X132.163 Y105.999 E.2292
G1 X131.984 Y103.807 E.22928
G1 X132.235 Y101.621 E.22928
G1 X132.909 Y99.527 E.22928
G1 X133.978 Y97.604 E.22928
G1 X135.401 Y95.927 E.22928
G1 X137.125 Y94.559 E.22936
G1 X139.007 Y93.584 E.22091
G1 X141.327 Y92.903 E.25201
G1 X141.287 Y92.238 E.06935
G1 X140.843 Y92.164 E.0469
G1 X138.739 Y91.488 E.2304
G1 X136.816 Y90.419 E.22928
G1 X135.138 Y88.995 E.22936
G1 X133.815 Y87.339 E.22092
G1 X132.796 Y85.388 E.22936
G1 X132.177 Y83.277 E.22928
G1 X131.983 Y81.086 E.22928
G1 X132.219 Y78.899 E.22928
G1 X132.877 Y76.8 E.22928
G1 X133.652 Y75.383 E.16829
;WIPE_START
G1 F8640
G1 X133.932 Y74.87 E-.13495
G1 X135.402 Y73.127 E-.52648
G1 X137.125 Y71.76 E-.50779
G1 X139.081 Y70.755 E-.50789
G1 X140.009 Y70.489 E-.22288
;WIPE_END
G1 E-.1 F2100
G1 Z.7 F720
G1 X139.354 Y94.346 F10800
G1 Z.3 F720
G1 E2 F2100
G1 F1200
G1 X141.304 Y93.781 E.21154
G1 X143.068 Y93.607 E.1848
G1 X143.479 Y93.622 E.04278
G1 X145.363 Y93.833 E.1976
G1 X147.303 Y94.449 E.21219
G1 X149.086 Y95.432 E.21221
G1 X150.643 Y96.744 E.21221
G1 X151.914 Y98.335 E.21221
G1 X152.851 Y100.143 E.21221
G1 X153.416 Y102.099 E.21221
G1 X153.59 Y104.127 E.21221
G1 X153.364 Y106.151 E.21221
G1 X152.747 Y108.091 E.21221
G1 X151.764 Y109.874 E.2122
G1 X150.452 Y111.431 E.21221
G1 X148.862 Y112.702 E.21221
G1 X147.054 Y113.639 E.21221
G1 X145.098 Y114.204 E.21221
G1 X143.069 Y114.378 E.21221
G1 X141.046 Y114.152 E.21221
G1 X139.105 Y113.535 E.21221
G1 X137.322 Y112.552 E.2122
G1 X135.765 Y111.24 E.21221
G1 X134.494 Y109.65 E.21221
G1 X133.558 Y107.842 E.21221
G1 X132.992 Y105.886 E.21221
G1 X132.819 Y103.857 E.21221
G1 X133.045 Y101.834 E.21221
G1 X133.661 Y99.893 E.21221
G1 X134.644 Y98.11 E.21221
G1 X135.956 Y96.553 E.21221
G1 X137.547 Y95.282 E.21221
G1 X139.248 Y94.401 E.19969
G1 X139.631 Y95.135 F10800
G1 F1200
G1 X141.426 Y94.608 E.19497
G1 X143.119 Y94.442 E.17731
G1 X143.427 Y94.456 E.03214
G1 X145.153 Y94.643 E.18102
G1 X146.94 Y95.203 E.19513
G1 X148.583 Y96.1 E.19513
G1 X150.019 Y97.301 E.19513
G1 X151.194 Y98.76 E.19513
G1 X152.061 Y100.419 E.19513
G1 X152.588 Y102.215 E.19513
G1 X152.754 Y104.08 E.19513
G1 X152.554 Y105.942 E.19513
G1 X151.994 Y107.728 E.19513
G1 X151.096 Y109.371 E.19513
G1 X149.895 Y110.807 E.19513
G1 X148.437 Y111.982 E.19513
G1 X146.778 Y112.849 E.19513
G1 X144.981 Y113.376 E.19513
G1 X143.116 Y113.542 E.19513
G1 X141.255 Y113.342 E.19513
G1 X139.468 Y112.782 E.19513
G1 X137.825 Y111.884 E.19513
G1 X136.389 Y110.683 E.19513
G1 X135.215 Y109.225 E.19513
G1 X134.347 Y107.566 E.19513
G1 X133.82 Y105.769 E.19513
G1 X133.654 Y103.904 E.19513
G1 X133.855 Y102.043 E.19513
G1 X134.414 Y100.256 E.19513
G1 X135.312 Y98.613 E.19513
G1 X136.513 Y97.177 E.19513
G1 X137.971 Y96.003 E.19513
G1 X139.524 Y95.191 E.18263
G1 X139.91 Y95.924 F10800
G1 F1200
G1 X141.548 Y95.436 E.17813
G1 X143.165 Y95.277 E.16929
G1 X144.948 Y95.454 E.18675
G1 X146.58 Y95.958 E.17807
G1 X148.083 Y96.771 E.17806
G1 X149.398 Y97.861 E.17806
G1 X150.475 Y99.187 E.17806
G1 X151.272 Y100.698 E.17806
G1 X151.76 Y102.336 E.17806
G1 X151.919 Y104.037 E.17806
G1 X151.743 Y105.736 E.17806
G1 X151.239 Y107.368 E.17806
G1 X150.426 Y108.871 E.17806
G1 X149.335 Y110.186 E.17806
G1 X148.009 Y111.263 E.17806
G1 X146.498 Y112.061 E.17806
G1 X144.861 Y112.548 E.17806
G1 X143.16 Y112.707 E.17806
G1 X141.46 Y112.531 E.17806
G1 X139.828 Y112.027 E.17806
G1 X138.326 Y111.214 E.17806
G1 X137.01 Y110.123 E.17806
G1 X135.933 Y108.797 E.17806
G1 X135.136 Y107.286 E.17806
G1 X134.648 Y105.649 E.17806
G1 X134.489 Y103.948 E.17806
G1 X134.665 Y102.249 E.17806
G1 X135.17 Y100.616 E.17806
G1 X135.983 Y99.114 E.17806
G1 X137.073 Y97.799 E.17806
G1 X138.399 Y96.722 E.17806
G1 X139.804 Y95.98 E.16555
;WIPE_START
G1 F8640
G1 X141.548 Y95.436 E-.42185
G1 X143.165 Y95.277 E-.37505
G1 X144.948 Y95.454 E-.41375
G1 X146.58 Y95.958 E-.3945
G1 X147.703 Y96.565 E-.29485
;WIPE_END
G1 E-.1 F2100
G1 Z.7 F720
G1 X145.118 Y92.946 F10800
G1 Z.3 F720
G1 E2 F2100
G1 F1200
G1 X145.078 Y92.281 E.06941
G1 X147.401 Y91.6 E.25228
G1 X149.282 Y90.626 E.22085
G1 X151.065 Y89.201 E.23779
G1 X151.796 Y88.333 E.11833
G1 X152.396 Y88.661 E.07127
G1 X151.886 Y90.298 E.17868
G1 X151.65 Y92.487 E.22941
G1 X151.83 Y94.599 E.22095
G1 X152.366 Y96.486 E.20444
G1 X151.765 Y96.801 E.07078
G1 X151.216 Y96.134 E.09002
G1 X149.527 Y94.721 E.22952
G1 X147.596 Y93.665 E.22936
G1 X145.566 Y93.021 E.22198
G1 X145.237 Y92.966 E.03481
;WIPE_START
G1 F8640
G1 X145.078 Y92.281 E-.16222
G1 X147.401 Y91.6 E-.55892
G1 X149.282 Y90.626 E-.48928
G1 X151.065 Y89.201 E-.52683
G1 X151.519 Y88.662 E-.16276
;WIPE_END
G1 E-.1 F2100
G1 Z.7 F720
G1 X147.343 Y92.575 F10800
G1 Z.3 F720
G1 E2 F2100
G1 F1200
G1 X149.771 Y91.305 E.28561
G1 X151.041 Y90.29 E.16937
G1 X150.814 Y92.516 E.23324
G1 X151.013 Y94.849 E.24404
G1 X149.967 Y94.01 E.13978
G1 X147.448 Y92.632 E.29923
;WIPE_START
G1 F8640
G1 X149.771 Y91.305 E-.61782
G1 X151.041 Y90.29 E-.37524
G1 X150.814 Y92.516 E-.51672
G1 X150.958 Y94.2 E-.39022
;WIPE_END
G1 E-.1 F2100
G1 Z.7 F720
G1 X152.486 Y92.457 F10800
G1 Z.3 F720
G1 E2 F2100
G1 F1200
G1 X152.712 Y90.434 E.21221
G1 X153.328 Y88.493 E.21221
G1 X154.311 Y86.71 E.21221
G1 X155.623 Y85.153 E.21221
G1 X157.214 Y83.882 E.21221
G1 X159.022 Y82.946 E.2122
G1 X160.971 Y82.381 E.21154
G1 X162.736 Y82.207 E.1848
G1 X163.146 Y82.222 E.04278
G1 X165.03 Y82.433 E.1976
G1 X166.971 Y83.049 E.21219
G1 X168.754 Y84.032 E.21221
G1 X170.311 Y85.344 E.21221
G1 X171.582 Y86.935 E.21221
G1 X172.518 Y88.743 E.21221
G1 X173.084 Y90.699 E.21221
G1 X173.257 Y92.727 E.21221
G1 X173.031 Y94.751 E.21221
G1 X172.415 Y96.691 E.21221
G1 X171.432 Y98.474 E.2122
G1 X170.12 Y100.031 E.21221
G1 X168.529 Y101.302 E.21221
G1 X166.721 Y102.239 E.21221
G1 X164.765 Y102.804 E.21221
G1 X162.737 Y102.978 E.21221
G1 X160.713 Y102.752 E.21221
G1 X158.772 Y102.135 E.21221
G1 X156.989 Y101.152 E.2122
G1 X155.432 Y99.84 E.21221
G1 X154.161 Y98.25 E.21221
G1 X153.225 Y96.442 E.21221
G1 X152.659 Y94.486 E.21221
G1 X152.496 Y92.577 E.1997
G1 X153.321 Y92.504 F10800
G1 F1200
G1 X153.522 Y90.643 E.19513
G1 X154.082 Y88.856 E.19513
G1 X154.98 Y87.213 E.19513
G1 X156.181 Y85.777 E.19513
G1 X157.639 Y84.603 E.19513
G1 X159.298 Y83.735 E.19513
G1 X161.093 Y83.208 E.19497
G1 X162.786 Y83.042 E.17731
G1 X163.094 Y83.056 E.03214
G1 X164.821 Y83.243 E.18102
G1 X166.608 Y83.803 E.19513
G1 X168.25 Y84.7 E.19513
G1 X169.687 Y85.901 E.19513
G1 X170.861 Y87.36 E.19513
G1 X171.728 Y89.019 E.19513
G1 X172.255 Y90.815 E.19513
G1 X172.422 Y92.68 E.19513
G1 X172.221 Y94.542 E.19513
G1 X171.661 Y96.328 E.19513
G1 X170.763 Y97.971 E.19513
G1 X169.562 Y99.407 E.19513
G1 X168.104 Y100.582 E.19513
G1 X166.445 Y101.449 E.19513
G1 X164.649 Y101.976 E.19513
G1 X162.784 Y102.142 E.19513
G1 X160.922 Y101.942 E.19513
G1 X159.136 Y101.382 E.19513
G1 X157.493 Y100.484 E.19513
G1 X156.056 Y99.283 E.19513
G1 X154.882 Y97.825 E.19513
G1 X154.015 Y96.166 E.19513
G1 X153.488 Y94.369 E.19513
G1 X153.332 Y92.624 E.18263
G1 X154.157 Y92.548 F10800
G1 F1200
G1 X154.333 Y90.849 E.17806
G1 X154.837 Y89.216 E.17806
G1 X155.65 Y87.714 E.17806
G1 X156.741 Y86.399 E.17806
G1 X158.067 Y85.322 E.17806
G1 X159.578 Y84.524 E.17806
G1 X161.216 Y84.036 E.17813
G1 X162.832 Y83.877 E.16929
G1 X164.615 Y84.054 E.18675
G1 X166.248 Y84.558 E.17807
G1 X167.75 Y85.371 E.17806
G1 X169.065 Y86.461 E.17806
G1 X170.142 Y87.787 E.17806
G1 X170.94 Y89.298 E.17806
G1 X171.428 Y90.936 E.17806
G1 X171.586 Y92.637 E.17806
G1 X171.41 Y94.336 E.17806
G1 X170.906 Y95.968 E.17806
G1 X170.093 Y97.471 E.17806
G1 X169.003 Y98.786 E.17806
G1 X167.676 Y99.863 E.17806
G1 X166.166 Y100.661 E.17806
G1 X164.528 Y101.148 E.17806
G1 X162.827 Y101.307 E.17806
G1 X161.128 Y101.131 E.17806
G1 X159.496 Y100.627 E.17806
G1 X157.993 Y99.814 E.17806
G1 X156.678 Y98.723 E.17806
G1 X155.601 Y97.397 E.17806
G1 X154.803 Y95.886 E.17806
G1 X154.316 Y94.249 E.17806
G1 X154.168 Y92.667 E.16555
;WIPE_START
G1 F8640
G1 X154.333 Y90.849 E-.42169
G1 X154.837 Y89.216 E-.39448
G1 X155.65 Y87.714 E-.39448
G1 X156.741 Y86.399 E-.39448
G1 X157.732 Y85.593 E-.29487
;WIPE_END
G1 E-.1 F2100
G1 Z.7 F720
G1 X150.452 Y88.631 F10800
G1 Z.3 F720
G1 E2 F2100
G1 F1200
G1 X148.862 Y89.902 E.21221
G1 X147.054 Y90.839 E.21221
G1 X145.098 Y91.404 E.21221
G1 X143.069 Y91.578 E.21221
G1 X141.046 Y91.352 E.21221
G1 X139.105 Y90.735 E.21221
G1 X137.322 Y89.752 E.2122
G1 X135.765 Y88.44 E.21221
G1 X134.494 Y86.85 E.21221
G1 X133.558 Y85.042 E.21221
G1 X132.992 Y83.086 E.21221
G1 X132.819 Y81.057 E.21221
G1 X133.045 Y79.034 E.21221
G1 X133.661 Y77.093 E.21221
G1 X134.644 Y75.31 E.21221
G1 X135.956 Y73.753 E.21221
G1 X137.547 Y72.482 E.21221
G1 X139.354 Y71.546 E.2122
G1 X141.304 Y70.981 E.21154
G1 X143.068 Y70.807 E.1848
G1 X143.479 Y70.822 E.04278
G1 X145.363 Y71.033 E.1976
G1 X147.303 Y71.649 E.21219
G1 X149.086 Y72.632 E.21221
G1 X150.643 Y73.944 E.21221
G1 X151.914 Y75.535 E.21221
G1 X152.851 Y77.343 E.21221
G1 X153.416 Y79.299 E.21221
G1 X153.59 Y81.327 E.21221
G1 X153.364 Y83.351 E.21221
G1 X152.747 Y85.291 E.21221
G1 X151.764 Y87.074 E.2122
G1 X150.53 Y88.54 E.1997
G1 X149.895 Y88.007 F10800
