; generated by PrusaSlicer 2.4.2+linux-x64-GTK2 on 2022-07-18 at 21:09:38 UTC

; 

; external perimeters extrusion width = 0.90mm
; perimeters extrusion width = 0.90mm
; infill extrusion width = 0.90mm
; solid infill extrusion width = 0.90mm
; top infill extrusion width = 0.80mm
; first layer extrusion width = 0.90mm

M107
;TYPE:Custom
G90 ; use absolute coordinates
M83 ; extruder relative mode
M140 S90 ; set final bed temp
;M104 S150 ; set temporary nozzle temp to prevent oozing during homing
G4 S10 ; allow partial nozzle warmup
G28 ; home all axis
G1 Z50 F240
G1 X2 Y10 F3000
M104 S250 ; set final nozzle temp
M190 S90 ; wait for bed temp to stabilize
M109 S250 ; wait for nozzle temp to stabilize
G1 Z0.28 F240
G92 E0
G1 Y140 E10 F1500 ; prime the nozzle
G1 X2.3 F5000
G92 E0
G1 Y10 E10 F1200 ; prime the nozzle
G92 E0
G21 ; set units to millimeters
G90 ; use absolute coordinates
M83 ; use relative distances for extrusion
; Filament gcode
M107
;LAYER_CHANGE
;Z:0.3
;HEIGHT:0.3
;BEFORE_LAYER_CHANGE
G92 E0
;0.3


G1 E-2 F2100
G1 Z.4 F720
;AFTER_LAYER_CHANGE
;0.3
G1 X143.061 Y142.707 F10800
G1 Z.3 F720
G1 E2 F2100
;TYPE:Skirt/Brim
;WIDTH:0.9
G1 F1200
G1 X144.97 Y141.116 E.25893
G1 X145.689 Y140.614 E.09143
G1 X147.871 Y139.426 E.25893
G1 X148.674 Y139.074 E.09143
G1 X151.046 Y138.335 E.25893
G1 X151.903 Y138.146 E.09143
G1 X154.373 Y137.884 E.25893
G1 X155.626 Y137.884 E.13059
G1 X158.589 Y138.243 E.31099
G1 X160.971 Y138.947 E.25893
G1 X161.789 Y139.266 E.09143
G1 X163.988 Y140.42 E.25893
G1 X164.728 Y140.892 E.09143
G1 X166.66 Y142.454 E.25893
G1 X167.293 Y143.061 E.09143
G1 X168.884 Y144.97 E.25893
G1 X169.386 Y145.689 E.09143
G1 X170.574 Y147.871 E.25893
G1 X170.926 Y148.674 E.09143
G1 X171.665 Y151.046 E.25893
G1 X171.854 Y151.903 E.09143
G1 X172.116 Y154.374 E.25893
G1 X172.135 Y155.251 E.09143
G1 X171.91 Y157.725 E.25893
G1 X171.757 Y158.589 E.09143
G1 X171.053 Y160.971 E.25893
G1 X170.734 Y161.789 E.09143
G1 X169.58 Y163.988 E.25893
G1 X169.108 Y164.728 E.09143
G1 X167.546 Y166.66 E.25893
G1 X166.939 Y167.293 E.09143
G1 X165.03 Y168.884 E.25893
G1 X164.311 Y169.386 E.09143
G1 X162.129 Y170.574 E.25893
G1 X161.326 Y170.926 E.09143
G1 X158.954 Y171.665 E.25893
G1 X158.097 Y171.854 E.09143
G1 X155.627 Y172.116 E.25893
G1 X154.749 Y172.135 E.09143
G1 X152.275 Y171.91 E.25893
G1 X151.411 Y171.757 E.09143
G1 X149.029 Y171.053 E.25893
G1 X148.211 Y170.734 E.09143
G1 X146.012 Y169.58 E.25893
G1 X145.272 Y169.108 E.09143
G1 X143.34 Y167.546 E.25893
G1 X142.707 Y166.939 E.09143
G1 X141.116 Y165.03 E.25893
G1 X140.614 Y164.311 E.09143
G1 X139.426 Y162.129 E.25893
G1 X139.074 Y161.326 E.09143
G1 X138.335 Y158.954 E.25893
G1 X138.146 Y158.097 E.09143
G1 X137.884 Y155.627 E.25893
G1 X137.865 Y154.749 E.09143
G1 X138.09 Y152.275 E.25893
G1 X138.243 Y151.411 E.09143
G1 X138.947 Y149.029 E.25893
G1 X139.266 Y148.211 E.09143
G1 X140.42 Y146.012 E.25893
G1 X140.892 Y145.272 E.09143
G1 X142.454 Y143.34 E.25893
G1 X142.978 Y142.793 E.07892
;WIPE_START
G1 F8640
G1 X144.97 Y141.116 E-.6012
G1 X145.689 Y140.614 E-.20256
G1 X147.871 Y139.426 E-.57366
G1 X148.674 Y139.074 E-.20256
G1 X149.998 Y138.662 E-.32003
;WIPE_END
G1 E-.1 F2100
G1 Z.7 F720
G1 X146.645 Y146.307 F10800
G1 Z.3 F720
G1 E2 F2100
G1 F1200
G1 X148.501 Y144.844 E.24635
G1 X150.607 Y143.771 E.24627
G1 X152.859 Y143.133 E.24398
G1 X154.757 Y142.946 E.19881
G1 X155.363 Y142.96 E.06319
G1 X157.587 Y143.223 E.23332
G1 X159.834 Y143.954 E.24631
G1 X161.896 Y145.109 E.24635
G1 X163.693 Y146.645 E.24635
G1 X165.156 Y148.501 E.24635
G1 X166.229 Y150.607 E.24635
G1 X166.87 Y152.882 E.24635
G1 X167.055 Y155.239 E.24635
G1 X166.777 Y157.586 E.24635
G1 X166.046 Y159.834 E.24635
G1 X164.891 Y161.896 E.24635
G1 X163.355 Y163.693 E.24635
G1 X161.499 Y165.156 E.24635
G1 X159.393 Y166.229 E.24635
G1 X157.118 Y166.87 E.24635
G1 X154.761 Y167.055 E.24635
G1 X152.414 Y166.777 E.24635
G1 X150.166 Y166.046 E.24635
G1 X148.104 Y164.891 E.24635
G1 X146.307 Y163.355 E.24635
G1 X144.844 Y161.499 E.24635
G1 X143.771 Y159.393 E.24635
G1 X143.13 Y157.118 E.24635
G1 X142.945 Y154.761 E.24635
G1 X143.223 Y152.414 E.24635
G1 X143.954 Y150.166 E.24635
G1 X145.109 Y148.104 E.24635
G1 X146.567 Y146.398 E.23385
G1 X147.197 Y146.935 F10800
G1 F1200
G1 X148.92 Y145.567 E.22928
G1 X150.877 Y144.563 E.22925
G1 X152.979 Y143.961 E.22787
G1 X154.812 Y143.78 E.19193
G1 X155.321 Y143.795 E.05309
G1 X157.371 Y144.031 E.2151
G1 X159.465 Y144.705 E.22925
G1 X161.388 Y145.774 E.22928
G1 X163.065 Y147.197 E.22928
G1 X164.433 Y148.92 E.22928
G1 X165.437 Y150.877 E.22928
G1 X166.041 Y152.993 E.22928
G1 X166.22 Y155.185 E.22928
G1 X165.969 Y157.371 E.22928
G1 X165.295 Y159.465 E.22928
G1 X164.226 Y161.388 E.22928
G1 X162.803 Y163.065 E.22928
G1 X161.08 Y164.433 E.22928
G1 X159.123 Y165.437 E.22928
G1 X157.007 Y166.041 E.22928
G1 X154.815 Y166.22 E.22928
G1 X152.629 Y165.969 E.22928
G1 X150.535 Y165.295 E.22928
G1 X148.612 Y164.226 E.22928
G1 X146.935 Y162.803 E.22928
G1 X145.567 Y161.08 E.22928
G1 X144.563 Y159.123 E.22928
G1 X143.959 Y157.007 E.22928
G1 X143.78 Y154.815 E.22928
G1 X144.031 Y152.629 E.22928
G1 X144.705 Y150.535 E.22928
G1 X145.774 Y148.612 E.22928
G1 X147.119 Y147.026 E.21677
G1 X147.752 Y147.561 F10800
G1 F1200
G1 X149.342 Y146.29 E.21221
G1 X151.15 Y145.353 E.2122
G1 X153.1 Y144.788 E.21154
G1 X154.864 Y144.615 E.1848
G1 X155.275 Y144.629 E.04278
G1 X157.159 Y144.841 E.1976
G1 X159.099 Y145.457 E.21219
G1 X160.882 Y146.44 E.21221
G1 X162.439 Y147.752 E.21221
G1 X163.71 Y149.342 E.21221
G1 X164.647 Y151.15 E.21221
G1 X165.212 Y153.106 E.21221
G1 X165.385 Y155.135 E.21221
G1 X165.16 Y157.159 E.21221
G1 X164.543 Y159.099 E.21221
G1 X163.56 Y160.882 E.2122
G1 X162.248 Y162.439 E.21221
G1 X160.658 Y163.71 E.21221
G1 X158.85 Y164.647 E.21221
G1 X156.894 Y165.212 E.21221
G1 X154.865 Y165.385 E.21221
G1 X152.841 Y165.16 E.21221
G1 X150.901 Y164.543 E.21221
G1 X149.118 Y163.56 E.2122
G1 X147.561 Y162.248 E.21221
G1 X146.29 Y160.658 E.21221
G1 X145.353 Y158.85 E.21221
G1 X144.788 Y156.894 E.21221
G1 X144.615 Y154.865 E.21221
G1 X144.84 Y152.841 E.21221
G1 X145.457 Y150.901 E.21221
G1 X146.44 Y149.118 E.21221
G1 X147.675 Y147.653 E.1997
G1 X148.309 Y148.185 F10800
G1 F1200
G1 X149.767 Y147.01 E.19513
G1 X151.427 Y146.143 E.19513
G1 X153.221 Y145.616 E.19497
G1 X154.915 Y145.449 E.17731
G1 X155.223 Y145.463 E.03214
G1 X156.949 Y145.65 E.18102
G1 X158.736 Y146.21 E.19513
G1 X160.379 Y147.108 E.19513
G1 X161.815 Y148.309 E.19513
G1 X162.99 Y149.767 E.19513
G1 X163.857 Y151.426 E.19513
G1 X164.384 Y153.223 E.19513
G1 X164.55 Y155.088 E.19513
G1 X164.35 Y156.949 E.19513
G1 X163.79 Y158.736 E.19513
G1 X162.892 Y160.379 E.19513
G1 X161.691 Y161.815 E.19513
G1 X160.233 Y162.99 E.19513
G1 X158.574 Y163.857 E.19513
G1 X156.777 Y164.384 E.19513
G1 X154.912 Y164.55 E.19513
G1 X153.051 Y164.35 E.19513
G1 X151.264 Y163.79 E.19513
G1 X149.621 Y162.892 E.19513
G1 X148.185 Y161.691 E.19513
G1 X147.01 Y160.233 E.19513
G1 X146.143 Y158.574 E.19513
G1 X145.616 Y156.777 E.19513
G1 X145.45 Y154.912 E.19513
G1 X145.65 Y153.051 E.19513
G1 X146.21 Y151.264 E.19513
G1 X147.108 Y149.621 E.19513
G1 X148.232 Y148.277 E.18263
G1 X148.869 Y148.806 F10800
G1 F1200
G1 X150.195 Y147.729 E.17806
G1 X151.706 Y146.932 E.17806
G1 X153.344 Y146.444 E.17813
G1 X154.96 Y146.285 E.16929
G1 X156.744 Y146.461 E.18675
G1 X158.376 Y146.966 E.17807
G1 X159.879 Y147.779 E.17806
G1 X161.194 Y148.869 E.17806
G1 X162.271 Y150.195 E.17806
G1 X163.068 Y151.706 E.17806
G1 X163.556 Y153.343 E.17806
G1 X163.715 Y155.044 E.17806
G1 X163.539 Y156.744 E.17806
G1 X163.034 Y158.376 E.17806
G1 X162.221 Y159.879 E.17806
G1 X161.131 Y161.194 E.17806
G1 X159.805 Y162.271 E.17806
G1 X158.294 Y163.068 E.17806
G1 X156.657 Y163.556 E.17806
G1 X154.956 Y163.715 E.17806
G1 X153.256 Y163.539 E.17806
G1 X151.624 Y163.034 E.17806
G1 X150.121 Y162.221 E.17806
G1 X148.806 Y161.131 E.17806
G1 X147.729 Y159.805 E.17806
G1 X146.932 Y158.294 E.17806
G1 X146.444 Y156.657 E.17806
G1 X146.285 Y154.956 E.17806
G1 X146.461 Y153.256 E.17806
G1 X146.966 Y151.624 E.17806
G1 X147.779 Y150.121 E.17806
G1 X148.792 Y148.899 E.16555
G1 X149.522 Y149.522 F10800
;TYPE:External perimeter
G1 F1200
G1 X150.696 Y148.559 E.15828
G1 X152.035 Y147.843 E.15828
G1 X153.489 Y147.402 E.15828
G1 X155 Y147.253 E.15828
G1 X156.511 Y147.402 E.15828
G1 X157.965 Y147.843 E.15828
G1 X159.304 Y148.559 E.15828
G1 X160.478 Y149.522 E.15828
G1 X161.441 Y150.696 E.15828
G1 X162.157 Y152.035 E.15828
G1 X162.598 Y153.489 E.15828
G1 X162.747 Y155 E.15828
G1 X162.598 Y156.511 E.15828
G1 X162.157 Y157.965 E.15828
G1 X161.441 Y159.304 E.15828
G1 X160.478 Y160.478 E.15828
G1 X159.304 Y161.441 E.15828
G1 X157.965 Y162.157 E.15828
G1 X156.511 Y162.598 E.15828
G1 X155 Y162.747 E.15828
G1 X153.489 Y162.598 E.15828
G1 X152.035 Y162.157 E.15828
G1 X150.696 Y161.441 E.15828
G1 X149.522 Y160.478 E.15828
G1 X148.559 Y159.304 E.15828
G1 X147.843 Y157.965 E.15828
G1 X147.402 Y156.511 E.15828
G1 X147.253 Y155 E.15828
G1 X147.402 Y153.489 E.15828
G1 X147.843 Y152.035 E.15828
G1 X148.559 Y150.696 E.15828
G1 X149.446 Y149.615 E.14577
G1 X150.295 Y149.729 F10800
;WIPE_START
G1 F8640
G1 X150.696 Y148.559 E-.37788
G1 X152.035 Y147.843 E-.35066
G1 X153.489 Y147.402 E-.35066
G1 X155 Y147.253 E-.35066
G1 X156.511 Y147.402 E-.35066
G1 X157.007 Y147.552 E-.11948
;WIPE_END
G1 E-.1 F2100
G1 Z.7 F720
G1 X151.163 Y149.257 F10800
G1 Z.3 F720
G1 E2 F2100
;TYPE:Perimeter
G1 F1200
G1 X151.232 Y149.22 E.00817
G1 X148.134 Y154.586 E.64579
G1 X148.226 Y153.652 E.09776
G1 X148.619 Y152.357 E.14112
G1 X149.257 Y151.163 E.14112
G1 X150.116 Y150.116 E.14112
G1 X151.07 Y149.333 E.12862
;WIPE_START
G1 F8640
G1 X151.232 Y149.22 E-.04559
G1 X148.134 Y154.586 E-1.43072
G1 X148.226 Y153.652 E-.21659
G1 X148.486 Y152.794 E-.2071
;WIPE_END
G1 E-.1 F2100
G1 Z.7 F720
G1 X148.134 Y155.414 F10800
G1 Z.3 F720
G1 E2 F2100
G1 F1200
G1 X151.232 Y160.78 E.64578
G1 X151.163 Y160.743 E.00817
G1 X150.116 Y159.884 E.14112
G1 X149.257 Y158.837 E.14112
G1 X148.619 Y157.643 E.14112
G1 X148.226 Y156.348 E.14112
G1 X148.145 Y155.533 E.08526
;WIPE_START
G1 F8640
G1 X151.232 Y160.78 E-1.40552
G1 X151.163 Y160.743 E-.01809
G1 X150.116 Y159.884 E-.31265
G1 X149.666 Y159.336 E-.16373
;WIPE_END
G1 E-.1 F2100
G1 Z.7 F720
G1 X158.07 Y161.153 F10800
G1 Z.3 F720
G1 E2 F2100
G1 F1200
G1 X157.643 Y161.381 E.05039
G1 X156.348 Y161.774 E.14112
G1 X155 Y161.907 E.14112
G1 X153.652 Y161.774 E.14112
G1 X152.357 Y161.381 E.14112
G1 X151.93 Y161.153 E.05039
G1 X157.95 Y161.153 E.62735
;WIPE_START
G1 F8640
G1 X157.643 Y161.381 E-.08818
G1 X156.348 Y161.774 E-.31266
G1 X155 Y161.907 E-.31265
G1 X153.652 Y161.774 E-.31265
G1 X152.357 Y161.381 E-.31265
G1 X151.93 Y161.153 E-.11164
G1 X153.877 Y161.153 E-.44957
;WIPE_END
G1 E-.1 F2100
G1 Z.7 F720
G1 X161.866 Y155.414 F10800
G1 Z.3 F720
G1 E2 F2100
G1 F1200
G1 X161.774 Y156.348 E.09776
G1 X161.381 Y157.643 E.14112
G1 X160.743 Y158.837 E.14112
G1 X159.884 Y159.884 E.14112
G1 X158.837 Y160.743 E.14112
G1 X158.768 Y160.78 E.00817
G1 X161.806 Y155.518 E.63328
;WIPE_START
G1 F8640
G1 X161.774 Y156.348 E-.1917
G1 X161.381 Y157.643 E-.31265
G1 X160.743 Y158.837 E-.31265
G1 X159.884 Y159.884 E-.31265
G1 X158.837 Y160.743 E-.31265
G1 X158.768 Y160.78 E-.01809
G1 X159.72 Y159.131 E-.4396
;WIPE_END
G1 E-.1 F2100
G1 Z.7 F720
G1 X158.794 Y149.264 F10800
G1 Z.3 F720
G1 E2 F2100
G1 F1200
G1 X158.768 Y149.22 E.00534
G1 X158.837 Y149.257 E.00817
G1 X159.884 Y150.116 E.14112
G1 X160.743 Y151.163 E.14112
G1 X161.381 Y152.357 E.14112
G1 X161.774 Y153.652 E.14112
G1 X161.866 Y154.586 E.09776
G1 X158.854 Y149.368 E.62794
G1 X158.07 Y148.847 F10800
G1 F1200
G1 X151.93 Y148.847 E.63986
G1 X152.357 Y148.619 E.05039
G1 X153.652 Y148.226 E.14112
G1 X155 Y148.093 E.14112
G1 X156.348 Y148.226 E.14112
G1 X157.643 Y148.619 E.14112
G1 X157.964 Y148.79 E.03788
G1 X158.07 Y149.682 F10800
;TYPE:External perimeter
G1 F1200
G1 X161.141 Y155 E.63999
G1 X158.07 Y160.318 E.63999
G1 X151.93 Y160.318 E.63999
G1 X148.859 Y155 E.63999
G1 X151.93 Y149.682 E.63999
G1 X157.95 Y149.682 E.62748
G1 X158.763 Y149.282 F10800
;LAYER_CHANGE
;Z:0.7
;HEIGHT:0.4
;BEFORE_LAYER_CHANGE
G92 E0
;0.7


;WIPE_START
G1 F8640
G1 X161.141 Y155 E-1.43193
G1 X160.127 Y156.756 E-.46807
;WIPE_END
G1 E-.1 F2100
G1 Z.7 F720
;AFTER_LAYER_CHANGE
;0.7
G1 Z1.1
G1 X171.322 Y160.061 F10800
G1 Z.7 F720
G1 E2 F2100
;TYPE:Skirt/Brim
G1 F2026.63
G1 X171.053 Y160.971 E.12853
G1 X170.734 Y161.789 E.11877
G1 X169.58 Y163.988 E.33637
G1 X169.108 Y164.728 E.11878
G1 X167.546 Y166.66 E.33637
G1 X166.939 Y167.293 E.11878
G1 X165.03 Y168.884 E.33638
G1 X164.311 Y169.386 E.11878
G1 X162.129 Y170.574 E.33638
G1 X161.326 Y170.926 E.11877
G1 X158.954 Y171.665 E.33638
G1 X158.097 Y171.854 E.11878
G1 X155.627 Y172.116 E.33638
G1 X154.749 Y172.135 E.11877
G1 X152.275 Y171.91 E.33638
G1 X151.411 Y171.757 E.11878
G1 X149.029 Y171.053 E.33638
G1 X148.211 Y170.734 E.11877
G1 X146.012 Y169.58 E.33637
G1 X145.272 Y169.108 E.11878
G1 X143.34 Y167.546 E.33637
G1 X142.707 Y166.939 E.11878
G1 X141.116 Y165.03 E.33638
G1 X140.614 Y164.311 E.11878
G1 X139.426 Y162.129 E.33638
G1 X139.074 Y161.326 E.11877
G1 X138.335 Y158.954 E.33638
G1 X138.146 Y158.097 E.11878
G1 X137.884 Y155.627 E.33638
G1 X137.865 Y154.749 E.11877
G1 X138.09 Y152.275 E.33638
G1 X138.243 Y151.411 E.11878
G1 X138.947 Y149.029 E.33638
G1 X139.266 Y148.211 E.11877
G1 X140.42 Y146.012 E.33637
G1 X140.892 Y145.272 E.11878
G1 X142.454 Y143.34 E.33637
G1 X143.061 Y142.707 E.11878
G1 X144.97 Y141.116 E.33638
G1 X145.689 Y140.614 E.11878
G1 X147.871 Y139.426 E.33638
G1 X148.674 Y139.074 E.11877
G1 X151.046 Y138.335 E.33638
G1 X151.903 Y138.146 E.11878
G1 X154.373 Y137.884 E.33638
G1 X155.626 Y137.884 E.16964
G1 X158.589 Y138.243 E.404
G1 X160.971 Y138.947 E.33638
G1 X161.789 Y139.266 E.11877
G1 X163.988 Y140.42 E.33637
G1 X164.728 Y140.892 E.11878
G1 X166.66 Y142.454 E.33637
G1 X167.293 Y143.061 E.11878
G1 X168.884 Y144.97 E.33638
G1 X169.386 Y145.689 E.11878
G1 X170.574 Y147.871 E.33638
G1 X170.926 Y148.674 E.11877
G1 X171.665 Y151.046 E.33638
G1 X171.854 Y151.903 E.11878
G1 X172.116 Y154.374 E.33638
G1 X172.135 Y155.251 E.11877
G1 X171.91 Y157.725 E.33638
G1 X171.757 Y158.589 E.11878
G1 X171.356 Y159.946 E.1916
;WIPE_START
G1 F8640
G1 X171.053 Y160.971 E-.24691
G1 X170.734 Y161.789 E-.20256
G1 X169.58 Y163.988 E-.57365
G1 X169.108 Y164.728 E-.20256
G1 X167.546 Y166.66 E-.57365
G1 X167.244 Y166.975 E-.10067
;WIPE_END
G1 E-.1 F2100
G1 Z1.1 F720
G1 X161.85 Y155 F10800
G1 Z.7 F720
G1 E2 F2100
;TYPE:Perimeter
G1 F2026.63
G1 X158.425 Y160.932 E.92742
G1 X151.575 Y160.932 E.92742
G1 X148.15 Y155 E.92742
G1 X151.575 Y149.068 E.92742
G1 X158.425 Y149.068 E.92742
G1 X161.79 Y154.896 E.91117
G1 X160.91 Y155 F10800
;TYPE:External perimeter
G1 F1500
G1 X157.955 Y160.118 E.80013
G1 X152.045 Y160.118 E.80013
G1 X149.09 Y155 E.80013
G1 X152.045 Y149.882 E.80013
G1 X157.955 Y149.882 E.80013
G1 X160.85 Y154.896 E.78389
G1 X161.602 Y155.4 F10800
;WIPE_START
G1 F8640
G1 X157.955 Y160.118 E-1.37861
G1 X155.697 Y160.118 E-.52139
;WIPE_END
G1 E-.1 F2100
G1 Z1.1 F720
G1 X162.118 Y154.881 F10800
G1 Z.7 F720
G1 E2 F2100
;TYPE:Perimeter
G1 F2026.63
G1 X162.13 Y155 E.01619
G1 X161.993 Y156.391 E.18924
G1 X161.587 Y157.728 E.18924
G1 X160.928 Y158.961 E.18924
G1 X160.041 Y160.041 E.18924
G1 X158.961 Y160.928 E.18924
G1 X157.728 Y161.587 E.18924
G1 X156.391 Y161.993 E.18924
G1 X155 Y162.13 E.18924
G1 X153.609 Y161.993 E.18924
G1 X152.272 Y161.587 E.18924
G1 X151.039 Y160.928 E.18924
G1 X149.959 Y160.041 E.18924
G1 X149.072 Y158.961 E.18924
G1 X148.413 Y157.728 E.18924
G1 X148.007 Y156.391 E.18924
G1 X147.87 Y155 E.18924
G1 X148.007 Y153.609 E.18924
G1 X148.413 Y152.272 E.18924
G1 X149.072 Y151.039 E.18924
G1 X149.959 Y149.959 E.18924
G1 X151.039 Y149.072 E.18924
G1 X152.272 Y148.413 E.18924
G1 X153.609 Y148.007 E.18924
G1 X155 Y147.87 E.18924
G1 X156.391 Y148.007 E.18924
G1 X157.728 Y148.413 E.18924
G1 X158.961 Y149.072 E.18924
G1 X160.041 Y149.959 E.18924
G1 X160.928 Y151.039 E.18924
G1 X161.587 Y152.272 E.18924
