; generated by PrusaSlicer 2.4.2+linux-x64-GTK2 on 2022-07-18 at 21:56:49 UTC

; 

; external perimeters extrusion width = 0.90mm
; perimeters extrusion width = 0.90mm
; infill extrusion width = 0.90mm
; solid infill extrusion width = 0.90mm
; top infill extrusion width = 0.80mm
; first layer extrusion width = 0.90mm

M107
;TYPE:Custom
G90 ; use absolute coordinates
M83 ; extruder relative mode
M140 S90 ; set final bed temp
;M104 S150 ; set temporary nozzle temp to prevent oozing during homing
G4 S10 ; allow partial nozzle warmup
G28 ; home all axis
G1 Z50 F240
G1 X2 Y10 F3000
M104 S250 ; set final nozzle temp
M190 S90 ; wait for bed temp to stabilize
M109 S250 ; wait for nozzle temp to stabilize
G1 Z0.28 F240
G92 E0
G1 Y140 E10 F1500 ; prime the nozzle
G1 X2.3 F5000
G92 E0
G1 Y10 E10 F1200 ; prime the nozzle
G92 E0
G21 ; set units to millimeters
G90 ; use absolute coordinates
M83 ; use relative distances for extrusion
; Filament gcode
M107
;LAYER_CHANGE
;Z:0.3
;HEIGHT:0.3
;BEFORE_LAYER_CHANGE
G92 E0
;0.3


G1 E-2 F2100
G1 Z.4 F720
;AFTER_LAYER_CHANGE
;0.3
G1 X187.887 Y138.314 F10800
G1 Z.3 F720
G1 E2 F2100
;TYPE:Skirt/Brim
;WIDTH:0.9
G1 F1200
G1 X189.448 Y136.382 E.25893
G1 X190.056 Y135.749 E.09143
G1 X191.964 Y134.158 E.25893
G1 X192.683 Y133.656 E.09143
G1 X194.866 Y132.468 E.25893
G1 X195.669 Y132.116 E.09143
G1 X198.041 Y131.377 E.25893
G1 X198.897 Y131.188 E.09143
G1 X201.368 Y130.926 E.25893
G1 X202.621 Y130.926 E.13059
G1 X205.583 Y131.285 E.31099
G1 X207.966 Y131.989 E.25893
G1 X208.783 Y132.307 E.09143
G1 X210.983 Y133.462 E.25893
G1 X211.722 Y133.934 E.09143
G1 X213.654 Y135.496 E.25893
G1 X214.288 Y136.103 E.09143
G1 X215.878 Y138.012 E.25893
G1 X216.381 Y138.731 E.09143
G1 X217.568 Y140.913 E.25893
G1 X217.921 Y141.716 E.09143
G1 X218.66 Y144.088 E.25893
G1 X218.849 Y144.945 E.09143
G1 X219.111 Y147.415 E.25893
G1 X219.129 Y148.292 E.09143
G1 X218.904 Y150.767 E.25893
G1 X218.751 Y151.631 E.09143
G1 X218.047 Y154.013 E.25893
G1 X217.729 Y154.831 E.09143
G1 X216.574 Y157.03 E.25893
G1 X216.102 Y157.77 E.09143
G1 X214.54 Y159.702 E.25893
G1 X213.933 Y160.335 E.09143
G1 X212.025 Y161.925 E.25893
G1 X211.306 Y162.428 E.09143
G1 X209.123 Y163.615 E.25893
G1 X208.32 Y163.968 E.09143
G1 X205.948 Y164.707 E.25893
G1 X205.092 Y164.896 E.09143
G1 X202.621 Y165.158 E.25893
G1 X201.744 Y165.177 E.09143
G1 X199.27 Y164.951 E.25893
G1 X198.406 Y164.798 E.09143
G1 X196.023 Y164.095 E.25893
G1 X195.206 Y163.776 E.09143
G1 X193.006 Y162.622 E.25893
G1 X192.267 Y162.15 E.09143
G1 X190.334 Y160.588 E.25893
G1 X189.701 Y159.981 E.09143
G1 X188.111 Y158.072 E.25893
G1 X187.608 Y157.353 E.09143
G1 X186.421 Y155.171 E.25893
G1 X186.068 Y154.368 E.09143
G1 X185.329 Y151.996 E.25893
G1 X185.14 Y151.139 E.09143
G1 X184.878 Y148.668 E.25893
G1 X184.86 Y147.791 E.09143
G1 X185.085 Y145.317 E.25893
G1 X185.238 Y144.453 E.09143
G1 X185.941 Y142.071 E.25893
G1 X186.26 Y141.253 E.09143
G1 X187.415 Y139.054 E.25893
G1 X187.822 Y138.415 E.07892
;WIPE_START
G1 F8640
G1 X189.448 Y136.382 E-.6012
G1 X190.056 Y135.749 E-.20256
G1 X191.964 Y134.158 E-.57366
G1 X192.683 Y133.656 E-.20256
G1 X193.901 Y132.993 E-.32002
;WIPE_END
G1 E-.1 F2100
G1 Z.7 F720
G1 X192.104 Y141.146 F10800
G1 Z.3 F720
G1 E2 F2100
G1 F1200
G1 X193.639 Y139.349 E.24636
G1 X195.496 Y137.886 E.24635
G1 X197.601 Y136.813 E.24627
G1 X199.853 Y136.175 E.24398
G1 X201.752 Y135.988 E.19881
G1 X202.358 Y136.002 E.06319
G1 X204.581 Y136.265 E.23332
G1 X206.829 Y136.996 E.24631
G1 X208.891 Y138.151 E.24635
G1 X210.688 Y139.687 E.24635
G1 X212.151 Y141.543 E.24635
G1 X213.224 Y143.649 E.24635
G1 X213.865 Y145.924 E.24635
G1 X214.05 Y148.281 E.24635
G1 X213.772 Y150.628 E.24635
G1 X213.041 Y152.876 E.24635
G1 X211.885 Y154.938 E.24635
G1 X210.35 Y156.735 E.24635
G1 X208.493 Y158.198 E.24635
G1 X206.387 Y159.271 E.24635
G1 X204.112 Y159.912 E.24635
G1 X201.755 Y160.097 E.24635
G1 X199.408 Y159.819 E.24635
G1 X197.16 Y159.088 E.24635
G1 X195.098 Y157.933 E.24635
G1 X193.301 Y156.397 E.24635
G1 X191.838 Y154.541 E.24635
G1 X190.765 Y152.435 E.24635
G1 X190.124 Y150.159 E.24635
G1 X189.939 Y147.803 E.24635
G1 X190.217 Y145.456 E.24635
G1 X190.948 Y143.208 E.24635
G1 X192.045 Y141.25 E.23385
G1 X192.768 Y141.654 F10800
G1 F1200
G1 X194.192 Y139.977 E.22928
G1 X195.915 Y138.609 E.22928
G1 X197.872 Y137.605 E.22925
G1 X199.973 Y137.003 E.22787
G1 X201.806 Y136.822 E.19193
G1 X202.315 Y136.837 E.05309
G1 X204.366 Y137.073 E.2151
G1 X206.46 Y137.747 E.22925
G1 X208.382 Y138.816 E.22928
G1 X210.06 Y140.239 E.22928
G1 X211.427 Y141.962 E.22928
G1 X212.432 Y143.919 E.22928
G1 X213.036 Y146.035 E.22928
G1 X213.215 Y148.227 E.22928
G1 X212.963 Y150.413 E.22928
G1 X212.29 Y152.507 E.22928
G1 X211.221 Y154.43 E.22928
G1 X209.797 Y156.107 E.22928
G1 X208.074 Y157.474 E.22928
G1 X206.117 Y158.479 E.22928
G1 X204.002 Y159.083 E.22928
G1 X201.809 Y159.262 E.22928
G1 X199.624 Y159.011 E.22928
G1 X197.529 Y158.337 E.22928
G1 X195.606 Y157.268 E.22928
G1 X193.929 Y155.845 E.22928
G1 X192.562 Y154.122 E.22928
G1 X191.557 Y152.164 E.22928
G1 X190.953 Y150.049 E.22928
G1 X190.774 Y147.856 E.22928
G1 X191.026 Y145.671 E.22928
G1 X191.699 Y143.577 E.22928
G1 X192.71 Y141.759 E.21677
G1 X193.434 Y142.16 F10800
G1 F1200
G1 X194.746 Y140.603 E.21221
G1 X196.337 Y139.332 E.21221
G1 X198.145 Y138.395 E.2122
G1 X200.094 Y137.83 E.21154
G1 X201.859 Y137.657 E.1848
G1 X202.269 Y137.671 E.04278
G1 X204.153 Y137.882 E.1976
G1 X206.094 Y138.499 E.21219
G1 X207.877 Y139.482 E.21221
G1 X209.434 Y140.794 E.21221
G1 X210.705 Y142.384 E.21221
G1 X211.641 Y144.192 E.21221
G1 X212.207 Y146.148 E.21221
G1 X212.38 Y148.177 E.21221
G1 X212.154 Y150.201 E.21221
G1 X211.538 Y152.141 E.21221
G1 X210.555 Y153.924 E.2122
G1 X209.243 Y155.481 E.21221
G1 X207.652 Y156.752 E.21221
G1 X205.844 Y157.689 E.21221
G1 X203.888 Y158.254 E.21221
G1 X201.859 Y158.427 E.21221
G1 X199.836 Y158.201 E.21221
G1 X197.895 Y157.585 E.21221
G1 X196.112 Y156.602 E.2122
G1 X194.555 Y155.29 E.21221
G1 X193.284 Y153.7 E.21221
G1 X192.348 Y151.892 E.21221
G1 X191.782 Y149.936 E.21221
G1 X191.609 Y147.907 E.21221
G1 X191.835 Y145.883 E.21221
G1 X192.451 Y143.943 E.21221
G1 X193.376 Y142.265 E.1997
G1 X194.103 Y142.663 F10800
G1 F1200
G1 X195.304 Y141.227 E.19513
G1 X196.762 Y140.052 E.19513
G1 X198.421 Y139.185 E.19513
G1 X200.216 Y138.658 E.19497
G1 X201.909 Y138.491 E.17731
G1 X202.217 Y138.505 E.03214
G1 X203.944 Y138.692 E.18102
G1 X205.73 Y139.252 E.19513
G1 X207.373 Y140.15 E.19513
G1 X208.81 Y141.351 E.19513
G1 X209.984 Y142.809 E.19513
G1 X210.851 Y144.468 E.19513
G1 X211.378 Y146.265 E.19513
G1 X211.545 Y148.13 E.19513
G1 X211.344 Y149.991 E.19513
G1 X210.784 Y151.778 E.19513
G1 X209.886 Y153.421 E.19513
G1 X208.685 Y154.857 E.19513
G1 X207.227 Y156.032 E.19513
G1 X205.568 Y156.899 E.19513
G1 X203.771 Y157.426 E.19513
G1 X201.907 Y157.592 E.19513
G1 X200.045 Y157.392 E.19513
G1 X198.259 Y156.832 E.19513
G1 X196.616 Y155.934 E.19513
G1 X195.179 Y154.733 E.19513
G1 X194.005 Y153.275 E.19513
G1 X193.138 Y151.615 E.19513
G1 X192.611 Y149.819 E.19513
G1 X192.444 Y147.954 E.19513
G1 X192.645 Y146.093 E.19513
G1 X193.205 Y144.306 E.19513
G1 X194.045 Y142.768 E.18262
G1 X194.773 Y143.163 F10800
G1 F1200
G1 X195.863 Y141.848 E.17806
G1 X197.19 Y140.771 E.17806
G1 X198.7 Y139.974 E.17806
G1 X200.338 Y139.486 E.17813
G1 X201.955 Y139.327 E.16929
G1 X203.738 Y139.503 E.18675
G1 X205.37 Y140.007 E.17807
G1 X206.873 Y140.82 E.17806
G1 X208.188 Y141.911 E.17806
G1 X209.265 Y143.237 E.17806
G1 X210.063 Y144.748 E.17806
G1 X210.55 Y146.385 E.17806
G1 X210.709 Y148.086 E.17806
G1 X210.533 Y149.786 E.17806
G1 X210.029 Y151.418 E.17806
G1 X209.216 Y152.92 E.17806
G1 X208.125 Y154.236 E.17806
G1 X206.799 Y155.313 E.17806
G1 X205.289 Y156.11 E.17806
G1 X203.651 Y156.598 E.17806
G1 X201.95 Y156.757 E.17806
G1 X200.251 Y156.581 E.17806
G1 X198.618 Y156.076 E.17806
G1 X197.116 Y155.263 E.17806
G1 X195.801 Y154.173 E.17806
G1 X194.724 Y152.847 E.17806
G1 X193.926 Y151.336 E.17806
G1 X193.438 Y149.699 E.17806
G1 X193.28 Y147.998 E.17806
G1 X193.456 Y146.298 E.17806
G1 X193.96 Y144.666 E.17806
G1 X194.716 Y143.269 E.16555
G1 X195.553 Y143.738 F10800
;TYPE:External perimeter
G1 F1200
G1 X196.517 Y142.564 E.15828
G1 X197.691 Y141.601 E.15828
G1 X199.03 Y140.885 E.15828
G1 X200.483 Y140.444 E.15828
G1 X201.994 Y140.295 E.15828
G1 X203.506 Y140.444 E.15828
G1 X204.959 Y140.885 E.15828
G1 X206.298 Y141.601 E.15828
G1 X207.472 Y142.564 E.15828
G1 X208.436 Y143.738 E.15828
G1 X209.152 Y145.077 E.15828
G1 X209.592 Y146.531 E.15828
G1 X209.741 Y148.042 E.15828
G1 X209.592 Y149.553 E.15828
G1 X209.152 Y151.007 E.15828
G1 X208.436 Y152.346 E.15828
G1 X207.472 Y153.52 E.15828
G1 X206.298 Y154.483 E.15828
G1 X204.959 Y155.199 E.15828
G1 X203.506 Y155.64 E.15828
G1 X201.994 Y155.789 E.15828
G1 X200.483 Y155.64 E.15828
G1 X199.03 Y155.199 E.15828
G1 X197.691 Y154.483 E.15828
G1 X196.517 Y153.52 E.15828
G1 X195.553 Y152.346 E.15828
G1 X194.837 Y151.007 E.15828
G1 X194.396 Y149.553 E.15828
G1 X194.248 Y148.042 E.15828
G1 X194.396 Y146.531 E.15828
G1 X194.837 Y145.077 E.15828
G1 X195.497 Y143.844 E.14577
G1 X196.351 Y143.79 F10800
G1 X196.234 Y144.238
;TYPE:Perimeter
G1 F1200
G1 X197.11 Y143.158 E.14498
G1 X198.157 Y142.299 E.14112
G1 X199.351 Y141.661 E.14112
G1 X200.647 Y141.267 E.14112
G1 X201.994 Y141.135 E.14112
G1 X203.342 Y141.267 E.14112
G1 X204.638 Y141.661 E.14112
G1 X205.832 Y142.299 E.14112
G1 X206.879 Y143.158 E.14112
G1 X207.738 Y144.205 E.14112
G1 X208.376 Y145.399 E.14112
G1 X208.769 Y146.694 E.14112
G1 X208.902 Y148.042 E.14112
G1 X208.769 Y149.389 E.14112
G1 X208.376 Y150.685 E.14112
G1 X207.738 Y151.879 E.14112
G1 X206.879 Y152.926 E.14112
G1 X205.832 Y153.785 E.14112
G1 X204.638 Y154.423 E.14112
G1 X203.342 Y154.816 E.14112
G1 X201.994 Y154.949 E.14112
G1 X200.647 Y154.816 E.14112
G1 X199.351 Y154.423 E.14112
G1 X198.157 Y153.785 E.14112
G1 X197.11 Y152.926 E.14112
G1 X196.251 Y151.879 E.14112
G1 X195.613 Y150.685 E.14112
G1 X195.22 Y149.389 E.14112
G1 X195.087 Y148.042 E.14112
G1 X195.22 Y146.694 E.14112
G1 X195.613 Y145.399 E.14112
G1 X196.177 Y144.344 E.12469
;WIPE_START
G1 F8640
G1 X197.11 Y143.158 E-.34844
G1 X198.157 Y142.299 E-.31265
G1 X199.351 Y141.661 E-.31265
G1 X200.647 Y141.267 E-.31266
G1 X201.994 Y141.135 E-.31265
G1 X203.292 Y141.263 E-.30095
;WIPE_END
G1 E-.1 F2100
G1 Z.7 F720
G1 X199.144 Y143.105 F10800
G1 Z.3 F720
G1 E2 F2100
;TYPE:External perimeter
G1 F1200
G1 X204.845 Y143.105 E.59413
G1 X207.695 Y148.042 E.59413
G1 X204.845 Y152.979 E.59413
G1 X199.144 Y152.979 E.59413
G1 X196.294 Y148.042 E.59413
G1 X199.084 Y143.209 E.58162
G1 X199.144 Y142.305 F10800
;WIPE_START
G1 F8640
G1 X204.845 Y143.105 E-1.33034
G1 X206.078 Y145.242 E-.56966
;WIPE_END
G1 E-.1 F2100
G1 Z.7 F720
G1 X198.662 Y142.27 F10800
G1 Z.3 F720
G1 E2 F2100
;TYPE:Perimeter
G1 F1200
G1 X205.327 Y142.27 E.69469
G1 X208.66 Y148.042 E.69469
G1 X205.327 Y153.814 E.69469
G1 X198.662 Y153.814 E.69469
G1 X195.329 Y148.042 E.69469
G1 X198.602 Y142.373 E.68219
;WIPE_START
G1 F8640
G1 X205.327 Y142.27 E-1.55311
G1 X206.078 Y143.571 E-.34689
;WIPE_END
G1 E-.1 F2100
G1 Z.7 F720
G1 X197.358 Y143.593 F10800
G1 Z.3 F720
G1 E2 F2100
;TYPE:Gap fill
;WIDTH:0.21609
G1 F1200
G1 X197.198 Y143.824 E.00532
;WIDTH:0.2598
G1 X197.038 Y144.055 E.00685
;WIDTH:0.30351
G1 X196.878 Y144.286 E.00838
;WIDTH:0.34722
G1 X196.719 Y144.517 E.00991
;WIDTH:0.34722
G1 X196.113 Y145.606 E.04396
;WIDTH:0.306445
G1 X196.028 Y145.802 E.00645
;WIDTH:0.261757
G1 X195.943 Y145.998 E.00526
;WIDTH:0.217069
G1 X195.859 Y146.194 E.00407
;WIPE_START
G1 F8640
G1 X195.943 Y145.998 E-.0493
;WIPE_END
G1 E-1.9507 F2100
G1 Z.7 F720
G1 X195.859 Y149.89 F10800
G1 Z.3 F720
G1 E2 F2100
;WIDTH:0.217067
G1 F1200
G1 X195.943 Y150.086 E.00407
;WIDTH:0.261756
G1 X196.028 Y150.282 E.00526
;WIDTH:0.306444
G1 X196.113 Y150.478 E.00645
;WIDTH:0.34722
G1 X196.719 Y151.567 E.04396
;WIDTH:0.347219
G1 X196.878 Y151.798 E.00991
;WIDTH:0.30351
G1 X197.038 Y152.029 E.00838
;WIDTH:0.2598
G1 X197.198 Y152.26 E.00685
;WIDTH:0.21609
G1 X197.358 Y152.491 E.00532
;WIPE_START
G1 F8640
G1 X197.198 Y152.26 E-.06487
;WIPE_END
G1 E-1.93513 F2100
G1 Z.7 F720
G1 X200.471 Y154.278 F10800
G1 Z.3 F720
G1 E2 F2100
;WIDTH:0.205235
G1 F1200
G1 X200.608 Y154.299 E.00244
;WIDTH:0.23809
G1 X200.746 Y154.319 E.00301
;WIDTH:0.278984
G1 X201.162 Y154.34 E.01115
;WIDTH:0.319877
G1 X201.578 Y154.36 E.01328
;WIDTH:0.36077
G1 X201.994 Y154.38 E.0154
;WIDTH:0.360769
G1 X202.411 Y154.36 E.0154
;WIDTH:0.319876
G1 X202.827 Y154.34 E.01328
;WIDTH:0.278983
G1 X203.243 Y154.319 E.01115
;WIDTH:0.238091
G1 X203.38 Y154.299 E.00301
;WIDTH:0.205235
G1 X203.518 Y154.278 E.00244
;WIPE_START
G1 F8640
G1 X203.38 Y154.299 E-.03209
;WIPE_END
G1 E-1.96791 F2100
G1 Z.7 F720
G1 X206.631 Y152.491 F10800
G1 Z.3 F720
G1 E2 F2100
;WIDTH:0.216091
G1 F1200
G1 X206.791 Y152.26 E.00532
;WIDTH:0.259801
G1 X206.951 Y152.029 E.00685
;WIDTH:0.303511
G1 X207.11 Y151.798 E.00838
;WIDTH:0.347222
G1 X207.27 Y151.567 E.00991
;WIDTH:0.34722
G1 X207.876 Y150.478 E.04396
;WIDTH:0.306444
G1 X207.961 Y150.282 E.00645
;WIDTH:0.261756
G1 X208.045 Y150.086 E.00526
;WIDTH:0.217068
G1 X208.13 Y149.89 E.00407
;WIPE_START
G1 F8640
G1 X208.045 Y150.086 E-.0493
;WIPE_END
G1 E-1.9507 F2100
G1 Z.7 F720
G1 X208.13 Y146.194 F10800
G1 Z.3 F720
G1 E2 F2100
;WIDTH:0.217068
G1 F1200
G1 X208.045 Y145.998 E.00407
;WIDTH:0.261756
G1 X207.961 Y145.802 E.00526
;WIDTH:0.306444
G1 X207.876 Y145.606 E.00645
;WIDTH:0.34722
G1 X207.27 Y144.517 E.04396
;WIDTH:0.34722
G1 X207.11 Y144.286 E.00991
;WIDTH:0.30351
G1 X206.951 Y144.055 E.00838
;WIDTH:0.2598
G1 X206.791 Y143.824 E.00685
;WIDTH:0.21609
G1 X206.631 Y143.593 E.00532
;WIPE_START
G1 F8640
G1 X206.791 Y143.824 E-.06487
;WIPE_END
G1 E-1.93513 F2100
G1 Z.7 F720
G1 X203.518 Y141.806 F10800
G1 Z.3 F720
G1 E2 F2100
;WIDTH:0.205236
G1 F1200
G1 X203.38 Y141.785 E.00244
;WIDTH:0.238092
G1 X203.243 Y141.765 E.00301
;WIDTH:0.278986
G1 X202.827 Y141.744 E.01115
;WIDTH:0.319879
G1 X202.411 Y141.724 E.01328
;WIDTH:0.360772
G1 X201.994 Y141.704 E.0154
;WIDTH:0.360771
G1 X201.578 Y141.724 E.0154
;WIDTH:0.319878
G1 X201.162 Y141.744 E.01328
;WIDTH:0.278985
G1 X200.746 Y141.765 E.01115
;WIDTH:0.238091
G1 X200.608 Y141.785 E.00301
;WIDTH:0.205235
G1 X200.471 Y141.806 E.00244
;LAYER_CHANGE
;Z:0.7
;HEIGHT:0.4
;BEFORE_LAYER_CHANGE
G92 E0
;0.7


;WIPE_START
G1 F8640
G1 X200.608 Y141.785 E-.03209
;WIPE_END
G1 E-1.96791 F2100
G1 Z.7 F720
;AFTER_LAYER_CHANGE
;0.7
G1 Z1.1
G1 X197.426 Y131.568 F10800
G1 Z.7 F720
G1 E2 F2100
;TYPE:Skirt/Brim
;WIDTH:0.9
G1 F2026.63
G1 X198.041 Y131.377 E.08718
G1 X198.897 Y131.188 E.11878
G1 X201.368 Y130.926 E.33638
G1 X202.621 Y130.926 E.16964
G1 X205.583 Y131.285 E.404
G1 X207.966 Y131.989 E.33638
G1 X208.783 Y132.307 E.11877
G1 X210.983 Y133.462 E.33637
G1 X211.722 Y133.934 E.11878
G1 X213.654 Y135.496 E.33637
G1 X214.288 Y136.103 E.11878
G1 X215.878 Y138.012 E.33638
G1 X216.381 Y138.731 E.11878
G1 X217.568 Y140.913 E.33638
G1 X217.921 Y141.716 E.11877
G1 X218.66 Y144.088 E.33638
G1 X218.849 Y144.945 E.11878
G1 X219.111 Y147.415 E.33638
G1 X219.129 Y148.292 E.11877
G1 X218.904 Y150.767 E.33638
G1 X218.751 Y151.631 E.11878
G1 X218.047 Y154.013 E.33638
G1 X217.729 Y154.831 E.11877
G1 X216.574 Y157.03 E.33637
G1 X216.102 Y157.77 E.11878
G1 X214.54 Y159.702 E.33637
G1 X213.933 Y160.335 E.11878
G1 X212.025 Y161.925 E.33638
G1 X211.306 Y162.428 E.11878
G1 X209.123 Y163.615 E.33638
G1 X208.32 Y163.968 E.11877
G1 X205.948 Y164.707 E.33638
G1 X205.092 Y164.896 E.11878
G1 X202.621 Y165.158 E.33638
G1 X201.744 Y165.177 E.11877
G1 X199.27 Y164.951 E.33638
G1 X198.406 Y164.798 E.11878
G1 X196.023 Y164.095 E.33638
G1 X195.206 Y163.776 E.11877
G1 X193.006 Y162.622 E.33637
G1 X192.267 Y162.15 E.11878
G1 X190.334 Y160.588 E.33637
G1 X189.701 Y159.981 E.11878
G1 X188.111 Y158.072 E.33638
G1 X187.608 Y157.353 E.11878
G1 X186.421 Y155.171 E.33638
G1 X186.068 Y154.368 E.11877
G1 X185.329 Y151.996 E.33638
G1 X185.14 Y151.139 E.11878
G1 X184.878 Y148.668 E.33638
G1 X184.86 Y147.791 E.11877
