; generated by PrusaSlicer 2.4.2+linux-x64-GTK2 on 2022-07-07 at 01:33:52 UTC

; 

; external perimeters extrusion width = 0.90mm
; perimeters extrusion width = 0.90mm
; infill extrusion width = 0.90mm
; solid infill extrusion width = 0.90mm
; top infill extrusion width = 0.90mm
; first layer extrusion width = 0.90mm

; external perimeters extrusion width = 0.90mm
; perimeters extrusion width = 0.90mm
; infill extrusion width = 0.90mm
; solid infill extrusion width = 0.90mm
; top infill extrusion width = 0.90mm
; first layer extrusion width = 0.90mm

M107
;TYPE:Custom
G90 ; use absolute coordinates
M83 ; extruder relative mode
M140 S90 ; set final bed temp
;M104 S150 ; set temporary nozzle temp to prevent oozing during homing
G4 S10 ; allow partial nozzle warmup
G28 ; home all axis
G1 Z50 F240
G1 X2 Y10 F3000
M104 S250 ; set final nozzle temp
M190 S90 ; wait for bed temp to stabilize
M109 S250 ; wait for nozzle temp to stabilize
G1 Z0.28 F240
G92 E0
G1 Y140 E10 F1500 ; prime the nozzle
G1 X2.3 F5000
G92 E0
G1 Y10 E10 F1200 ; prime the nozzle
G92 E0
G21 ; set units to millimeters
G90 ; use absolute coordinates
M83 ; use relative distances for extrusion
; Filament gcode
M107
;LAYER_CHANGE
;Z:0.2
;HEIGHT:0.2
;BEFORE_LAYER_CHANGE
G92 E0
;0.2


G1 E-6 F3600
G1 Z.2 F9000
;AFTER_LAYER_CHANGE
;0.2
G1 X124.873 Y124.302
G1 E6 F2400
M204 S500
;TYPE:Skirt/Brim
;WIDTH:0.9
G1 F1200
G1 X127.802 Y121.373 E.2952
G1 X129.283 Y120.45 E.12437
G1 X130.529 Y120.243 E.09002
G1 X179.471 Y120.243 E3.48793
G1 X181.171 Y120.638 E.12437
G1 X182.198 Y121.373 E.09002
G1 X185.127 Y124.302 E.2952
G1 X186.05 Y125.783 E.12437
G1 X186.257 Y127.029 E.09002
G1 X186.257 Y166.971 E2.84653
G1 X185.862 Y168.671 E.12437
G1 X185.127 Y169.698 E.09002
G1 X182.198 Y172.627 E.2952
G1 X181.48 Y173.193 E.06518
G1 X160.409 Y186.025 E1.75815
G1 X158.741 Y186.752 E.12967
G1 X157.631 Y187.083 E.08262
G1 X155.831 Y187.354 E.12967
G1 X154.672 Y187.387 E.08262
G1 X152.864 Y187.182 E.12967
G1 X151.736 Y186.914 E.08263
G1 X150.043 Y186.248 E.12967
G1 X148.943 Y185.65 E.08924
G1 X128.52 Y173.193 E1.70482
G1 X127.802 Y172.627 E.06518
G1 X124.873 Y169.698 E.2952
G1 X123.95 Y168.217 E.12437
G1 X123.743 Y166.971 E.09002
G1 X123.743 Y127.029 E2.84653
G1 X124.138 Y125.329 E.12437
G1 X124.803 Y124.399 E.08147
G1 E-4.2 F3600
;WIPE_START
G1 F7200
G1 X127.337 Y121.842 E-1.71
;WIPE_END
G1 E-.09 F3600
G1 X129.168 Y127.17 F9000
G1 E6 F2400
G1 F1200
G1 X129.41 Y126.836 E.0294
G1 X130.334 Y125.912 E.09312
G1 X130.823 Y125.585 E.04191
G1 X131.371 Y125.358 E.04232
G1 X131.948 Y125.243 E.04191
G1 X178.137 Y125.251 E3.29173
G1 X178.63 Y125.358 E.03594
G1 X179.18 Y125.586 E.04241
G1 X179.53 Y125.802 E.02933
G1 X180.587 Y126.833 E.10524
G1 X180.915 Y127.323 E.04199
G1 X181.142 Y127.871 E.04231
G1 X181.257 Y128.448 E.04191
G1 X181.257 Y144.552 E1.14766
G1 X181.142 Y145.127 E.04178
G1 X180.884 Y145.737 E.04726
G1 X180.646 Y146.096 E.03067
G1 X179.753 Y147 E.09054
G1 X180.646 Y147.904 E.09054
G1 X180.884 Y148.263 E.03067
G1 X181.142 Y148.873 E.04726
G1 X181.257 Y149.448 E.04178
G1 X181.257 Y165.552 E1.14764
G1 X181.141 Y166.131 E.04211
G1 X180.832 Y166.83 E.05446
G1 X180.59 Y167.164 E.0294
G1 X179.666 Y168.088 E.09312
G1 X179.177 Y168.415 E.04191
G1 X178.629 Y168.642 E.04232
G1 X178.052 Y168.757 E.04191
G1 X131.948 Y168.757 E3.28563
G1 X131.369 Y168.641 E.04211
G1 X130.67 Y168.332 E.05446
G1 X130.336 Y168.09 E.0294
G1 X129.412 Y167.166 E.09312
G1 X129.085 Y166.677 E.04191
G1 X128.858 Y166.129 E.04232
G1 X128.743 Y165.552 E.04191
G1 X128.743 Y149.448 E1.14766
G1 X128.858 Y148.873 E.04178
G1 X129.116 Y148.263 E.04726
G1 X129.354 Y147.904 E.03067
G1 X130.247 Y147 E.09054
G1 X129.354 Y146.096 E.09054
G1 X129.116 Y145.737 E.03067
G1 X128.858 Y145.127 E.04726
G1 X128.743 Y144.552 E.04178
G1 X128.743 Y128.448 E1.14764
G1 X128.859 Y127.869 E.04211
G1 X129.12 Y127.28 E.04591
G1 X129.897 Y127.622 F9000
G1 F1200
G1 X130.044 Y127.414 E.01818
G1 X130.91 Y126.548 E.08729
G1 X131.19 Y126.361 E.02396
G1 X131.66 Y126.166 E.03632
G1 X131.99 Y126.1 E.02396
G1 X178.088 Y126.108 E3.28525
G1 X178.335 Y126.164 E.018
G1 X178.815 Y126.363 E.03707
G1 X179.03 Y126.499 E.01809
G1 X179.953 Y127.411 E.09251
G1 X180.139 Y127.69 E.02387
G1 X180.334 Y128.16 E.03632
G1 X180.4 Y128.49 E.02396
G1 X180.4 Y144.51 E1.14166
G1 X180.334 Y144.84 E.02396
G1 X180.137 Y145.315 E.03669
G1 X180.001 Y145.53 E.01809
G1 X179.087 Y146.455 E.09267
G1 X178.289 Y147 E.06889
G1 X179.087 Y147.545 E.06889
G1 X180.001 Y148.47 E.09267
G1 X180.137 Y148.685 E.01809
G1 X180.334 Y149.16 E.03669
G1 X180.4 Y149.49 E.02396
G1 X180.4 Y165.51 E1.14166
G1 X180.335 Y165.837 E.02377
G1 X180.103 Y166.378 E.04192
G1 X179.956 Y166.586 E.01818
G1 X179.09 Y167.452 E.08729
G1 X178.81 Y167.639 E.02396
G1 X178.34 Y167.834 E.03632
G1 X178.01 Y167.9 E.02396
G1 X131.99 Y167.9 E3.27966
G1 X131.663 Y167.835 E.02377
G1 X131.122 Y167.603 E.04192
G1 X130.914 Y167.456 E.01818
G1 X130.048 Y166.59 E.08729
G1 X129.861 Y166.31 E.02396
G1 X129.666 Y165.84 E.03632
G1 X129.6 Y165.51 E.02396
G1 X129.6 Y149.49 E1.14166
G1 X129.666 Y149.16 E.02396
G1 X129.863 Y148.685 E.03669
G1 X129.999 Y148.47 E.01809
G1 X130.913 Y147.545 E.09267
G1 X131.711 Y147 E.06889
G1 X130.913 Y146.455 E.06889
G1 X129.999 Y145.53 E.09267
G1 X129.863 Y145.315 E.01809
G1 X129.666 Y144.84 E.03669
G1 X129.6 Y144.51 E.02396
G1 X129.6 Y128.49 E1.14166
G1 X129.665 Y128.163 E.02377
G1 X129.85 Y127.733 E.03336
G1 X130.636 Y128.058 F9000
G1 F1200
G1 X130.683 Y127.986 E.00615
G1 X131.486 Y127.183 E.08092
G1 X131.557 Y127.137 E.00602
G1 X131.95 Y126.974 E.03032
G1 X132.032 Y126.957 E.00602
G1 X177.968 Y126.957 E3.27365
G1 X178.051 Y126.974 E.00602
G1 X178.443 Y127.137 E.03032
G1 X178.514 Y127.183 E.00602
G1 X179.317 Y127.986 E.08092
G1 X179.363 Y128.057 E.00602
G1 X179.526 Y128.45 E.03032
G1 X179.543 Y128.532 E.00602
G1 X179.543 Y144.468 E1.13566
G1 X179.526 Y144.551 E.00602
G1 X179.363 Y144.943 E.03032
G1 X179.317 Y145.014 E.00602
G1 X178.514 Y145.817 E.08092
G1 X178.443 Y145.863 E.00602
G1 X178.051 Y146.026 E.03032
G1 X177.968 Y146.043 E.00602
G1 X132.032 Y146.043 E3.27365
G1 X131.95 Y146.026 E.00602
G1 X131.557 Y145.863 E.03032
G1 X131.486 Y145.817 E.00602
G1 X130.683 Y145.014 E.08092
G1 X130.637 Y144.943 E.00602
G1 X130.474 Y144.551 E.03032
G1 X130.457 Y144.468 E.00602
G1 X130.457 Y128.532 E1.13566
G1 X130.474 Y128.45 E.00602
G1 X130.59 Y128.169 E.02162
G1 X131.38 Y128.502 F9000
G1 F1200
G1 X132.002 Y127.88 E.06275
G1 X132.16 Y127.814 E.01215
G1 X177.84 Y127.814 E3.25549
G1 X177.998 Y127.88 E.01215
G1 X178.62 Y128.502 E.06275
G1 X178.686 Y128.66 E.01215
G1 X178.686 Y144.34 E1.11749
G1 X178.62 Y144.498 E.01215
G1 X177.998 Y145.12 E.06275
G1 X177.84 Y145.186 E.01215
G1 X132.16 Y145.186 E3.25549
G1 X132.002 Y145.12 E.01215
G1 X131.38 Y144.498 E.06275
G1 X131.314 Y144.34 E.01215
G1 X131.314 Y128.66 E1.11749
G1 X131.334 Y128.613 E.0036
G1 X132.171 Y128.922 F9000
G1 F1200
G1 X132.422 Y128.671 E.0253
G1 X177.578 Y128.671 E3.21804
G1 X177.829 Y128.922 E.0253
G1 X177.829 Y144.078 E1.08004
G1 X177.578 Y144.329 E.0253
G1 X132.422 Y144.329 E3.21804
G1 X132.171 Y144.078 E.0253
G1 X132.171 Y129.042 E1.07149
G1 E-4.2 F3600
;WIPE_START
G1 F7200
G1 X132.422 Y128.671 E-.21279
G1 X135.575 Y128.671 E-1.49721
;WIPE_END
G1 E-.09 F3600
G1 X132.171 Y147.957 F9000
G1 E6 F2400
G1 F1200
G1 X177.968 Y147.957 E3.26374
G1 X178.051 Y147.974 E.00602
G1 X178.443 Y148.137 E.03032
G1 X178.514 Y148.183 E.00602
G1 X179.317 Y148.986 E.08092
G1 X179.363 Y149.057 E.00602
G1 X179.526 Y149.45 E.03032
G1 X179.543 Y149.532 E.00602
G1 X179.543 Y165.468 E1.13566
G1 X179.526 Y165.551 E.00602
G1 X179.363 Y165.943 E.03032
G1 X179.317 Y166.014 E.00602
G1 X178.514 Y166.817 E.08092
G1 X178.443 Y166.863 E.00602
G1 X178.051 Y167.026 E.03032
G1 X177.968 Y167.043 E.00602
G1 X132.032 Y167.043 E3.27365
G1 X131.95 Y167.026 E.00602
G1 X131.557 Y166.863 E.03032
G1 X131.486 Y166.817 E.00602
G1 X130.683 Y166.014 E.08092
G1 X130.637 Y165.943 E.00602
G1 X130.474 Y165.551 E.03032
G1 X130.457 Y165.468 E.00602
G1 X130.457 Y149.532 E1.13566
G1 X130.474 Y149.45 E.00602
G1 X130.637 Y149.057 E.03032
G1 X130.683 Y148.986 E.00602
G1 X131.486 Y148.183 E.08092
G1 X131.557 Y148.137 E.00602
G1 X131.95 Y147.974 E.03032
G1 X132.051 Y147.957 E.00736
G1 X132.16 Y148.814 F9000
G1 F1200
G1 X177.84 Y148.814 E3.25549
G1 X177.998 Y148.88 E.01215
G1 X178.62 Y149.502 E.06275
G1 X178.686 Y149.66 E.01215
G1 X178.686 Y165.34 E1.11749
G1 X178.62 Y165.498 E.01215
G1 X177.998 Y166.12 E.06275
G1 X177.84 Y166.186 E.01215
G1 X132.16 Y166.186 E3.25549
G1 X132.002 Y166.12 E.01215
G1 X131.38 Y165.498 E.06275
G1 X131.314 Y165.34 E.01215
G1 X131.314 Y149.66 E1.11749
G1 X131.38 Y149.502 E.01215
G1 X132.002 Y148.88 E.06275
G1 X132.049 Y148.86 E.0036
G1 X132.422 Y149.671 F9000
G1 F1200
G1 X177.578 Y149.671 E3.21804
G1 X177.829 Y149.922 E.0253
G1 X177.829 Y165.078 E1.08004
G1 X177.578 Y165.329 E.0253
G1 X132.422 Y165.329 E3.21804
G1 X132.171 Y165.078 E.0253
G1 X132.171 Y149.922 E1.08004
G1 X132.338 Y149.756 E.01675
G1 E-4.2 F3600
;WIPE_START
G1 F7200
G1 X135.938 Y149.75 E-1.71
;WIPE_END
G1 E-.09 F3600
G1 X150.556 Y171.412 F9000
G1 E6 F2400
G1 F1200
G1 X151.719 Y170.52 E.10446
G1 X152.137 Y170.297 E.03379
G1 X152.999 Y169.94 E.06649
G1 X153.703 Y169.751 E.05193
G1 X154.674 Y169.623 E.06981
G1 X155.443 Y169.643 E.05482
G1 X156.652 Y169.833 E.08725
G1 X157.858 Y170.295 E.09199
G1 X158.502 Y170.664 E.05291
G1 X159.242 Y171.232 E.06647
G1 X159.588 Y171.556 E.03379
G1 X160.48 Y172.719 E.10446
G1 X160.703 Y173.137 E.03379
G1 X161.06 Y173.999 E.06649
G1 X161.249 Y174.703 E.05192
G1 X161.371 Y175.628 E.06649
G1 X161.387 Y176.102 E.03379
G1 X161.196 Y177.555 E.10447
G1 X161.057 Y178.008 E.03379
G1 X160.7 Y178.87 E.06649
G1 X160.336 Y179.501 E.05192
G1 X159.768 Y180.242 E.06649
G1 X159.444 Y180.588 E.03379
G1 X158.281 Y181.48 E.10446
G1 X157.863 Y181.703 E.03379
G1 X157.001 Y182.06 E.06649
G1 X156.297 Y182.249 E.05193
G1 X155.372 Y182.371 E.06649
G1 X154.898 Y182.387 E.03379
G1 X153.445 Y182.196 E.10447
G1 X152.992 Y182.057 E.03379
G1 X152.13 Y181.7 E.06649
G1 X151.499 Y181.336 E.05192
G1 X150.758 Y180.768 E.06649
G1 X150.412 Y180.444 E.03379
G1 X149.52 Y179.281 E.10446
G1 X149.297 Y178.863 E.03379
G1 X148.94 Y178.001 E.06649
G1 X148.751 Y177.297 E.05192
G1 X148.629 Y176.372 E.06649
G1 X148.613 Y175.898 E.03379
G1 X148.804 Y174.445 E.10447
G1 X148.943 Y173.992 E.03379
G1 X149.3 Y173.13 E.06649
G1 X149.664 Y172.499 E.05192
G1 X150.232 Y171.758 E.06649
G1 X150.474 Y171.5 E.02523
G1 X151.097 Y172.086 F9000
G1 F1200
G1 X151.155 Y172.025 E.00602
G1 X152.155 Y171.258 E.08983
G1 X152.486 Y171.08 E.02672
G1 X153.301 Y170.742 E.0629
G1 X153.842 Y170.597 E.03995
G1 X154.75 Y170.478 E.06521
G1 X155.386 Y170.499 E.04538
G1 X156.47 Y170.672 E.0782
G1 X157.514 Y171.08 E.07991
G1 X158.002 Y171.361 E.04014
G1 X158.702 Y171.898 E.06288
G1 X158.975 Y172.155 E.02672
G1 X159.742 Y173.155 E.08983
G1 X159.92 Y173.486 E.02672
G1 X160.258 Y174.301 E.0629
G1 X160.403 Y174.842 E.03994
G1 X160.518 Y175.717 E.0629
G1 X160.529 Y176.092 E.02672
G1 X160.365 Y177.342 E.08983
G1 X160.257 Y177.701 E.02672
G1 X159.919 Y178.516 E.0629
G1 X159.639 Y179.002 E.03994
G1 X159.102 Y179.702 E.0629
G1 X158.845 Y179.975 E.02672
G1 X157.845 Y180.742 E.08983
G1 X157.514 Y180.92 E.02672
G1 X156.699 Y181.258 E.0629
G1 X156.158 Y181.403 E.03994
G1 X155.283 Y181.518 E.0629
G1 X154.908 Y181.529 E.02672
G1 X153.658 Y181.365 E.08983
G1 X153.299 Y181.257 E.02672
G1 X152.484 Y180.919 E.0629
G1 X151.998 Y180.639 E.03994
G1 X151.298 Y180.102 E.0629
G1 X151.025 Y179.845 E.02672
G1 X150.258 Y178.845 E.08983
G1 X150.08 Y178.514 E.02672
G1 X149.742 Y177.699 E.0629
G1 X149.597 Y177.158 E.03994
G1 X149.482 Y176.283 E.0629
G1 X149.471 Y175.908 E.02672
G1 X149.635 Y174.658 E.08983
G1 X149.743 Y174.299 E.02672
G1 X150.081 Y173.484 E.0629
G1 X150.361 Y172.998 E.03994
G1 X150.898 Y172.298 E.0629
G1 X151.015 Y172.174 E.01215
G1 X151.635 Y172.764 F9000
G1 F1200
G1 X151.752 Y172.641 E.01211
G1 X152.596 Y171.994 E.07575
G1 X152.836 Y171.863 E.01949
G1 X153.603 Y171.545 E.05919
G1 X153.982 Y171.443 E.02796
G1 X154.823 Y171.333 E.06043
G1 X155.322 Y171.353 E.03562
G1 X156.283 Y171.509 E.06938
G1 X157.165 Y171.863 E.06768
G1 X157.502 Y172.058 E.0278
G1 X158.161 Y172.564 E.05919
G1 X158.359 Y172.752 E.01949
G1 X159.006 Y173.596 E.07575
G1 X159.137 Y173.836 E.01949
G1 X159.455 Y174.603 E.05919
G1 X159.557 Y174.982 E.02796
G1 X159.665 Y175.806 E.05919
G1 X159.672 Y176.079 E.01949
G1 X159.533 Y177.133 E.07575
G1 X159.456 Y177.395 E.01949
G1 X159.138 Y178.163 E.05919
G1 X158.942 Y178.502 E.02796
G1 X158.436 Y179.161 E.05919
G1 X158.248 Y179.359 E.01949
G1 X157.404 Y180.006 E.07575
G1 X157.164 Y180.137 E.01949
G1 X156.397 Y180.455 E.05919
G1 X156.018 Y180.557 E.02796
G1 X155.194 Y180.665 E.05919
G1 X154.921 Y180.672 E.01949
G1 X153.867 Y180.533 E.07575
G1 X153.605 Y180.456 E.01949
G1 X152.838 Y180.138 E.05919
G1 X152.498 Y179.942 E.02796
G1 X151.839 Y179.436 E.05919
G1 X151.641 Y179.248 E.01949
G1 X150.994 Y178.404 E.07575
G1 X150.863 Y178.164 E.01949
G1 X150.545 Y177.397 E.05919
G1 X150.443 Y177.018 E.02796
G1 X150.335 Y176.194 E.05919
G1 X150.328 Y175.921 E.01949
G1 X150.467 Y174.867 E.07575
G1 X150.544 Y174.605 E.01949
G1 X150.862 Y173.837 E.05919
G1 X151.058 Y173.498 E.02796
G1 X151.554 Y172.852 E.05802
G1 X152.228 Y173.381 F9000
G1 F1200
G1 X152.345 Y173.26 E.01199
G1 X153.041 Y172.726 E.06254
G1 X153.188 Y172.645 E.012
G1 X153.905 Y172.347 E.05531
G1 X154.122 Y172.289 E.01598
G1 X154.892 Y172.188 E.05539
G1 X155.249 Y172.208 E.02544
G1 X156.092 Y172.347 E.06093
G1 X156.809 Y172.643 E.05524
G1 X157.003 Y172.755 E.01598
G1 X157.619 Y173.228 E.05531
G1 X157.74 Y173.345 E.01199
G1 X158.274 Y174.041 E.06254
G1 X158.356 Y174.188 E.012
G1 X158.653 Y174.905 E.05531
G1 X158.711 Y175.122 E.01598
G1 X158.812 Y175.891 E.05531
G1 X158.815 Y176.06 E.012
G1 X158.7 Y176.93 E.06254
G1 X158.654 Y177.092 E.012
G1 X158.357 Y177.809 E.05531
G1 X158.245 Y178.003 E.01598
G1 X157.772 Y178.619 E.05531
G1 X157.655 Y178.74 E.01199
G1 X156.959 Y179.274 E.06254
G1 X156.812 Y179.355 E.012
G1 X156.095 Y179.653 E.05531
G1 X155.878 Y179.711 E.01598
G1 X155.109 Y179.812 E.05531
G1 X154.94 Y179.815 E.012
G1 X154.07 Y179.7 E.06254
G1 X153.908 Y179.654 E.012
G1 X153.191 Y179.357 E.05531
G1 X152.997 Y179.245 E.01598
G1 X152.381 Y178.772 E.05531
G1 X152.26 Y178.655 E.01199
G1 X151.726 Y177.959 E.06254
G1 X151.644 Y177.812 E.012
G1 X151.347 Y177.095 E.05531
G1 X151.289 Y176.878 E.01598
G1 X151.188 Y176.109 E.05531
G1 X151.185 Y175.94 E.012
G1 X151.3 Y175.07 E.06254
G1 X151.346 Y174.908 E.012
G1 X151.643 Y174.191 E.05531
G1 X151.755 Y173.997 E.01598
G1 X152.155 Y173.477 E.04676
G1 X152.835 Y173.998 F9000
G1 F1200
G1 X152.928 Y173.889 E.01028
G1 X153.545 Y173.424 E.05503
G1 X154.207 Y173.15 E.05106
G1 X154.955 Y173.044 E.05385
G1 X155.815 Y173.159 E.06179
G1 X156.503 Y173.452 E.05333
G1 X157.072 Y173.889 E.05106
G1 X157.576 Y174.545 E.059
G1 X157.85 Y175.207 E.05106
G1 X157.958 Y175.972 E.05503
G1 X157.85 Y176.793 E.059
G1 X157.548 Y177.503 E.05503
G1 X157.111 Y178.072 E.05106
G1 X156.455 Y178.576 E.059
G1 X155.793 Y178.85 E.05106
G1 X155.028 Y178.958 E.05503
G1 X154.207 Y178.85 E.059
G1 X153.545 Y178.576 E.05106
G1 X152.928 Y178.111 E.05503
G1 X152.424 Y177.455 E.059
G1 X152.15 Y176.793 E.05106
G1 X152.042 Y176.028 E.05503
G1 X152.15 Y175.207 E.059
G1 X152.424 Y174.545 E.05106
G1 X152.762 Y174.094 E.04018
G1 E-4.2 F3600
;WIPE_START
G1 F7200
G1 X152.928 Y173.889 E-.1255
G1 X153.545 Y173.424 E-.36681
G1 X154.207 Y173.15 E-.34034
G1 X154.955 Y173.044 E-.35894
G1 X155.815 Y173.159 E-.41183
G1 X156.021 Y173.247 E-.10658
;WIPE_END
G1 E-.09 F3600
G1 X155 Y143.45 F9000
G1 E6 F2400
;TYPE:External perimeter
G1 F1200
G1 X133.05 Y143.45 E1.5643
G1 X133.05 Y129.55 E.9906
G1 X176.95 Y129.55 E3.1286
G1 X176.95 Y143.45 E.9906
G1 X155.12 Y143.45 E1.55575
G1 X154.477 Y142.844 F9000
G1 X155.12 Y142.593
;TYPE:Perimeter
G1 F1200
G1 X133.907 Y142.593 E1.51177
G1 X133.907 Y130.407 E.86844
G1 X176.093 Y130.407 E3.00644
G1 X176.093 Y142.593 E.86844
