; generated by PrusaSlicer 2.4.2+linux-x64-GTK2 on 2022-07-06 at 21:55:27 UTC

; 

; external perimeters extrusion width = 0.50mm
; perimeters extrusion width = 0.50mm
; infill extrusion width = 0.50mm
; solid infill extrusion width = 0.50mm
; top infill extrusion width = 0.50mm
; first layer extrusion width = 0.50mm

; external perimeters extrusion width = 0.50mm
; perimeters extrusion width = 0.50mm
; infill extrusion width = 0.50mm
; solid infill extrusion width = 0.50mm
; top infill extrusion width = 0.50mm
; first layer extrusion width = 0.50mm

M107
;TYPE:Custom
G90 ; use absolute coordinates
M83 ; extruder relative mode
M140 S90 ; set final bed temp
;M104 S150 ; set temporary nozzle temp to prevent oozing during homing
G4 S10 ; allow partial nozzle warmup
G28 ; home all axis
G1 Z50 F240
G1 X2 Y10 F3000
M104 S250 ; set final nozzle temp
M190 S90 ; wait for bed temp to stabilize
M109 S250 ; wait for nozzle temp to stabilize
G1 Z0.28 F240
G92 E0
G1 Y140 E10 F1500 ; prime the nozzle
G1 X2.3 F5000
G92 E0
G1 Y10 E10 F1200 ; prime the nozzle
G92 E0
G21 ; set units to millimeters
G90 ; use absolute coordinates
M83 ; use relative distances for extrusion
; Filament gcode
M107
;LAYER_CHANGE
;Z:0.2
;HEIGHT:0.2
;BEFORE_LAYER_CHANGE
G92 E0
;0.2


G1 E-6 F3600
G1 Z.2 F9000
;AFTER_LAYER_CHANGE
;0.2
G1 X125.155 Y124.584
G1 E6 F2400
M204 S500
;TYPE:Skirt/Brim
;WIDTH:0.5
G1 F1200
G1 X128.084 Y121.655 E.15743
G1 X129.497 Y120.801 E.06275
G1 X130.529 Y120.643 E.03968
G1 X179.471 Y120.643 E1.86011
G1 X181.074 Y121.037 E.06275
G1 X181.916 Y121.655 E.03968
G1 X184.845 Y124.584 E.15743
G1 X185.699 Y125.997 E.06275
G1 X185.857 Y127.029 E.03968
G1 X185.857 Y166.971 E1.51805
G1 X185.463 Y168.574 E.06275
G1 X184.845 Y169.416 E.03968
G1 X181.916 Y172.345 E.15743
G1 X181.271 Y172.851 E.03116
G1 X160.209 Y185.678 E.93725
G1 X158.588 Y186.382 E.06717
G1 X157.527 Y186.697 E.04208
G1 X155.779 Y186.957 E.06717
G1 X154.672 Y186.987 E.04208
G1 X152.917 Y186.785 E.06717
G1 X151.84 Y186.527 E.04208
G1 X150.196 Y185.878 E.06717
G1 X149.151 Y185.308 E.04524
G1 X128.729 Y172.851 E.90918
G1 X128.084 Y172.345 E.03116
G1 X125.155 Y169.416 E.15743
G1 X124.301 Y168.003 E.06275
G1 X124.143 Y166.971 E.03968
G1 X124.143 Y127.029 E1.51805
G1 X124.537 Y125.426 E.06275
G1 X125.084 Y124.681 E.03512
G1 E-4.2 F3600
;WIPE_START
G1 F7200
G1 X127.619 Y122.125 E-1.71
;WIPE_END
G1 E-.09 F3600
G1 X128.773 Y126.96 F9000
G1 E6 F2400
G1 F1200
G1 X129.191 Y126.373 E.02741
G1 X129.999 Y125.586 E.04285
G1 X130.554 Y125.221 E.02526
G1 X131.166 Y124.953 E.02538
G1 X132.14 Y124.758 E.03777
G1 X177.91 Y124.762 E1.73954
G1 X178.752 Y124.928 E.03263
G1 X179.5 Y125.25 E.03094
G1 X180.047 Y125.623 E.02516
G1 X180.781 Y126.338 E.03894
G1 X181.353 Y127.195 E.03917
G1 X181.622 Y127.917 E.02925
G1 X181.742 Y128.646 E.02809
G1 X181.733 Y144.456 E.60088
G1 X181.588 Y145.203 E.02893
G1 X181.298 Y145.91 E.02904
G1 X180.832 Y146.6 E.03165
G1 X180.431 Y146.998 E.02148
G1 X180.836 Y147.404 E.0218
G1 X181.302 Y148.096 E.03169
G1 X181.594 Y148.82 E.02967
G1 X181.739 Y149.603 E.03026
G1 X181.738 Y165.406 E.60061
G1 X181.574 Y166.246 E.03253
G1 X181.25 Y166.998 E.0311
G1 X180.774 Y167.669 E.03128
G1 X179.996 Y168.419 E.04106
G1 X179.445 Y168.78 E.02503
G1 X178.834 Y169.047 E.02535
G1 X177.86 Y169.242 E.03776
G1 X157.52 Y169.242 E.77303
G1 X157.448 Y169.612 E.0143
G1 X158.208 Y169.921 E.0312
G1 X160.058 Y171.346 E.08874
G1 X160.973 Y172.605 E.05915
G1 X161.559 Y173.945 E.05561
G1 X161.868 Y176.284 E.08966
G1 X161.637 Y177.778 E.05744
G1 X161.091 Y179.185 E.05737
G1 X159.608 Y181.103 E.09212
G1 X158.436 Y181.95 E.05498
G1 X157.117 Y182.542 E.05494
G1 X154.65 Y182.867 E.09456
G1 X153.222 Y182.637 E.05496
G1 X151.871 Y182.122 E.05496
G1 X149.943 Y180.655 E.09209
G1 X149.05 Y179.436 E.05742
G1 X148.441 Y178.055 E.05737
G1 X148.133 Y175.65 E.09212
G1 X148.363 Y174.222 E.05498
G1 X148.878 Y172.871 E.05494
G1 X150.39 Y170.899 E.09444
G1 X151.518 Y170.077 E.05307
G1 X152.559 Y169.602 E.04349
G1 X152.481 Y169.242 E.01401
G1 X132.142 Y169.242 E.77302
G1 X131.255 Y169.074 E.0343
G1 X130.46 Y168.727 E.03297
G1 X129.873 Y168.309 E.02741
G1 X129.086 Y167.501 E.04285
G1 X128.721 Y166.946 E.02526
G1 X128.453 Y166.334 E.02538
G1 X128.258 Y165.36 E.03776
G1 X128.258 Y149.64 E.59745
G1 X128.412 Y148.799 E.03251
G1 X128.729 Y148.039 E.03128
G1 X129.167 Y147.401 E.02941
G1 X129.575 Y146.999 E.02177
G1 X129.026 Y146.425 E.03017
G1 X128.683 Y145.874 E.02466
G1 X128.425 Y145.243 E.02594
G1 X128.258 Y144.36 E.03413
G1 X128.258 Y128.642 E.59741
G1 X128.426 Y127.755 E.0343
G1 X128.725 Y127.07 E.02841
G1 X129.141 Y127.249 F9000
G1 F1200
G1 X129.526 Y126.685 E.02596
G1 X130.301 Y125.929 E.04114
G1 X130.786 Y125.615 E.02195
G1 X131.325 Y125.382 E.02232
G1 X132.163 Y125.215 E.03248
G1 X177.888 Y125.219 E1.73785
G1 X178.596 Y125.358 E.02743
G1 X179.264 Y125.642 E.02757
G1 X179.743 Y125.965 E.02197
G1 X180.444 Y126.649 E.03723
G1 X180.935 Y127.382 E.03353
G1 X181.175 Y128.016 E.02576
G1 X181.285 Y128.665 E.02503
G1 X181.276 Y144.432 E.59925
G1 X181.144 Y145.09 E.02549
G1 X180.886 Y145.712 E.0256
G1 X180.469 Y146.322 E.02806
G1 X179.771 Y146.996 E.03689
G1 X180.472 Y147.682 E.03728
G1 X180.888 Y148.293 E.0281
G1 X181.15 Y148.929 E.02612
G1 X181.282 Y149.625 E.02692
G1 X181.281 Y165.384 E.59895
G1 X181.144 Y166.09 E.02734
G1 X180.862 Y166.756 E.02747
G1 X180.441 Y167.355 E.02785
G1 X179.695 Y168.074 E.03934
G1 X179.214 Y168.385 E.02178
G1 X178.675 Y168.618 E.02231
G1 X177.837 Y168.785 E.03248
G1 X132.163 Y168.785 E1.73592
G1 X131.412 Y168.644 E.02904
G1 X130.703 Y168.339 E.02933
G1 X130.185 Y167.974 E.02408
G1 X129.429 Y167.199 E.04114
G1 X129.115 Y166.714 E.02195
G1 X128.882 Y166.175 E.02232
G1 X128.715 Y165.337 E.03248
G1 X128.715 Y149.662 E.59577
G1 X128.856 Y148.909 E.02913
G1 X129.14 Y148.241 E.02758
G1 X129.528 Y147.682 E.02586
G1 X130.226 Y147.009 E.03683
G1 X129.399 Y146.161 E.04504
G1 X129.097 Y145.68 E.02158
G1 X128.869 Y145.132 E.02257
G1 X128.715 Y144.338 E.03072
G1 X128.715 Y128.663 E.59576
G1 X128.856 Y127.912 E.02904
G1 X129.093 Y127.359 E.02285
G1 X129.509 Y127.539 F9000
G1 F1200
G1 X129.549 Y127.444 E.00391
G1 X129.861 Y126.996 E.02073
G1 X130.602 Y126.274 E.03935
G1 X131.014 Y126.012 E.01855
G1 X131.482 Y125.812 E.01933
G1 X132.185 Y125.672 E.02726
G1 X177.866 Y125.676 E1.73616
G1 X178.442 Y125.789 E.0223
G1 X179.03 Y126.035 E.02425
G1 X179.44 Y126.307 E.01869
G1 X180.108 Y126.959 E.03549
G1 X180.518 Y127.571 E.02798
G1 X180.729 Y128.118 E.02228
G1 X180.828 Y128.686 E.0219
G1 X180.819 Y144.408 E.59755
G1 X180.701 Y144.976 E.02202
G1 X180.495 Y145.474 E.02049
G1 X180.106 Y146.043 E.02622
G1 X179.35 Y146.764 E.03968
G1 X178.993 Y147.003 E.01635
G1 X179.401 Y147.276 E.01863
G1 X180.108 Y147.959 E.0374
G1 X180.496 Y148.53 E.02622
G1 X180.717 Y149.078 E.02248
G1 X180.824 Y149.646 E.02197
G1 X180.824 Y165.361 E.59726
G1 X180.701 Y165.977 E.02389
G1 X180.472 Y166.515 E.0222
G1 X180.107 Y167.042 E.02439
G1 X179.395 Y167.728 E.03755
G1 X178.986 Y167.988 E.01844
G1 X178.518 Y168.188 E.01932
G1 X177.815 Y168.328 E.02726
G1 X132.185 Y168.328 E1.73422
G1 X131.523 Y168.201 E.02562
G1 X130.944 Y167.951 E.02396
G1 X130.496 Y167.639 E.02073
G1 X129.774 Y166.898 E.03935
G1 X129.512 Y166.486 E.01855
G1 X129.312 Y166.018 E.01933
G1 X129.172 Y165.315 E.02726
G1 X129.172 Y149.684 E.59407
G1 X129.3 Y149.021 E.02567
G1 X129.55 Y148.444 E.02391
G1 X129.862 Y147.996 E.02075
G1 X130.648 Y147.237 E.04152
G1 X131.009 Y146.997 E.01647
G1 X130.535 Y146.672 E.02182
G1 X129.745 Y145.861 E.04304
G1 X129.496 Y145.456 E.01806
G1 X129.312 Y145.019 E.01802
G1 X129.172 Y144.315 E.02728
G1 X129.172 Y128.685 E.59403
G1 X129.299 Y128.023 E.02562
G1 X129.461 Y127.649 E.0155
G1 X129.879 Y127.826 F9000
G1 F1200
G1 X129.94 Y127.682 E.00595
G1 X130.197 Y127.307 E.01726
G1 X130.903 Y126.619 E.03748
G1 X131.239 Y126.41 E.01503
G1 X131.637 Y126.242 E.01643
G1 X132.208 Y126.129 E.02211
G1 X177.842 Y126.133 E1.73441
G1 X178.328 Y126.232 E.01884
G1 X178.799 Y126.43 E.0194
G1 X179.137 Y126.651 E.01537
G1 X179.772 Y127.27 E.03371
G1 X180.102 Y127.762 E.02251
G1 X180.283 Y128.223 E.01882
G1 X180.371 Y128.707 E.01868
G1 X180.362 Y144.384 E.59585
G1 X180.27 Y144.824 E.01707
G1 X180.101 Y145.24 E.01706
G1 X179.772 Y145.73 E.02246
G1 X179.058 Y146.411 E.03749
G1 X178.736 Y146.603 E.01425
G1 X177.723 Y146.994 E.04127
G1 X178.766 Y147.413 E.04273
G1 X179.103 Y147.623 E.01507
G1 X179.773 Y148.271 E.03541
G1 X180.102 Y148.762 E.02249
G1 X180.283 Y149.223 E.01882
G1 X180.371 Y149.707 E.01869
G1 X180.367 Y165.338 E.5941
G1 X180.27 Y165.824 E.01881
G1 X180.081 Y166.278 E.0187
G1 X179.772 Y166.73 E.02081
G1 X179.096 Y167.382 E.03567
G1 X178.761 Y167.59 E.01499
G1 X178.363 Y167.758 E.01643
G1 X177.793 Y167.871 E.0221
G1 X132.207 Y167.871 E1.73256
G1 X131.678 Y167.77 E.02044
G1 X131.182 Y167.56 E.02049
G1 X130.807 Y167.303 E.01726
G1 X130.119 Y166.597 E.03748
G1 X129.91 Y166.261 E.01503
G1 X129.742 Y165.863 E.01643
G1 X129.629 Y165.293 E.0221
G1 X129.629 Y149.708 E.59233
G1 X129.743 Y149.135 E.02218
G1 X129.94 Y148.683 E.01874
G1 X130.196 Y148.308 E.01728
G1 X130.942 Y147.589 E.03937
G1 X131.264 Y147.397 E.01424
G1 X131.9 Y147.153 E.02589
G1 X131.88 Y146.819 E.01273
G1 X131.64 Y146.759 E.00942
G1 X131.218 Y146.579 E.01741
G1 X130.842 Y146.332 E.0171
G1 X130.119 Y145.597 E.0392
G1 X129.91 Y145.261 E.01501
G1 X129.742 Y144.863 E.01643
G1 X129.629 Y144.293 E.0221
G1 X129.629 Y128.707 E.59237
G1 X129.73 Y128.178 E.02044
G1 X129.832 Y127.937 E.00998
G1 X130.249 Y128.114 F9000
G1 F1200
G1 X130.332 Y127.918 E.00811
G1 X130.534 Y127.617 E.01374
G1 X131.202 Y126.966 E.03547
G1 X131.458 Y126.811 E.01138
G1 X131.791 Y126.673 E.01367
G1 X132.23 Y126.586 E.01703
G1 X177.819 Y126.59 E1.73268
G1 X178.175 Y126.663 E.01378
G1 X178.572 Y126.827 E.01633
G1 X178.836 Y126.995 E.0119
G1 X179.436 Y127.581 E.03187
G1 X179.688 Y127.956 E.01716
G1 X179.839 Y128.331 E.01539
G1 X179.914 Y128.729 E.01537
G1 X179.91 Y144.314 E.59233
G1 X179.827 Y144.708 E.01533
G1 X179.688 Y145.043 E.01378
G1 X179.436 Y145.419 E.01718
G1 X178.799 Y146.034 E.03368
G1 X178.542 Y146.189 E.0114
G1 X178.209 Y146.327 E.01367
G1 X177.77 Y146.414 E.01702
G1 X132.23 Y146.414 E1.73082
G1 X131.792 Y146.327 E.01698
G1 X131.418 Y146.168 E.01545
G1 X131.117 Y145.966 E.01374
G1 X130.466 Y145.298 E.03547
G1 X130.311 Y145.042 E.01138
G1 X130.173 Y144.709 E.01367
G1 X130.086 Y144.27 E.01702
G1 X130.086 Y128.73 E.59063
G1 X130.173 Y128.292 E.01698
G1 X130.202 Y128.224 E.00278
G1 X130.623 Y128.399 F9000
G1 F1200
G1 X130.725 Y128.152 E.01015
G1 X130.9 Y127.891 E.01194
G1 X131.464 Y127.341 E.02993
G1 X131.651 Y127.226 E.00834
G1 X131.945 Y127.104 E.01209
G1 X132.252 Y127.043 E.01192
G1 X177.793 Y127.048 E1.73084
G1 X178.056 Y127.105 E.01022
G1 X178.349 Y127.226 E.01206
G1 X178.536 Y127.341 E.00834
G1 X179.1 Y127.891 E.02993
G1 X179.275 Y128.152 E.01194
G1 X179.396 Y128.445 E.01203
G1 X179.457 Y128.752 E.01192
G1 X179.457 Y144.248 E.58892
G1 X179.396 Y144.555 E.01192
G1 X179.275 Y144.848 E.01203
G1 X179.1 Y145.109 E.01194
G1 X178.536 Y145.659 E.02993
G1 X178.349 Y145.774 E.00834
G1 X178.055 Y145.896 E.01209
G1 X177.748 Y145.957 E.01192
G1 X132.252 Y145.957 E1.72911
G1 X131.945 Y145.896 E.01192
G1 X131.652 Y145.775 E.01203
G1 X131.391 Y145.6 E.01194
G1 X130.841 Y145.036 E.02993
G1 X130.726 Y144.849 E.00834
G1 X130.604 Y144.555 E.01209
G1 X130.543 Y144.248 E.01192
G1 X130.543 Y128.752 E.58892
G1 X130.591 Y128.514 E.00924
G1 X131.035 Y128.602 F9000
G1 F1200
G1 X131.139 Y128.348 E.01046
G1 X131.238 Y128.199 E.00679
G1 X131.731 Y127.713 E.02631
G1 X131.845 Y127.64 E.00514
G1 X132.099 Y127.535 E.01044
G1 X132.275 Y127.5 E.00681
G1 X177.767 Y127.505 E1.72899
G1 X177.898 Y127.534 E.00512
G1 X178.155 Y127.64 E.01054
G1 X178.269 Y127.713 E.00514
G1 X178.762 Y128.199 E.02631
G1 X178.861 Y128.348 E.00679
G1 X178.965 Y128.599 E.01033
G1 X179 Y128.775 E.00682
G1 X179 Y144.225 E.58721
G1 X178.965 Y144.401 E.00682
G1 X178.861 Y144.652 E.01033
G1 X178.762 Y144.801 E.00679
G1 X178.269 Y145.287 E.02631
G1 X178.155 Y145.36 E.00514
G1 X177.901 Y145.465 E.01044
G1 X177.725 Y145.5 E.00682
G1 X132.275 Y145.5 E1.7274
G1 X132.099 Y145.465 E.00682
G1 X131.848 Y145.361 E.01033
G1 X131.699 Y145.262 E.00679
G1 X131.213 Y144.769 E.02631
G1 X131.14 Y144.655 E.00514
G1 X131.035 Y144.401 E.01044
G1 X131 Y144.225 E.00681
G1 X131.011 Y128.72 E.5893
G1 X131.457 Y128.797 F9000
G1 F1200
G1 X131.578 Y128.506 E.01198
G1 X132.006 Y128.078 E.02301
G1 X132.297 Y127.957 E.01198
G1 X177.747 Y127.966 E1.72737
G1 X177.994 Y128.078 E.01031
G1 X178.422 Y128.506 E.02301
G1 X178.543 Y128.797 E.01198
G1 X178.534 Y144.247 E.58718
G1 X178.422 Y144.494 E.01031
G1 X177.994 Y144.922 E.02301
G1 X177.703 Y145.043 E.01198
G1 X132.253 Y145.034 E1.72737
G1 X132.006 Y144.922 E.01031
G1 X131.578 Y144.494 E.02301
G1 X131.457 Y144.203 E.01198
G1 X131.457 Y128.917 E.58095
G1 X131.914 Y128.917 F9000
G1 F1200
G1 X131.914 Y128.865 E.00198
G1 X131.949 Y128.781 E.00346
G1 X132.281 Y128.449 E.01785
G1 X132.365 Y128.414 E.00346
G1 X177.635 Y128.414 E1.72053
G1 X177.719 Y128.449 E.00346
G1 X178.051 Y128.781 E.01785
G1 X178.086 Y128.865 E.00346
G1 X178.086 Y144.135 E.58034
G1 X178.051 Y144.219 E.00346
G1 X177.719 Y144.551 E.01785
G1 X177.635 Y144.586 E.00346
G1 X132.365 Y144.586 E1.72053
G1 X132.281 Y144.551 E.00346
G1 X131.949 Y144.219 E.01785
G1 X131.914 Y144.135 E.00346
G1 X131.914 Y129.037 E.5738
G1 X132.371 Y129.037 F9000
G1 F1200
G1 X132.371 Y129.005 E.00121
G1 X132.505 Y128.871 E.0072
G1 X177.495 Y128.871 E1.70988
G1 X177.629 Y129.005 E.0072
G1 X177.629 Y143.995 E.56969
G1 X177.495 Y144.129 E.0072
G1 X132.505 Y144.129 E1.70988
G1 X132.371 Y143.995 E.0072
G1 X132.371 Y129.157 E.56392
G1 E-4.2 F3600
;WIPE_START
G1 F7200
G1 X132.371 Y129.005 E-.07215
G1 X132.505 Y128.871 E-.08993
G1 X135.764 Y128.871 E-1.54792
;WIPE_END
G1 E-.09 F3600
G1 X132.37 Y147.586 F9000
G1 E6 F2400
G1 F1200
G1 X177.819 Y147.59 E1.72737
G1 X178.175 Y147.663 E.01378
G1 X178.572 Y147.827 E.01633
G1 X178.836 Y147.995 E.0119
G1 X179.436 Y148.581 E.03187
G1 X179.688 Y148.956 E.01716
G1 X179.839 Y149.331 E.01539
G1 X179.914 Y149.729 E.01537
G1 X179.91 Y165.314 E.59233
G1 X179.827 Y165.708 E.01533
G1 X179.688 Y166.043 E.01378
G1 X179.436 Y166.419 E.01718
G1 X178.799 Y167.034 E.03368
G1 X178.542 Y167.189 E.0114
G1 X178.209 Y167.327 E.01367
G1 X177.77 Y167.414 E.01702
G1 X132.23 Y167.414 E1.73082
G1 X131.792 Y167.327 E.01698
G1 X131.418 Y167.168 E.01545
G1 X131.117 Y166.966 E.01374
G1 X130.466 Y166.298 E.03547
G1 X130.311 Y166.042 E.01138
G1 X130.173 Y165.709 E.01367
G1 X130.086 Y165.27 E.01702
G1 X130.086 Y149.73 E.59063
G1 X130.173 Y149.292 E.01698
G1 X130.332 Y148.918 E.01545
G1 X130.534 Y148.617 E.01374
G1 X131.202 Y147.966 E.03547
G1 X131.458 Y147.811 E.01138
G1 X131.791 Y147.673 E.01367
G1 X132.25 Y147.586 E.01776
G1 X132.252 Y148.043 F9000
G1 F1200
G1 X177.793 Y148.048 E1.73084
G1 X178.056 Y148.105 E.01022
G1 X178.349 Y148.226 E.01206
G1 X178.536 Y148.341 E.00834
G1 X179.1 Y148.891 E.02993
G1 X179.275 Y149.152 E.01194
G1 X179.396 Y149.445 E.01203
G1 X179.457 Y149.752 E.01192
G1 X179.457 Y165.248 E.58892
G1 X179.396 Y165.555 E.01192
G1 X179.275 Y165.848 E.01203
G1 X179.1 Y166.109 E.01194
G1 X178.536 Y166.659 E.02993
G1 X178.349 Y166.774 E.00834
G1 X178.055 Y166.896 E.01209
G1 X177.748 Y166.957 E.01192
G1 X132.252 Y166.957 E1.72911
G1 X131.945 Y166.896 E.01192
G1 X131.652 Y166.775 E.01203
G1 X131.391 Y166.6 E.01194
G1 X130.841 Y166.036 E.02993
G1 X130.726 Y165.849 E.00834
G1 X130.604 Y165.555 E.01209
G1 X130.543 Y165.248 E.01192
G1 X130.543 Y149.752 E.58892
G1 X130.604 Y149.445 E.01192
G1 X130.725 Y149.152 E.01203
G1 X130.9 Y148.891 E.01194
G1 X131.464 Y148.341 E.02993
G1 X131.651 Y148.226 E.00834
G1 X131.945 Y148.104 E.01209
G1 X132.135 Y148.067 E.00736
G1 X132.223 Y148.511 F9000
G1 F1200
G1 X177.767 Y148.505 E1.73096
G1 X177.898 Y148.534 E.00512
G1 X178.155 Y148.64 E.01054
G1 X178.269 Y148.713 E.00514
G1 X178.762 Y149.199 E.02631
G1 X178.861 Y149.348 E.00679
G1 X178.965 Y149.599 E.01033
G1 X179 Y149.775 E.00682
