; generated by PrusaSlicer 2.4.1+linux-x64-GTK2 on 2022-03-24 at 01:12:51 UTC

; 

; external perimeters extrusion width = 0.45mm
; perimeters extrusion width = 0.45mm
; infill extrusion width = 0.45mm
; solid infill extrusion width = 0.45mm
; top infill extrusion width = 0.40mm
; first layer extrusion width = 0.42mm

M107
;TYPE:Custom
G90 ; use absolute coordinates
M83 ; extruder relative mode
M140 S60 ; set final bed temp
M104 S150 ; set temporary nozzle temp to prevent oozing during homing
G4 S10 ; allow partial nozzle warmup
G28 ; home all axis
G1 Z50 F240
G1 X2 Y10 F3000
M104 S210 ; set final nozzle temp
M190 S60 ; wait for bed temp to stabilize
M109 S210 ; wait for nozzle temp to stabilize
G1 Z0.28 F240
G92 E0
G1 Y140 E10 F1500 ; prime the nozzle
G1 X2.3 F5000
G92 E0
G1 Y10 E10 F1200 ; prime the nozzle
G92 E0
G21 ; set units to millimeters
G90 ; use absolute coordinates
M83 ; use relative distances for extrusion
; Filament gcode
M107
;LAYER_CHANGE
;Z:0.2
;HEIGHT:0.2
;BEFORE_LAYER_CHANGE
G92 E0
;0.2


G1 E-6 F3600
G1 Z.2 F9000
;AFTER_LAYER_CHANGE
;0.2
G1 X58.107 Y71.512
G1 E6 F2400
M204 S500
;TYPE:Skirt/Brim
;WIDTH:0.42
G1 F1200
G1 X60 Y70.932 E.06207
G1 X250 Y70.932 E5.95732
G1 X251.583 Y71.326 E.05115
G1 X252.797 Y72.416 E.05115
G1 X253.377 Y74.309 E.06207
G1 X253.377 Y102.309 E.87792
G1 X252.983 Y103.892 E.05115
G1 X251.893 Y105.106 E.05115
G1 X250 Y105.686 E.06207
G1 X60 Y105.686 E5.95732
G1 X58.417 Y105.292 E.05115
G1 X57.203 Y104.202 E.05115
G1 X56.623 Y102.309 E.06207
G1 X56.623 Y74.309 E.87792
G1 X57.017 Y72.726 E.05115
G1 X58.067 Y71.557 E.04927
G1 E-4.2 F3600
;WIPE_START
G1 F7200
G1 X60 Y70.932 E-.96489
G1 X61.569 Y70.932 E-.74511
;WIPE_END
G1 E-.09 F3600
G1 X60.687 Y74.996 F9000
G1 E6 F2400
;TYPE:Perimeter
G1 F1200
G1 X249.313 Y74.996 E5.91423
G1 X249.313 Y101.622 E.83483
G1 X60.687 Y101.622 E5.91423
G1 X60.687 Y75.056 E.83295
G1 X60.31 Y74.619 F9000
;TYPE:External perimeter
G1 F1200
G1 X249.69 Y74.619 E5.93788
G1 X249.69 Y101.999 E.85848
G1 X60.31 Y101.999 E5.93788
G1 X60.31 Y74.679 E.8566
G1 X60.71 Y74.638 F9000
G1 E-4.2 F3600
;WIPE_START
G1 F7200
G1 X63.91 Y74.678 E-1.71
;WIPE_END
G1 E-.09 F3600
G1 X249.2 Y75.874 F9000
G1 E6 F2400
;TYPE:Solid infill
;WIDTH:0.420878
G1 F1200
G1 X248.605 Y75.279 E.02642
G1 X248.071 Y75.279 E.0168
G1 X249.03 Y76.238 E.04264
G1 X249.03 Y76.773 E.0168
G1 X247.536 Y75.279 E.06639
G1 X247.002 Y75.279 E.0168
G1 X249.03 Y77.307 E.09015
G1 X249.03 Y77.842 E.0168
G1 X246.467 Y75.279 E.1139
G1 X245.933 Y75.279 E.0168
G1 X249.03 Y78.376 E.13766
G1 X249.03 Y78.911 E.0168
G1 X245.398 Y75.279 E.16142
G1 X244.864 Y75.279 E.0168
G1 X249.03 Y79.445 E.18517
G1 X249.03 Y79.98 E.0168
G1 X244.329 Y75.279 E.20893
G1 X243.795 Y75.279 E.0168
G1 X249.03 Y80.514 E.23269
G1 X249.03 Y81.049 E.0168
G1 X243.26 Y75.279 E.25644
G1 X242.726 Y75.279 E.0168
G1 X249.03 Y81.584 E.2802
G1 X249.03 Y82.118 E.0168
G1 X242.191 Y75.279 E.30396
G1 X241.657 Y75.279 E.0168
G1 X249.03 Y82.653 E.32771
G1 X249.03 Y83.187 E.0168
G1 X241.122 Y75.279 E.35147
G1 X240.588 Y75.279 E.0168
G1 X249.03 Y83.722 E.37522
G1 X249.03 Y84.256 E.0168
G1 X240.053 Y75.279 E.39898
G1 X239.519 Y75.279 E.0168
G1 X249.03 Y84.791 E.42274
G1 X249.03 Y85.325 E.0168
G1 X238.984 Y75.279 E.44649
G1 X238.45 Y75.279 E.0168
G1 X249.03 Y85.86 E.47025
G1 X249.03 Y86.394 E.0168
G1 X237.915 Y75.279 E.49401
G1 X237.381 Y75.279 E.0168
G1 X249.03 Y86.929 E.51776
G1 X249.03 Y87.463 E.0168
G1 X236.846 Y75.279 E.54152
G1 X236.312 Y75.279 E.0168
G1 X249.03 Y87.998 E.56528
G1 X249.03 Y88.532 E.0168
G1 X235.777 Y75.279 E.58903
G1 X235.243 Y75.279 E.0168
G1 X249.03 Y89.067 E.61279
G1 X249.03 Y89.601 E.0168
G1 X234.708 Y75.279 E.63655
G1 X234.174 Y75.279 E.0168
G1 X249.03 Y90.136 E.6603
G1 X249.03 Y90.67 E.0168
G1 X233.639 Y75.279 E.68406
G1 X233.104 Y75.279 E.0168
G1 X249.03 Y91.205 E.70781
G1 X249.03 Y91.739 E.0168
G1 X232.57 Y75.279 E.73157
G1 X232.035 Y75.279 E.0168
G1 X249.03 Y92.274 E.75533
G1 X249.03 Y92.808 E.0168
G1 X231.501 Y75.279 E.77908
G1 X230.966 Y75.279 E.0168
G1 X249.03 Y93.343 E.80284
G1 X249.03 Y93.877 E.0168
G1 X230.432 Y75.279 E.8266
G1 X229.897 Y75.279 E.0168
G1 X249.03 Y94.412 E.85035
G1 X249.03 Y94.946 E.0168
G1 X229.363 Y75.279 E.87411
G1 X228.828 Y75.279 E.0168
G1 X249.03 Y95.481 E.89787
G1 X249.03 Y96.015 E.0168
G1 X228.294 Y75.279 E.92162
G1 X227.759 Y75.279 E.0168
G1 X249.03 Y96.55 E.94538
G1 X249.03 Y97.084 E.0168
G1 X227.225 Y75.279 E.96914
G1 X226.69 Y75.279 E.0168
G1 X249.03 Y97.619 E.99289
G1 X249.03 Y98.153 E.0168
G1 X226.156 Y75.279 E1.01665
G1 X225.621 Y75.279 E.0168
G1 X249.03 Y98.688 E1.0404
G1 X249.03 Y99.222 E.0168
G1 X225.087 Y75.279 E1.06416
G1 X224.552 Y75.279 E.0168
G1 X249.03 Y99.757 E1.08792
G1 X249.03 Y100.291 E.0168
G1 X224.018 Y75.279 E1.11167
G1 X223.483 Y75.279 E.0168
G1 X249.03 Y100.826 E1.13543
G1 X249.03 Y101.339 E.01613
G1 X249.009 Y101.339 E.00066
G1 X222.949 Y75.279 E1.15825
G1 X222.414 Y75.279 E.0168
G1 X248.474 Y101.339 E1.15825
G1 X247.94 Y101.339 E.0168
G1 X221.88 Y75.279 E1.15825
G1 X221.345 Y75.279 E.0168
G1 X247.405 Y101.339 E1.15825
G1 X246.871 Y101.339 E.0168
G1 X220.811 Y75.279 E1.15825
G1 X220.276 Y75.279 E.0168
G1 X246.336 Y101.339 E1.15825
G1 X245.802 Y101.339 E.0168
G1 X219.742 Y75.279 E1.15825
G1 X219.207 Y75.279 E.0168
G1 X245.267 Y101.339 E1.15825
G1 X244.733 Y101.339 E.0168
G1 X218.673 Y75.279 E1.15825
G1 X218.138 Y75.279 E.0168
G1 X244.198 Y101.339 E1.15825
G1 X243.664 Y101.339 E.0168
G1 X217.604 Y75.279 E1.15825
G1 X217.069 Y75.279 E.0168
G1 X243.129 Y101.339 E1.15825
G1 X242.595 Y101.339 E.0168
G1 X216.535 Y75.279 E1.15825
G1 X216 Y75.279 E.0168
G1 X242.06 Y101.339 E1.15825
G1 X241.526 Y101.339 E.0168
G1 X215.466 Y75.279 E1.15825
G1 X214.931 Y75.279 E.0168
G1 X240.991 Y101.339 E1.15825
G1 X240.457 Y101.339 E.0168
G1 X214.397 Y75.279 E1.15825
G1 X213.862 Y75.279 E.0168
G1 X239.922 Y101.339 E1.15825
G1 X239.388 Y101.339 E.0168
G1 X213.327 Y75.279 E1.15825
G1 X212.793 Y75.279 E.0168
G1 X238.853 Y101.339 E1.15825
G1 X238.319 Y101.339 E.0168
G1 X212.258 Y75.279 E1.15825
G1 X211.724 Y75.279 E.0168
G1 X237.784 Y101.339 E1.15825
G1 X237.25 Y101.339 E.0168
G1 X211.189 Y75.279 E1.15825
G1 X210.655 Y75.279 E.0168
G1 X236.715 Y101.339 E1.15825
G1 X236.181 Y101.339 E.0168
G1 X210.12 Y75.279 E1.15825
G1 X209.586 Y75.279 E.0168
G1 X235.646 Y101.339 E1.15825
G1 X235.112 Y101.339 E.0168
G1 X209.051 Y75.279 E1.15825
G1 X208.517 Y75.279 E.0168
G1 X234.577 Y101.339 E1.15825
G1 X234.043 Y101.339 E.0168
G1 X207.982 Y75.279 E1.15825
G1 X207.448 Y75.279 E.0168
G1 X233.508 Y101.339 E1.15825
G1 X232.974 Y101.339 E.0168
G1 X206.913 Y75.279 E1.15825
G1 X206.379 Y75.279 E.0168
G1 X232.439 Y101.339 E1.15825
G1 X231.905 Y101.339 E.0168
G1 X205.844 Y75.279 E1.15825
G1 X205.31 Y75.279 E.0168
G1 X231.37 Y101.339 E1.15825
G1 X230.836 Y101.339 E.0168
G1 X204.775 Y75.279 E1.15825
G1 X204.241 Y75.279 E.0168
G1 X230.301 Y101.339 E1.15825
G1 X229.766 Y101.339 E.0168
G1 X203.706 Y75.279 E1.15825
G1 X203.172 Y75.279 E.0168
G1 X229.232 Y101.339 E1.15825
G1 X228.697 Y101.339 E.0168
G1 X202.637 Y75.279 E1.15825
G1 X202.103 Y75.279 E.0168
G1 X228.163 Y101.339 E1.15825
G1 X227.628 Y101.339 E.0168
G1 X201.568 Y75.279 E1.15825
G1 X201.034 Y75.279 E.0168
G1 X227.094 Y101.339 E1.15825
G1 X226.559 Y101.339 E.0168
G1 X200.499 Y75.279 E1.15825
G1 X199.965 Y75.279 E.0168
G1 X226.025 Y101.339 E1.15825
G1 X225.49 Y101.339 E.0168
G1 X199.43 Y75.279 E1.15825
G1 X198.896 Y75.279 E.0168
G1 X224.956 Y101.339 E1.15825
G1 X224.421 Y101.339 E.0168
G1 X198.361 Y75.279 E1.15825
G1 X197.827 Y75.279 E.0168
G1 X223.887 Y101.339 E1.15825
G1 X223.352 Y101.339 E.0168
G1 X197.292 Y75.279 E1.15825
G1 X196.758 Y75.279 E.0168
G1 X222.818 Y101.339 E1.15825
G1 X222.283 Y101.339 E.0168
G1 X196.223 Y75.279 E1.15825
G1 X195.689 Y75.279 E.0168
G1 X221.749 Y101.339 E1.15825
G1 X221.214 Y101.339 E.0168
G1 X195.154 Y75.279 E1.15825
G1 X194.62 Y75.279 E.0168
G1 X220.68 Y101.339 E1.15825
G1 X220.145 Y101.339 E.0168
G1 X194.085 Y75.279 E1.15825
G1 X193.55 Y75.279 E.0168
G1 X219.611 Y101.339 E1.15825
G1 X219.076 Y101.339 E.0168
G1 X193.016 Y75.279 E1.15825
G1 X192.481 Y75.279 E.0168
G1 X218.542 Y101.339 E1.15825
G1 X218.007 Y101.339 E.0168
G1 X191.947 Y75.279 E1.15825
G1 X191.412 Y75.279 E.0168
G1 X217.473 Y101.339 E1.15825
G1 X216.938 Y101.339 E.0168
G1 X190.878 Y75.279 E1.15825
G1 X190.343 Y75.279 E.0168
G1 X216.404 Y101.339 E1.15825
G1 X215.869 Y101.339 E.0168
G1 X189.809 Y75.279 E1.15825
G1 X189.274 Y75.279 E.0168
G1 X215.335 Y101.339 E1.15825
G1 X214.8 Y101.339 E.0168
G1 X188.74 Y75.279 E1.15825
G1 X188.205 Y75.279 E.0168
G1 X214.266 Y101.339 E1.15825
G1 X213.731 Y101.339 E.0168
G1 X187.671 Y75.279 E1.15825
G1 X187.136 Y75.279 E.0168
G1 X213.197 Y101.339 E1.15825
G1 X212.662 Y101.339 E.0168
G1 X186.602 Y75.279 E1.15825
G1 X186.067 Y75.279 E.0168
G1 X212.128 Y101.339 E1.15825
G1 X211.593 Y101.339 E.0168
G1 X185.533 Y75.279 E1.15825
G1 X184.998 Y75.279 E.0168
G1 X211.059 Y101.339 E1.15825
G1 X210.524 Y101.339 E.0168
G1 X184.464 Y75.279 E1.15825
G1 X183.929 Y75.279 E.0168
G1 X209.989 Y101.339 E1.15825
G1 X209.455 Y101.339 E.0168
G1 X183.395 Y75.279 E1.15825
G1 X182.86 Y75.279 E.0168
G1 X208.92 Y101.339 E1.15825
G1 X208.386 Y101.339 E.0168
G1 X182.326 Y75.279 E1.15825
G1 X181.791 Y75.279 E.0168
G1 X207.851 Y101.339 E1.15825
G1 X207.317 Y101.339 E.0168
G1 X181.257 Y75.279 E1.15825
G1 X180.722 Y75.279 E.0168
G1 X206.782 Y101.339 E1.15825
G1 X206.248 Y101.339 E.0168
G1 X180.188 Y75.279 E1.15825
G1 X179.653 Y75.279 E.0168
G1 X205.713 Y101.339 E1.15825
G1 X205.179 Y101.339 E.0168
G1 X179.119 Y75.279 E1.15825
G1 X178.584 Y75.279 E.0168
G1 X204.644 Y101.339 E1.15825
G1 X204.11 Y101.339 E.0168
G1 X178.05 Y75.279 E1.15825
G1 X177.515 Y75.279 E.0168
G1 X203.575 Y101.339 E1.15825
G1 X203.041 Y101.339 E.0168
G1 X176.981 Y75.279 E1.15825
G1 X176.446 Y75.279 E.0168
G1 X202.506 Y101.339 E1.15825
G1 X201.972 Y101.339 E.0168
G1 X175.912 Y75.279 E1.15825
G1 X175.377 Y75.279 E.0168
G1 X201.437 Y101.339 E1.15825
G1 X200.903 Y101.339 E.0168
G1 X174.843 Y75.279 E1.15825
G1 X174.308 Y75.279 E.0168
G1 X200.368 Y101.339 E1.15825
G1 X199.834 Y101.339 E.0168
G1 X173.773 Y75.279 E1.15825
G1 X173.239 Y75.279 E.0168
G1 X199.299 Y101.339 E1.15825
G1 X198.765 Y101.339 E.0168
G1 X172.704 Y75.279 E1.15825
G1 X172.17 Y75.279 E.0168
G1 X198.23 Y101.339 E1.15825
G1 X197.696 Y101.339 E.0168
G1 X171.635 Y75.279 E1.15825
G1 X171.101 Y75.279 E.0168
G1 X197.161 Y101.339 E1.15825
G1 X196.627 Y101.339 E.0168
G1 X170.566 Y75.279 E1.15825
G1 X170.032 Y75.279 E.0168
G1 X196.092 Y101.339 E1.15825
G1 X195.558 Y101.339 E.0168
G1 X169.497 Y75.279 E1.15825
G1 X168.963 Y75.279 E.0168
G1 X195.023 Y101.339 E1.15825
G1 X194.489 Y101.339 E.0168
G1 X168.428 Y75.279 E1.15825
G1 X167.894 Y75.279 E.0168
G1 X193.954 Y101.339 E1.15825
G1 X193.42 Y101.339 E.0168
G1 X167.359 Y75.279 E1.15825
G1 X166.825 Y75.279 E.0168
G1 X192.885 Y101.339 E1.15825
G1 X192.351 Y101.339 E.0168
G1 X166.29 Y75.279 E1.15825
G1 X165.756 Y75.279 E.0168
G1 X191.816 Y101.339 E1.15825
G1 X191.282 Y101.339 E.0168
G1 X165.221 Y75.279 E1.15825
G1 X164.687 Y75.279 E.0168
G1 X190.747 Y101.339 E1.15825
G1 X190.213 Y101.339 E.0168
G1 X164.152 Y75.279 E1.15825
G1 X163.618 Y75.279 E.0168
G1 X189.678 Y101.339 E1.15825
G1 X189.143 Y101.339 E.0168
G1 X163.083 Y75.279 E1.15825
G1 X162.549 Y75.279 E.0168
G1 X188.609 Y101.339 E1.15825
G1 X188.074 Y101.339 E.0168
G1 X162.014 Y75.279 E1.15825
G1 X161.48 Y75.279 E.0168
G1 X187.54 Y101.339 E1.15825
G1 X187.005 Y101.339 E.0168
G1 X160.945 Y75.279 E1.15825
G1 X160.411 Y75.279 E.0168
G1 X186.471 Y101.339 E1.15825
G1 X185.936 Y101.339 E.0168
G1 X159.876 Y75.279 E1.15825
G1 X159.342 Y75.279 E.0168
G1 X185.402 Y101.339 E1.15825
G1 X184.867 Y101.339 E.0168
G1 X158.807 Y75.279 E1.15825
G1 X158.273 Y75.279 E.0168
G1 X184.333 Y101.339 E1.15825
G1 X183.798 Y101.339 E.0168
G1 X157.738 Y75.279 E1.15825
G1 X157.204 Y75.279 E.0168
G1 X183.264 Y101.339 E1.15825
G1 X182.729 Y101.339 E.0168
G1 X156.669 Y75.279 E1.15825
G1 X156.135 Y75.279 E.0168
G1 X182.195 Y101.339 E1.15825
G1 X181.66 Y101.339 E.0168
G1 X155.6 Y75.279 E1.15825
G1 X155.066 Y75.279 E.0168
G1 X181.126 Y101.339 E1.15825
G1 X180.591 Y101.339 E.0168
G1 X154.531 Y75.279 E1.15825
G1 X153.997 Y75.279 E.0168
G1 X180.057 Y101.339 E1.15825
G1 X179.522 Y101.339 E.0168
G1 X153.462 Y75.279 E1.15825
G1 X152.927 Y75.279 E.0168
G1 X178.988 Y101.339 E1.15825
G1 X178.453 Y101.339 E.0168
G1 X152.393 Y75.279 E1.15825
G1 X151.858 Y75.279 E.0168
G1 X177.919 Y101.339 E1.15825
G1 X177.384 Y101.339 E.0168
G1 X151.324 Y75.279 E1.15825
G1 X150.789 Y75.279 E.0168
G1 X176.85 Y101.339 E1.15825
G1 X176.315 Y101.339 E.0168
G1 X150.255 Y75.279 E1.15825
G1 X149.72 Y75.279 E.0168
G1 X175.781 Y101.339 E1.15825
G1 X175.246 Y101.339 E.0168
G1 X149.186 Y75.279 E1.15825
G1 X148.651 Y75.279 E.0168
G1 X174.712 Y101.339 E1.15825
G1 X174.177 Y101.339 E.0168
G1 X148.117 Y75.279 E1.15825
G1 X147.582 Y75.279 E.0168
G1 X173.643 Y101.339 E1.15825
G1 X173.108 Y101.339 E.0168
G1 X147.048 Y75.279 E1.15825
G1 X146.513 Y75.279 E.0168
G1 X172.574 Y101.339 E1.15825
G1 X172.039 Y101.339 E.0168
G1 X145.979 Y75.279 E1.15825
G1 X145.444 Y75.279 E.0168
G1 X171.505 Y101.339 E1.15825
G1 X170.97 Y101.339 E.0168
G1 X144.91 Y75.279 E1.15825
G1 X144.375 Y75.279 E.0168
G1 X170.436 Y101.339 E1.15825
G1 X169.901 Y101.339 E.0168
G1 X143.841 Y75.279 E1.15825
G1 X143.306 Y75.279 E.0168
G1 X169.366 Y101.339 E1.15825
G1 X168.832 Y101.339 E.0168
G1 X142.772 Y75.279 E1.15825
G1 X142.237 Y75.279 E.0168
G1 X168.297 Y101.339 E1.15825
G1 X167.763 Y101.339 E.0168
G1 X141.703 Y75.279 E1.15825
G1 X141.168 Y75.279 E.0168
G1 X167.228 Y101.339 E1.15825
G1 X166.694 Y101.339 E.0168
G1 X140.634 Y75.279 E1.15825
G1 X140.099 Y75.279 E.0168
G1 X166.159 Y101.339 E1.15825
G1 X165.625 Y101.339 E.0168
G1 X139.565 Y75.279 E1.15825
G1 X139.03 Y75.279 E.0168
G1 X165.09 Y101.339 E1.15825
G1 X164.556 Y101.339 E.0168
G1 X138.496 Y75.279 E1.15825
G1 X137.961 Y75.279 E.0168
G1 X164.021 Y101.339 E1.15825
G1 X163.487 Y101.339 E.0168
G1 X137.427 Y75.279 E1.15825
G1 X136.892 Y75.279 E.0168
G1 X162.952 Y101.339 E1.15825
G1 X162.418 Y101.339 E.0168
G1 X136.358 Y75.279 E1.15825
G1 X135.823 Y75.279 E.0168
G1 X161.883 Y101.339 E1.15825
G1 X161.349 Y101.339 E.0168
G1 X135.289 Y75.279 E1.15825
G1 X134.754 Y75.279 E.0168
G1 X160.814 Y101.339 E1.15825
G1 X160.28 Y101.339 E.0168
G1 X134.22 Y75.279 E1.15825
G1 X133.685 Y75.279 E.0168
G1 X159.745 Y101.339 E1.15825
G1 X159.211 Y101.339 E.0168
G1 X133.15 Y75.279 E1.15825
G1 X132.616 Y75.279 E.0168
G1 X158.676 Y101.339 E1.15825
G1 X158.142 Y101.339 E.0168
G1 X132.081 Y75.279 E1.15825
G1 X131.547 Y75.279 E.0168
G1 X157.607 Y101.339 E1.15825
G1 X157.073 Y101.339 E.0168
G1 X131.012 Y75.279 E1.15825
G1 X130.478 Y75.279 E.0168
G1 X156.538 Y101.339 E1.15825
G1 X156.004 Y101.339 E.0168
G1 X129.943 Y75.279 E1.15825
G1 X129.409 Y75.279 E.0168
G1 X155.469 Y101.339 E1.15825
G1 X154.935 Y101.339 E.0168
G1 X128.874 Y75.279 E1.15825
G1 X128.34 Y75.279 E.0168
G1 X154.4 Y101.339 E1.15825
G1 X153.866 Y101.339 E.0168
G1 X127.805 Y75.279 E1.15825
G1 X127.271 Y75.279 E.0168
G1 X153.331 Y101.339 E1.15825
G1 X152.797 Y101.339 E.0168
G1 X126.736 Y75.279 E1.15825
G1 X126.202 Y75.279 E.0168
G1 X152.262 Y101.339 E1.15825
G1 X151.728 Y101.339 E.0168
G1 X125.667 Y75.279 E1.15825
G1 X125.133 Y75.279 E.0168
G1 X151.193 Y101.339 E1.15825
G1 X150.659 Y101.339 E.0168
G1 X124.598 Y75.279 E1.15825
G1 X124.064 Y75.279 E.0168
G1 X150.124 Y101.339 E1.15825
G1 X149.589 Y101.339 E.0168
G1 X123.529 Y75.279 E1.15825
G1 X122.995 Y75.279 E.0168
G1 X149.055 Y101.339 E1.15825
G1 X148.52 Y101.339 E.0168
G1 X122.46 Y75.279 E1.15825
G1 X121.926 Y75.279 E.0168
G1 X147.986 Y101.339 E1.15825
G1 X147.451 Y101.339 E.0168
G1 X121.391 Y75.279 E1.15825
G1 X120.857 Y75.279 E.0168
G1 X146.917 Y101.339 E1.15825
G1 X146.382 Y101.339 E.0168
G1 X120.322 Y75.279 E1.15825
G1 X119.788 Y75.279 E.0168
G1 X145.848 Y101.339 E1.15825
G1 X145.313 Y101.339 E.0168
G1 X119.253 Y75.279 E1.15825
G1 X118.719 Y75.279 E.0168
G1 X144.779 Y101.339 E1.15825
G1 X144.244 Y101.339 E.0168
