; generated by PrusaSlicer 2.4.1+linux-x64-GTK2 on 2022-03-23 at 23:17:39 UTC

; 

; external perimeters extrusion width = 0.45mm
; perimeters extrusion width = 0.45mm
; infill extrusion width = 0.45mm
; solid infill extrusion width = 0.45mm
; top infill extrusion width = 0.40mm
; first layer extrusion width = 0.42mm

M107
;TYPE:Custom
G90 ; use absolute coordinates
M83 ; extruder relative mode
M140 S60 ; set final bed temp
M104 S150 ; set temporary nozzle temp to prevent oozing during homing
G4 S10 ; allow partial nozzle warmup
G28 ; home all axis
G1 Z50 F240
G1 X2 Y10 F3000
M104 S210 ; set final nozzle temp
M190 S60 ; wait for bed temp to stabilize
M109 S210 ; wait for nozzle temp to stabilize
G1 Z0.28 F240
G92 E0
G1 Y140 E10 F1500 ; prime the nozzle
G1 X2.3 F5000
G92 E0
G1 Y10 E10 F1200 ; prime the nozzle
G92 E0
G21 ; set units to millimeters
G90 ; use absolute coordinates
M83 ; use relative distances for extrusion
; Filament gcode
M107
;LAYER_CHANGE
;Z:0.2
;HEIGHT:0.2
;BEFORE_LAYER_CHANGE
G92 E0
;0.2


G1 E-6 F3600
G1 Z.2 F9000
;AFTER_LAYER_CHANGE
;0.2
G1 X58.107 Y138.203
G1 E6 F2400
M204 S500
;TYPE:Skirt/Brim
;WIDTH:0.42
G1 F1200
G1 X60 Y137.623 E.06207
G1 X250 Y137.623 E5.95732
G1 X251.583 Y138.017 E.05115
G1 X252.797 Y139.107 E.05115
G1 X253.377 Y141 E.06207
G1 X253.377 Y169 E.87792
G1 X252.983 Y170.583 E.05115
G1 X251.893 Y171.797 E.05115
G1 X250 Y172.377 E.06207
G1 X60 Y172.377 E5.95732
G1 X58.417 Y171.983 E.05115
G1 X57.203 Y170.893 E.05115
G1 X56.623 Y169 E.06207
G1 X56.623 Y141 E.87792
G1 X57.017 Y139.417 E.05115
G1 X58.067 Y138.248 E.04927
G1 E-4.2 F3600
;WIPE_START
G1 F7200
G1 X60 Y137.623 E-.96489
G1 X61.569 Y137.623 E-.74511
;WIPE_END
G1 E-.09 F3600
G1 X60.687 Y141.687 F9000
G1 E6 F2400
;TYPE:Perimeter
G1 F1200
G1 X249.313 Y141.687 E5.91423
G1 X249.313 Y168.313 E.83483
G1 X60.687 Y168.313 E5.91423
G1 X60.687 Y141.747 E.83295
G1 X60.31 Y141.31 F9000
;TYPE:External perimeter
G1 F1200
G1 X249.69 Y141.31 E5.93788
G1 X249.69 Y168.69 E.85848
G1 X60.31 Y168.69 E5.93788
G1 X60.31 Y141.37 E.8566
G1 X60.71 Y141.329 F9000
G1 E-4.2 F3600
;WIPE_START
G1 F7200
G1 X63.91 Y141.369 E-1.71
;WIPE_END
G1 E-.09 F3600
G1 X249.2 Y142.564 F9000
G1 E6 F2400
;TYPE:Solid infill
;WIDTH:0.420878
G1 F1200
G1 X248.605 Y141.97 E.02642
G1 X248.071 Y141.97 E.0168
G1 X249.03 Y142.929 E.04264
G1 X249.03 Y143.464 E.0168
G1 X247.536 Y141.97 E.06639
G1 X247.002 Y141.97 E.0168
G1 X249.03 Y143.998 E.09015
G1 X249.03 Y144.533 E.0168
G1 X246.467 Y141.97 E.1139
G1 X245.933 Y141.97 E.0168
G1 X249.03 Y145.067 E.13766
G1 X249.03 Y145.602 E.0168
G1 X245.398 Y141.97 E.16142
G1 X244.864 Y141.97 E.0168
G1 X249.03 Y146.136 E.18517
G1 X249.03 Y146.671 E.0168
G1 X244.329 Y141.97 E.20893
G1 X243.795 Y141.97 E.0168
G1 X249.03 Y147.205 E.23269
G1 X249.03 Y147.74 E.0168
G1 X243.26 Y141.97 E.25644
G1 X242.726 Y141.97 E.0168
G1 X249.03 Y148.274 E.2802
G1 X249.03 Y148.809 E.0168
G1 X242.191 Y141.97 E.30396
G1 X241.657 Y141.97 E.0168
G1 X249.03 Y149.343 E.32771
G1 X249.03 Y149.878 E.0168
G1 X241.122 Y141.97 E.35147
G1 X240.588 Y141.97 E.0168
G1 X249.03 Y150.412 E.37522
G1 X249.03 Y150.947 E.0168
G1 X240.053 Y141.97 E.39898
G1 X239.519 Y141.97 E.0168
G1 X249.03 Y151.481 E.42274
G1 X249.03 Y152.016 E.0168
G1 X238.984 Y141.97 E.44649
G1 X238.45 Y141.97 E.0168
G1 X249.03 Y152.55 E.47025
G1 X249.03 Y153.085 E.0168
G1 X237.915 Y141.97 E.49401
G1 X237.381 Y141.97 E.0168
G1 X249.03 Y153.619 E.51776
G1 X249.03 Y154.154 E.0168
G1 X236.846 Y141.97 E.54152
G1 X236.312 Y141.97 E.0168
G1 X249.03 Y154.688 E.56528
G1 X249.03 Y155.223 E.0168
G1 X235.777 Y141.97 E.58903
G1 X235.243 Y141.97 E.0168
G1 X249.03 Y155.757 E.61279
G1 X249.03 Y156.292 E.0168
G1 X234.708 Y141.97 E.63655
G1 X234.174 Y141.97 E.0168
G1 X249.03 Y156.826 E.6603
G1 X249.03 Y157.361 E.0168
G1 X233.639 Y141.97 E.68406
G1 X233.104 Y141.97 E.0168
G1 X249.03 Y157.896 E.70781
G1 X249.03 Y158.43 E.0168
G1 X232.57 Y141.97 E.73157
G1 X232.035 Y141.97 E.0168
G1 X249.03 Y158.965 E.75533
G1 X249.03 Y159.499 E.0168
G1 X231.501 Y141.97 E.77908
G1 X230.966 Y141.97 E.0168
G1 X249.03 Y160.034 E.80284
G1 X249.03 Y160.568 E.0168
G1 X230.432 Y141.97 E.8266
G1 X229.897 Y141.97 E.0168
G1 X249.03 Y161.103 E.85035
G1 X249.03 Y161.637 E.0168
G1 X229.363 Y141.97 E.87411
G1 X228.828 Y141.97 E.0168
G1 X249.03 Y162.172 E.89787
G1 X249.03 Y162.706 E.0168
G1 X228.294 Y141.97 E.92162
G1 X227.759 Y141.97 E.0168
G1 X249.03 Y163.241 E.94538
G1 X249.03 Y163.775 E.0168
G1 X227.225 Y141.97 E.96914
G1 X226.69 Y141.97 E.0168
G1 X249.03 Y164.31 E.99289
G1 X249.03 Y164.844 E.0168
G1 X226.156 Y141.97 E1.01665
G1 X225.621 Y141.97 E.0168
G1 X249.03 Y165.379 E1.0404
G1 X249.03 Y165.913 E.0168
G1 X225.087 Y141.97 E1.06416
G1 X224.552 Y141.97 E.0168
G1 X249.03 Y166.448 E1.08792
G1 X249.03 Y166.982 E.0168
G1 X224.018 Y141.97 E1.11167
G1 X223.483 Y141.97 E.0168
G1 X249.03 Y167.517 E1.13543
G1 X249.03 Y168.03 E.01613
G1 X249.009 Y168.03 E.00066
G1 X222.949 Y141.97 E1.15825
G1 X222.414 Y141.97 E.0168
G1 X248.474 Y168.03 E1.15825
G1 X247.94 Y168.03 E.0168
G1 X221.88 Y141.97 E1.15825
G1 X221.345 Y141.97 E.0168
G1 X247.405 Y168.03 E1.15825
G1 X246.871 Y168.03 E.0168
G1 X220.811 Y141.97 E1.15825
G1 X220.276 Y141.97 E.0168
G1 X246.336 Y168.03 E1.15825
G1 X245.802 Y168.03 E.0168
G1 X219.742 Y141.97 E1.15825
G1 X219.207 Y141.97 E.0168
G1 X245.267 Y168.03 E1.15825
G1 X244.733 Y168.03 E.0168
G1 X218.673 Y141.97 E1.15825
G1 X218.138 Y141.97 E.0168
G1 X244.198 Y168.03 E1.15825
G1 X243.664 Y168.03 E.0168
G1 X217.604 Y141.97 E1.15825
G1 X217.069 Y141.97 E.0168
G1 X243.129 Y168.03 E1.15825
G1 X242.595 Y168.03 E.0168
G1 X216.535 Y141.97 E1.15825
G1 X216 Y141.97 E.0168
G1 X242.06 Y168.03 E1.15825
G1 X241.526 Y168.03 E.0168
G1 X215.466 Y141.97 E1.15825
G1 X214.931 Y141.97 E.0168
G1 X240.991 Y168.03 E1.15825
G1 X240.457 Y168.03 E.0168
G1 X214.397 Y141.97 E1.15825
G1 X213.862 Y141.97 E.0168
G1 X239.922 Y168.03 E1.15825
G1 X239.388 Y168.03 E.0168
G1 X213.327 Y141.97 E1.15825
G1 X212.793 Y141.97 E.0168
G1 X238.853 Y168.03 E1.15825
G1 X238.319 Y168.03 E.0168
G1 X212.258 Y141.97 E1.15825
G1 X211.724 Y141.97 E.0168
G1 X237.784 Y168.03 E1.15825
G1 X237.25 Y168.03 E.0168
G1 X211.189 Y141.97 E1.15825
G1 X210.655 Y141.97 E.0168
G1 X236.715 Y168.03 E1.15825
G1 X236.181 Y168.03 E.0168
G1 X210.12 Y141.97 E1.15825
G1 X209.586 Y141.97 E.0168
G1 X235.646 Y168.03 E1.15825
G1 X235.112 Y168.03 E.0168
G1 X209.051 Y141.97 E1.15825
G1 X208.517 Y141.97 E.0168
G1 X234.577 Y168.03 E1.15825
G1 X234.043 Y168.03 E.0168
G1 X207.982 Y141.97 E1.15825
G1 X207.448 Y141.97 E.0168
G1 X233.508 Y168.03 E1.15825
G1 X232.974 Y168.03 E.0168
G1 X206.913 Y141.97 E1.15825
G1 X206.379 Y141.97 E.0168
G1 X232.439 Y168.03 E1.15825
G1 X231.905 Y168.03 E.0168
G1 X205.844 Y141.97 E1.15825
G1 X205.31 Y141.97 E.0168
G1 X231.37 Y168.03 E1.15825
G1 X230.836 Y168.03 E.0168
G1 X204.775 Y141.97 E1.15825
G1 X204.241 Y141.97 E.0168
G1 X230.301 Y168.03 E1.15825
G1 X229.766 Y168.03 E.0168
G1 X203.706 Y141.97 E1.15825
G1 X203.172 Y141.97 E.0168
G1 X229.232 Y168.03 E1.15825
G1 X228.697 Y168.03 E.0168
G1 X202.637 Y141.97 E1.15825
G1 X202.103 Y141.97 E.0168
G1 X228.163 Y168.03 E1.15825
G1 X227.628 Y168.03 E.0168
G1 X201.568 Y141.97 E1.15825
G1 X201.034 Y141.97 E.0168
G1 X227.094 Y168.03 E1.15825
G1 X226.559 Y168.03 E.0168
G1 X200.499 Y141.97 E1.15825
G1 X199.965 Y141.97 E.0168
G1 X226.025 Y168.03 E1.15825
G1 X225.49 Y168.03 E.0168
G1 X199.43 Y141.97 E1.15825
G1 X198.896 Y141.97 E.0168
G1 X224.956 Y168.03 E1.15825
G1 X224.421 Y168.03 E.0168
G1 X198.361 Y141.97 E1.15825
G1 X197.827 Y141.97 E.0168
G1 X223.887 Y168.03 E1.15825
G1 X223.352 Y168.03 E.0168
G1 X197.292 Y141.97 E1.15825
G1 X196.758 Y141.97 E.0168
G1 X222.818 Y168.03 E1.15825
G1 X222.283 Y168.03 E.0168
G1 X196.223 Y141.97 E1.15825
G1 X195.689 Y141.97 E.0168
G1 X221.749 Y168.03 E1.15825
G1 X221.214 Y168.03 E.0168
G1 X195.154 Y141.97 E1.15825
G1 X194.62 Y141.97 E.0168
G1 X220.68 Y168.03 E1.15825
G1 X220.145 Y168.03 E.0168
G1 X194.085 Y141.97 E1.15825
G1 X193.55 Y141.97 E.0168
G1 X219.611 Y168.03 E1.15825
G1 X219.076 Y168.03 E.0168
G1 X193.016 Y141.97 E1.15825
G1 X192.481 Y141.97 E.0168
G1 X218.542 Y168.03 E1.15825
G1 X218.007 Y168.03 E.0168
G1 X191.947 Y141.97 E1.15825
G1 X191.412 Y141.97 E.0168
G1 X217.473 Y168.03 E1.15825
G1 X216.938 Y168.03 E.0168
G1 X190.878 Y141.97 E1.15825
G1 X190.343 Y141.97 E.0168
G1 X216.404 Y168.03 E1.15825
G1 X215.869 Y168.03 E.0168
G1 X189.809 Y141.97 E1.15825
G1 X189.274 Y141.97 E.0168
G1 X215.335 Y168.03 E1.15825
G1 X214.8 Y168.03 E.0168
G1 X188.74 Y141.97 E1.15825
G1 X188.205 Y141.97 E.0168
G1 X214.266 Y168.03 E1.15825
G1 X213.731 Y168.03 E.0168
G1 X187.671 Y141.97 E1.15825
G1 X187.136 Y141.97 E.0168
G1 X213.197 Y168.03 E1.15825
G1 X212.662 Y168.03 E.0168
G1 X186.602 Y141.97 E1.15825
G1 X186.067 Y141.97 E.0168
G1 X212.128 Y168.03 E1.15825
G1 X211.593 Y168.03 E.0168
G1 X185.533 Y141.97 E1.15825
G1 X184.998 Y141.97 E.0168
G1 X211.059 Y168.03 E1.15825
G1 X210.524 Y168.03 E.0168
G1 X184.464 Y141.97 E1.15825
G1 X183.929 Y141.97 E.0168
G1 X209.989 Y168.03 E1.15825
G1 X209.455 Y168.03 E.0168
G1 X183.395 Y141.97 E1.15825
G1 X182.86 Y141.97 E.0168
G1 X208.92 Y168.03 E1.15825
G1 X208.386 Y168.03 E.0168
G1 X182.326 Y141.97 E1.15825
G1 X181.791 Y141.97 E.0168
G1 X207.851 Y168.03 E1.15825
G1 X207.317 Y168.03 E.0168
G1 X181.257 Y141.97 E1.15825
G1 X180.722 Y141.97 E.0168
G1 X206.782 Y168.03 E1.15825
G1 X206.248 Y168.03 E.0168
G1 X180.188 Y141.97 E1.15825
G1 X179.653 Y141.97 E.0168
G1 X205.713 Y168.03 E1.15825
G1 X205.179 Y168.03 E.0168
G1 X179.119 Y141.97 E1.15825
G1 X178.584 Y141.97 E.0168
G1 X204.644 Y168.03 E1.15825
G1 X204.11 Y168.03 E.0168
G1 X178.05 Y141.97 E1.15825
G1 X177.515 Y141.97 E.0168
G1 X203.575 Y168.03 E1.15825
G1 X203.041 Y168.03 E.0168
G1 X176.981 Y141.97 E1.15825
G1 X176.446 Y141.97 E.0168
G1 X202.506 Y168.03 E1.15825
G1 X201.972 Y168.03 E.0168
G1 X175.912 Y141.97 E1.15825
G1 X175.377 Y141.97 E.0168
G1 X201.437 Y168.03 E1.15825
G1 X200.903 Y168.03 E.0168
G1 X174.843 Y141.97 E1.15825
G1 X174.308 Y141.97 E.0168
G1 X200.368 Y168.03 E1.15825
G1 X199.834 Y168.03 E.0168
G1 X173.773 Y141.97 E1.15825
G1 X173.239 Y141.97 E.0168
G1 X199.299 Y168.03 E1.15825
G1 X198.765 Y168.03 E.0168
G1 X172.704 Y141.97 E1.15825
G1 X172.17 Y141.97 E.0168
G1 X198.23 Y168.03 E1.15825
G1 X197.696 Y168.03 E.0168
G1 X171.635 Y141.97 E1.15825
G1 X171.101 Y141.97 E.0168
G1 X197.161 Y168.03 E1.15825
G1 X196.627 Y168.03 E.0168
G1 X170.566 Y141.97 E1.15825
G1 X170.032 Y141.97 E.0168
G1 X196.092 Y168.03 E1.15825
G1 X195.558 Y168.03 E.0168
G1 X169.497 Y141.97 E1.15825
G1 X168.963 Y141.97 E.0168
G1 X195.023 Y168.03 E1.15825
G1 X194.489 Y168.03 E.0168
G1 X168.428 Y141.97 E1.15825
G1 X167.894 Y141.97 E.0168
G1 X193.954 Y168.03 E1.15825
G1 X193.42 Y168.03 E.0168
G1 X167.359 Y141.97 E1.15825
G1 X166.825 Y141.97 E.0168
G1 X192.885 Y168.03 E1.15825
G1 X192.351 Y168.03 E.0168
G1 X166.29 Y141.97 E1.15825
G1 X165.756 Y141.97 E.0168
G1 X191.816 Y168.03 E1.15825
G1 X191.282 Y168.03 E.0168
G1 X165.221 Y141.97 E1.15825
G1 X164.687 Y141.97 E.0168
G1 X190.747 Y168.03 E1.15825
G1 X190.213 Y168.03 E.0168
G1 X164.152 Y141.97 E1.15825
G1 X163.618 Y141.97 E.0168
G1 X189.678 Y168.03 E1.15825
G1 X189.143 Y168.03 E.0168
G1 X163.083 Y141.97 E1.15825
G1 X162.549 Y141.97 E.0168
G1 X188.609 Y168.03 E1.15825
G1 X188.074 Y168.03 E.0168
G1 X162.014 Y141.97 E1.15825
G1 X161.48 Y141.97 E.0168
G1 X187.54 Y168.03 E1.15825
G1 X187.005 Y168.03 E.0168
G1 X160.945 Y141.97 E1.15825
G1 X160.411 Y141.97 E.0168
G1 X186.471 Y168.03 E1.15825
G1 X185.936 Y168.03 E.0168
G1 X159.876 Y141.97 E1.15825
G1 X159.342 Y141.97 E.0168
G1 X185.402 Y168.03 E1.15825
G1 X184.867 Y168.03 E.0168
G1 X158.807 Y141.97 E1.15825
G1 X158.273 Y141.97 E.0168
G1 X184.333 Y168.03 E1.15825
G1 X183.798 Y168.03 E.0168
G1 X157.738 Y141.97 E1.15825
G1 X157.204 Y141.97 E.0168
G1 X183.264 Y168.03 E1.15825
G1 X182.729 Y168.03 E.0168
G1 X156.669 Y141.97 E1.15825
G1 X156.135 Y141.97 E.0168
G1 X182.195 Y168.03 E1.15825
G1 X181.66 Y168.03 E.0168
G1 X155.6 Y141.97 E1.15825
G1 X155.066 Y141.97 E.0168
G1 X181.126 Y168.03 E1.15825
G1 X180.591 Y168.03 E.0168
G1 X154.531 Y141.97 E1.15825
G1 X153.997 Y141.97 E.0168
G1 X180.057 Y168.03 E1.15825
G1 X179.522 Y168.03 E.0168
G1 X153.462 Y141.97 E1.15825
G1 X152.927 Y141.97 E.0168
G1 X178.988 Y168.03 E1.15825
G1 X178.453 Y168.03 E.0168
G1 X152.393 Y141.97 E1.15825
G1 X151.858 Y141.97 E.0168
G1 X177.919 Y168.03 E1.15825
G1 X177.384 Y168.03 E.0168
G1 X151.324 Y141.97 E1.15825
G1 X150.789 Y141.97 E.0168
G1 X176.85 Y168.03 E1.15825
G1 X176.315 Y168.03 E.0168
G1 X150.255 Y141.97 E1.15825
G1 X149.72 Y141.97 E.0168
G1 X175.781 Y168.03 E1.15825
G1 X175.246 Y168.03 E.0168
G1 X149.186 Y141.97 E1.15825
G1 X148.651 Y141.97 E.0168
G1 X174.712 Y168.03 E1.15825
G1 X174.177 Y168.03 E.0168
G1 X148.117 Y141.97 E1.15825
G1 X147.582 Y141.97 E.0168
G1 X173.643 Y168.03 E1.15825
G1 X173.108 Y168.03 E.0168
G1 X147.048 Y141.97 E1.15825
G1 X146.513 Y141.97 E.0168
G1 X172.574 Y168.03 E1.15825
G1 X172.039 Y168.03 E.0168
G1 X145.979 Y141.97 E1.15825
G1 X145.444 Y141.97 E.0168
G1 X171.505 Y168.03 E1.15825
G1 X170.97 Y168.03 E.0168
G1 X144.91 Y141.97 E1.15825
G1 X144.375 Y141.97 E.0168
G1 X170.436 Y168.03 E1.15825
G1 X169.901 Y168.03 E.0168
G1 X143.841 Y141.97 E1.15825
G1 X143.306 Y141.97 E.0168
G1 X169.366 Y168.03 E1.15825
G1 X168.832 Y168.03 E.0168
G1 X142.772 Y141.97 E1.15825
G1 X142.237 Y141.97 E.0168
G1 X168.297 Y168.03 E1.15825
G1 X167.763 Y168.03 E.0168
G1 X141.703 Y141.97 E1.15825
G1 X141.168 Y141.97 E.0168
G1 X167.228 Y168.03 E1.15825
G1 X166.694 Y168.03 E.0168
G1 X140.634 Y141.97 E1.15825
G1 X140.099 Y141.97 E.0168
G1 X166.159 Y168.03 E1.15825
G1 X165.625 Y168.03 E.0168
G1 X139.565 Y141.97 E1.15825
G1 X139.03 Y141.97 E.0168
G1 X165.09 Y168.03 E1.15825
G1 X164.556 Y168.03 E.0168
G1 X138.496 Y141.97 E1.15825
G1 X137.961 Y141.97 E.0168
G1 X164.021 Y168.03 E1.15825
G1 X163.487 Y168.03 E.0168
G1 X137.427 Y141.97 E1.15825
G1 X136.892 Y141.97 E.0168
G1 X162.952 Y168.03 E1.15825
G1 X162.418 Y168.03 E.0168
G1 X136.358 Y141.97 E1.15825
G1 X135.823 Y141.97 E.0168
G1 X161.883 Y168.03 E1.15825
G1 X161.349 Y168.03 E.0168
G1 X135.289 Y141.97 E1.15825
G1 X134.754 Y141.97 E.0168
G1 X160.814 Y168.03 E1.15825
G1 X160.28 Y168.03 E.0168
G1 X134.22 Y141.97 E1.15825
G1 X133.685 Y141.97 E.0168
G1 X159.745 Y168.03 E1.15825
G1 X159.211 Y168.03 E.0168
G1 X133.15 Y141.97 E1.15825
G1 X132.616 Y141.97 E.0168
G1 X158.676 Y168.03 E1.15825
G1 X158.142 Y168.03 E.0168
G1 X132.081 Y141.97 E1.15825
G1 X131.547 Y141.97 E.0168
G1 X157.607 Y168.03 E1.15825
G1 X157.073 Y168.03 E.0168
G1 X131.012 Y141.97 E1.15825
G1 X130.478 Y141.97 E.0168
G1 X156.538 Y168.03 E1.15825
G1 X156.004 Y168.03 E.0168
G1 X129.943 Y141.97 E1.15825
G1 X129.409 Y141.97 E.0168
G1 X155.469 Y168.03 E1.15825
G1 X154.935 Y168.03 E.0168
G1 X128.874 Y141.97 E1.15825
G1 X128.34 Y141.97 E.0168
G1 X154.4 Y168.03 E1.15825
G1 X153.866 Y168.03 E.0168
G1 X127.805 Y141.97 E1.15825
G1 X127.271 Y141.97 E.0168
G1 X153.331 Y168.03 E1.15825
G1 X152.797 Y168.03 E.0168
G1 X126.736 Y141.97 E1.15825
G1 X126.202 Y141.97 E.0168
G1 X152.262 Y168.03 E1.15825
G1 X151.728 Y168.03 E.0168
G1 X125.667 Y141.97 E1.15825
G1 X125.133 Y141.97 E.0168
G1 X151.193 Y168.03 E1.15825
G1 X150.659 Y168.03 E.0168
G1 X124.598 Y141.97 E1.15825
G1 X124.064 Y141.97 E.0168
G1 X150.124 Y168.03 E1.15825
G1 X149.589 Y168.03 E.0168
G1 X123.529 Y141.97 E1.15825
G1 X122.995 Y141.97 E.0168
G1 X149.055 Y168.03 E1.15825
G1 X148.52 Y168.03 E.0168
G1 X122.46 Y141.97 E1.15825
G1 X121.926 Y141.97 E.0168
G1 X147.986 Y168.03 E1.15825
G1 X147.451 Y168.03 E.0168
G1 X121.391 Y141.97 E1.15825
G1 X120.857 Y141.97 E.0168
G1 X146.917 Y168.03 E1.15825
G1 X146.382 Y168.03 E.0168
G1 X120.322 Y141.97 E1.15825
G1 X119.788 Y141.97 E.0168
G1 X145.848 Y168.03 E1.15825
G1 X145.313 Y168.03 E.0168
G1 X119.253 Y141.97 E1.15825
G1 X118.719 Y141.97 E.0168
G1 X144.779 Y168.03 E1.15825
G1 X144.244 Y168.03 E.0168
G1 X118.184 Y141.97 E1.15825
G1 X117.65 Y141.97 E.0168
G1 X143.71 Y168.03 E1.15825
G1 X143.175 Y168.03 E.0168
G1 X117.115 Y141.97 E1.15825
G1 X116.581 Y141.97 E.0168
