; generated by PrusaSlicer 2.4.2+linux-x64-GTK2 on 2022-06-15 at 21:00:13 UTC

; 

; external perimeters extrusion width = 0.45mm
; perimeters extrusion width = 0.45mm
; infill extrusion width = 0.45mm
; solid infill extrusion width = 0.45mm
; top infill extrusion width = 0.40mm
; first layer extrusion width = 0.42mm

M107
;TYPE:Custom
G90 ; use absolute coordinates
M83 ; extruder relative mode
M140 S85 ; set final bed temp
;M104 S150 ; set temporary nozzle temp to prevent oozing during homing
G4 S10 ; allow partial nozzle warmup
G28 ; home all axis
G1 Z50 F240
G1 X2 Y10 F3000
M104 S245 ; set final nozzle temp
M190 S85 ; wait for bed temp to stabilize
M109 S245 ; wait for nozzle temp to stabilize
G1 Z0.28 F240
G92 E0
G1 Y140 E10 F1500 ; prime the nozzle
G1 X2.3 F5000
G92 E0
G1 Y10 E10 F1200 ; prime the nozzle
G92 E0
G21 ; set units to millimeters
G90 ; use absolute coordinates
M83 ; use relative distances for extrusion
; Filament gcode
M107
;LAYER_CHANGE
;Z:0.2
;HEIGHT:0.2
;BEFORE_LAYER_CHANGE
G92 E0
;0.2


G1 E-6 F3600
G1 Z.2 F9000
;AFTER_LAYER_CHANGE
;0.2
G1 X220.856 Y211.524
G1 E6 F2400
M204 S500
;TYPE:Skirt/Brim
;WIDTH:0.42
G1 F1200
G1 X222.381 Y209.978 E.06808
G1 X224.855 Y207.814 E.10308
G1 X227.724 Y205.762 E.11058
G1 X230.782 Y204.006 E.11058
G1 X234 Y202.563 E.11058
G1 X237.346 Y201.448 E.11058
G1 X240.786 Y200.671 E.11058
G1 X244.286 Y200.241 E.11058
G1 X247.812 Y200.162 E.11058
G1 X251.328 Y200.433 E.11058
G1 X254.8 Y201.054 E.11058
G1 X258.193 Y202.017 E.11058
G1 X261.472 Y203.314 E.11058
G1 X264.607 Y204.93 E.11058
G1 X267.565 Y206.85 E.11058
G1 X270.317 Y209.056 E.11058
G1 X272.836 Y211.524 E.11058
G1 X275.096 Y214.231 E.11058
G1 X277.076 Y217.15 E.11058
G1 X278.682 Y220.1 E.1053
G1 X280.06 Y223.346 E.11058
G1 X281.107 Y226.714 E.11058
G1 X281.814 Y230.169 E.11058
G1 X282.174 Y233.677 E.11058
G1 X282.182 Y237.204 E.11058
G1 X281.839 Y240.714 E.11058
G1 X281.149 Y244.172 E.11058
G1 X280.117 Y247.545 E.11058
G1 X278.755 Y250.798 E.11058
G1 X277.076 Y253.899 E.11058
G1 X275.096 Y256.818 E.11058
G1 X272.836 Y259.525 E.11058
G1 X271.311 Y261.071 E.06808
G1 X268.837 Y263.235 E.10308
G1 X265.968 Y265.287 E.11058
G1 X262.91 Y267.043 E.11058
G1 X259.692 Y268.486 E.11058
G1 X256.346 Y269.601 E.11058
G1 X252.906 Y270.378 E.11058
G1 X249.406 Y270.808 E.11058
G1 X245.88 Y270.887 E.11058
G1 X242.364 Y270.615 E.11058
G1 X238.892 Y269.995 E.11058
G1 X235.499 Y269.032 E.11058
G1 X232.22 Y267.735 E.11058
G1 X229.085 Y266.119 E.11058
G1 X226.127 Y264.198 E.11058
G1 X223.375 Y261.993 E.11058
G1 X220.856 Y259.525 E.11058
G1 X218.596 Y256.818 E.11058
G1 X216.616 Y253.899 E.11058
G1 X215.01 Y250.949 E.1053
G1 X213.632 Y247.703 E.11058
G1 X212.585 Y244.335 E.11058
G1 X211.878 Y240.88 E.11058
G1 X211.518 Y237.372 E.11058
G1 X211.51 Y233.845 E.11058
G1 X211.853 Y230.335 E.11058
G1 X212.543 Y226.877 E.11058
G1 X213.575 Y223.504 E.11058
G1 X214.937 Y220.251 E.11058
G1 X216.616 Y217.15 E.11058
G1 X218.596 Y214.231 E.11058
G1 X220.818 Y211.57 E.1087
G1 E-4.2 F3600
;WIPE_START
G1 F7200
G1 X222.381 Y209.978 E-1.05979
G1 X223.411 Y209.077 E-.65021
;WIPE_END
G1 E-.09 F3600
G1 X265.931 Y233.212 F9000
G1 E6 F2400
;TYPE:Perimeter
G1 F1200
G1 X227.761 Y233.212 E1.19679
G1 X228.089 Y231.482 E.0552
G1 X228.312 Y230.561 E.02972
G1 X228.58 Y229.651 E.02972
G1 X228.892 Y228.757 E.02972
G1 X229.248 Y227.878 E.02972
G1 X229.647 Y227.019 E.02972
G1 X230.088 Y226.18 E.02972
G1 X230.57 Y225.364 E.02972
G1 X231.084 Y224.584 E.02927
G1 X231.652 Y223.808 E.03015
G1 X232.249 Y223.072 E.02972
G1 X232.882 Y222.366 E.02972
G1 X233.548 Y221.693 E.02972
G1 X234.248 Y221.053 E.02972
G1 X234.978 Y220.448 E.02972
G1 X235.737 Y219.88 E.02972
G1 X236.535 Y219.344 E.03015
G1 X237.334 Y218.861 E.02927
G1 X238.168 Y218.412 E.02972
G1 X239.024 Y218.004 E.02972
G1 X239.899 Y217.639 E.02972
G1 X240.79 Y217.318 E.02972
G1 X241.697 Y217.041 E.02972
G1 X242.616 Y216.809 E.02972
G1 X243.545 Y216.623 E.02972
G1 X244.482 Y216.483 E.02972
G1 X245.426 Y216.39 E.02972
G1 X246.372 Y216.343 E.02972
G1 X247.32 Y216.343 E.02972
G1 X248.267 Y216.39 E.02972
G1 X249.21 Y216.483 E.02972
G1 X250.147 Y216.623 E.02972
G1 X251.076 Y216.809 E.02972
G1 X251.995 Y217.041 E.02972
G1 X252.902 Y217.318 E.02972
G1 X253.793 Y217.639 E.02972
G1 X254.668 Y218.004 E.02972
G1 X255.524 Y218.412 E.02972
G1 X256.358 Y218.861 E.02972
G1 X257.17 Y219.351 E.02972
G1 X257.956 Y219.881 E.02972
G1 X258.715 Y220.448 E.02972
G1 X259.445 Y221.053 E.02972
G1 X260.144 Y221.693 E.02972
G1 X260.811 Y222.366 E.02972
G1 X261.443 Y223.072 E.02972
G1 X262.04 Y223.808 E.02972
G1 X262.6 Y224.572 E.02972
G1 X263.122 Y225.364 E.02972
G1 X263.604 Y226.18 E.02972
G1 X264.045 Y227.019 E.02972
G1 X264.444 Y227.878 E.02972
G1 X264.8 Y228.757 E.02972
G1 X265.112 Y229.651 E.02972
G1 X265.38 Y230.561 E.02972
G1 X265.603 Y231.482 E.02972
G1 X265.92 Y233.153 E.05332
G1 X265.476 Y232.834 F9000
;TYPE:External perimeter
G1 F1200
G1 X228.217 Y232.834 E1.16823
G1 X228.458 Y231.561 E.04063
G1 X228.676 Y230.658 E.02913
G1 X228.939 Y229.767 E.02913
G1 X229.245 Y228.89 E.02913
G1 X229.594 Y228.029 E.02913
G1 X229.985 Y227.186 E.02913
G1 X230.418 Y226.363 E.02913
G1 X230.89 Y225.563 E.02913
G1 X231.394 Y224.799 E.02869
G1 X231.95 Y224.038 E.02957
G1 X232.536 Y223.316 E.02913
G1 X233.156 Y222.625 E.02913
G1 X233.81 Y221.964 E.02913
G1 X234.495 Y221.337 E.02913
G1 X235.211 Y220.745 E.02913
G1 X235.955 Y220.188 E.02913
G1 X236.737 Y219.662 E.02957
G1 X237.521 Y219.189 E.02869
G1 X238.339 Y218.748 E.02913
G1 X239.178 Y218.348 E.02913
G1 X240.035 Y217.991 E.02913
G1 X240.909 Y217.676 E.02913
G1 X241.798 Y217.404 E.02913
G1 X242.699 Y217.177 E.02913
G1 X243.61 Y216.995 E.02913
G1 X244.529 Y216.858 E.02913
G1 X245.453 Y216.766 E.02913
G1 X246.381 Y216.72 E.02913
G1 X247.311 Y216.72 E.02913
G1 X248.239 Y216.766 E.02913
G1 X249.163 Y216.858 E.02913
G1 X250.082 Y216.995 E.02913
G1 X250.993 Y217.177 E.02913
G1 X251.894 Y217.404 E.02913
G1 X252.783 Y217.676 E.02913
G1 X253.657 Y217.991 E.02913
G1 X254.514 Y218.348 E.02913
G1 X255.353 Y218.748 E.02913
G1 X256.171 Y219.189 E.02913
G1 X256.967 Y219.669 E.02913
G1 X257.737 Y220.188 E.02913
G1 X258.481 Y220.745 E.02913
G1 X259.197 Y221.337 E.02913
G1 X259.882 Y221.964 E.02913
G1 X260.536 Y222.625 E.02913
G1 X261.156 Y223.316 E.02913
G1 X261.742 Y224.038 E.02913
G1 X262.291 Y224.788 E.02913
G1 X262.802 Y225.563 E.02913
G1 X263.275 Y226.363 E.02913
G1 X263.707 Y227.186 E.02913
G1 X264.098 Y228.029 E.02913
G1 X264.447 Y228.89 E.02913
G1 X264.753 Y229.767 E.02913
G1 X265.016 Y230.658 E.02913
G1 X265.234 Y231.561 E.02913
G1 X265.464 Y232.776 E.03875
G1 X265.503 Y233.233 F9000
G1 E-4.2 F3600
;WIPE_START
G1 F7200
G1 X261.864 Y232.781 E-1.71
;WIPE_END
G1 E-.09 F3600
G1 X265.931 Y237.837 F9000
G1 E6 F2400
;TYPE:Perimeter
G1 F1200
G1 X265.603 Y239.567 E.0552
G1 X265.38 Y240.488 E.02972
G1 X265.112 Y241.397 E.02972
G1 X264.8 Y242.292 E.02972
G1 X264.444 Y243.171 E.02972
G1 X264.045 Y244.03 E.02972
G1 X263.604 Y244.869 E.02972
G1 X263.122 Y245.685 E.02972
G1 X262.6 Y246.477 E.02972
G1 X262.04 Y247.241 E.02972
G1 X261.443 Y247.977 E.02972
G1 X260.811 Y248.683 E.02972
G1 X260.144 Y249.356 E.02972
G1 X259.444 Y249.996 E.02972
G1 X258.715 Y250.601 E.02972
G1 X257.956 Y251.168 E.02972
G1 X257.17 Y251.698 E.02972
G1 X256.358 Y252.188 E.02972
G1 X255.524 Y252.637 E.02972
G1 X254.668 Y253.045 E.02972
G1 X253.793 Y253.41 E.02972
G1 X252.902 Y253.731 E.02972
G1 X251.995 Y254.008 E.02972
G1 X251.076 Y254.24 E.02972
G1 X250.133 Y254.428 E.03015
G1 X249.21 Y254.566 E.02927
G1 X248.267 Y254.659 E.02972
G1 X247.32 Y254.706 E.02972
G1 X246.372 Y254.706 E.02972
G1 X245.426 Y254.659 E.02972
G1 X244.482 Y254.566 E.02972
G1 X243.545 Y254.426 E.02972
G1 X242.616 Y254.24 E.02972
G1 X241.697 Y254.008 E.02972
G1 X240.79 Y253.731 E.02972
G1 X239.899 Y253.41 E.02972
G1 X239.024 Y253.045 E.02972
G1 X238.168 Y252.637 E.02972
G1 X237.322 Y252.181 E.03015
G1 X236.523 Y251.698 E.02927
G1 X235.737 Y251.168 E.02972
G1 X234.978 Y250.601 E.02972
G1 X234.248 Y249.996 E.02972
G1 X233.548 Y249.356 E.02972
G1 X232.882 Y248.683 E.02972
G1 X232.249 Y247.977 E.02972
G1 X231.652 Y247.241 E.02972
G1 X231.084 Y246.465 E.03015
G1 X230.57 Y245.685 E.02927
G1 X230.088 Y244.869 E.02972
G1 X229.647 Y244.03 E.02972
G1 X229.248 Y243.171 E.02972
G1 X228.892 Y242.292 E.02972
G1 X228.58 Y241.397 E.02972
G1 X228.312 Y240.488 E.02972
G1 X228.089 Y239.567 E.02972
G1 X227.761 Y237.837 E.0552
G1 X265.871 Y237.837 E1.19491
G1 X265.476 Y238.214 F9000
;TYPE:External perimeter
G1 F1200
G1 X265.234 Y239.488 E.04063
G1 X265.016 Y240.391 E.02913
G1 X264.753 Y241.282 E.02913
G1 X264.447 Y242.159 E.02913
G1 X264.098 Y243.02 E.02913
G1 X263.707 Y243.863 E.02913
G1 X263.275 Y244.686 E.02913
G1 X262.802 Y245.486 E.02913
G1 X262.291 Y246.261 E.02913
G1 X261.742 Y247.011 E.02913
G1 X261.156 Y247.732 E.02913
G1 X260.536 Y248.424 E.02913
G1 X259.882 Y249.084 E.02913
G1 X259.197 Y249.712 E.02913
G1 X258.481 Y250.304 E.02913
G1 X257.737 Y250.861 E.02913
G1 X256.967 Y251.38 E.02913
G1 X256.171 Y251.86 E.02913
G1 X255.353 Y252.301 E.02913
G1 X254.514 Y252.7 E.02913
G1 X253.657 Y253.058 E.02913
G1 X252.783 Y253.373 E.02913
G1 X251.894 Y253.645 E.02913
G1 X250.993 Y253.872 E.02914
G1 X250.068 Y254.056 E.02957
G1 X249.163 Y254.191 E.02869
G1 X248.239 Y254.283 E.02913
G1 X247.311 Y254.329 E.02913
G1 X246.381 Y254.329 E.02913
G1 X245.453 Y254.283 E.02913
G1 X244.529 Y254.191 E.02913
G1 X243.61 Y254.054 E.02913
G1 X242.699 Y253.872 E.02913
G1 X241.798 Y253.645 E.02913
G1 X240.909 Y253.373 E.02913
G1 X240.035 Y253.058 E.02913
G1 X239.178 Y252.7 E.02913
G1 X238.339 Y252.301 E.02913
G1 X237.509 Y251.853 E.02957
G1 X236.726 Y251.38 E.02869
G1 X235.955 Y250.861 E.02913
G1 X235.211 Y250.304 E.02913
G1 X234.495 Y249.712 E.02913
G1 X233.81 Y249.084 E.02913
G1 X233.156 Y248.424 E.02913
G1 X232.536 Y247.732 E.02913
G1 X231.95 Y247.011 E.02913
G1 X231.394 Y246.25 E.02957
G1 X230.89 Y245.486 E.02869
G1 X230.418 Y244.686 E.02913
G1 X229.985 Y243.863 E.02913
G1 X229.594 Y243.02 E.02913
G1 X229.245 Y242.159 E.02913
G1 X228.939 Y241.282 E.02913
G1 X228.676 Y240.391 E.02913
G1 X228.458 Y239.488 E.02913
G1 X228.217 Y238.214 E.04063
G1 X265.416 Y238.214 E1.16635
G1 X265.873 Y238.26 F9000
G1 E-4.2 F3600
;WIPE_START
G1 F7200
G1 X265.234 Y239.488 E-.61086
G1 X265.016 Y240.391 E-.44134
G1 X264.753 Y241.282 E-.44134
G1 X264.603 Y241.712 E-.21646
;WIPE_END
G1 E-.09 F3600
G1 X277.862 Y239.767 F9000
G1 E6 F2400
;TYPE:Perimeter
G1 F1200
G1 X277.809 Y240.191 E.01342
G1 X277.538 Y241.729 E.04895
G1 X277.19 Y243.251 E.04895
G1 X276.768 Y244.754 E.04895
G1 X276.27 Y246.234 E.04895
G1 X275.7 Y247.687 E.04895
G1 X275.058 Y249.111 E.04895
G1 X274.346 Y250.5 E.04895
G1 X273.565 Y251.852 E.04895
G1 X272.718 Y253.164 E.04895
G1 X271.806 Y254.431 E.04895
G1 X270.833 Y255.652 E.04895
G1 X269.8 Y256.823 E.04895
G1 X268.71 Y257.94 E.04895
G1 X267.565 Y259.002 E.04895
G1 X266.369 Y260.006 E.04895
G1 X265.125 Y260.948 E.04895
G1 X263.835 Y261.828 E.04895
G1 X262.502 Y262.642 E.04895
G1 X261.131 Y263.389 E.04895
G1 X259.725 Y264.066 E.04895
G1 X258.286 Y264.673 E.04895
G1 X256.819 Y265.207 E.04895
G1 X255.327 Y265.667 E.04895
G1 X253.814 Y266.052 E.04896
G1 X252.283 Y266.361 E.04895
G1 X250.74 Y266.594 E.04895
G1 X249.186 Y266.75 E.04895
G1 X247.627 Y266.827 E.04895
G1 X246.065 Y266.827 E.04895
G1 X244.506 Y266.75 E.04895
G1 X242.952 Y266.594 E.04895
G1 X241.409 Y266.361 E.04895
G1 X239.878 Y266.052 E.04895
G1 X238.365 Y265.667 E.04895
G1 X236.873 Y265.207 E.04895
G1 X235.406 Y264.673 E.04895
G1 X233.968 Y264.066 E.04895
G1 X232.561 Y263.389 E.04895
G1 X231.19 Y262.642 E.04895
G1 X229.857 Y261.828 E.04895
G1 X228.567 Y260.948 E.04895
G1 X227.323 Y260.006 E.04895
G1 X226.127 Y259.002 E.04895
G1 X224.982 Y257.94 E.04895
G1 X223.892 Y256.823 E.04895
G1 X222.859 Y255.652 E.04895
G1 X221.886 Y254.431 E.04895
G1 X220.974 Y253.164 E.04895
G1 X220.127 Y251.852 E.04895
G1 X219.347 Y250.5 E.04895
G1 X218.634 Y249.111 E.04895
G1 X217.992 Y247.687 E.04895
G1 X217.422 Y246.234 E.04895
G1 X216.924 Y244.754 E.04895
G1 X216.502 Y243.251 E.04895
G1 X216.154 Y241.729 E.04895
G1 X215.883 Y240.191 E.04895
G1 X215.689 Y238.642 E.04895
G1 X215.572 Y237.085 E.04895
G1 X215.533 Y235.524 E.04895
G1 X215.572 Y233.964 E.04895
G1 X215.689 Y232.407 E.04895
G1 X215.883 Y230.858 E.04895
G1 X216.154 Y229.32 E.04895
G1 X216.502 Y227.798 E.04895
G1 X216.924 Y226.295 E.04895
G1 X217.422 Y224.815 E.04895
G1 X217.992 Y223.362 E.04895
G1 X218.634 Y221.938 E.04895
G1 X219.347 Y220.549 E.04895
G1 X220.127 Y219.197 E.04895
G1 X220.974 Y217.885 E.04895
G1 X221.886 Y216.618 E.04895
G1 X222.859 Y215.397 E.04895
G1 X223.892 Y214.226 E.04895
G1 X224.982 Y213.109 E.04895
G1 X226.127 Y212.047 E.04895
G1 X227.323 Y211.043 E.04895
G1 X228.567 Y210.1 E.04895
G1 X229.857 Y209.221 E.04895
G1 X231.19 Y208.407 E.04895
G1 X232.561 Y207.66 E.04895
G1 X233.968 Y206.983 E.04895
G1 X235.406 Y206.376 E.04895
G1 X236.873 Y205.842 E.04895
G1 X238.365 Y205.382 E.04895
G1 X239.878 Y204.997 E.04896
G1 X241.409 Y204.687 E.04895
G1 X242.952 Y204.455 E.04895
G1 X244.506 Y204.299 E.04895
G1 X246.065 Y204.222 E.04893
G1 X247.703 Y204.225 E.05137
G1 X249.186 Y204.299 E.04655
G1 X250.74 Y204.455 E.04895
G1 X252.283 Y204.687 E.04895
G1 X253.814 Y204.997 E.04895
G1 X255.327 Y205.382 E.04895
G1 X256.819 Y205.842 E.04895
G1 X258.286 Y206.376 E.04895
G1 X259.725 Y206.983 E.04895
G1 X261.131 Y207.66 E.04895
G1 X262.502 Y208.407 E.04895
G1 X263.835 Y209.221 E.04895
G1 X265.125 Y210.1 E.04895
G1 X266.369 Y211.043 E.04895
G1 X267.565 Y212.047 E.04895
G1 X268.71 Y213.109 E.04895
G1 X269.8 Y214.226 E.04895
G1 X270.833 Y215.397 E.04895
G1 X271.806 Y216.618 E.04895
G1 X272.718 Y217.885 E.04895
G1 X273.565 Y219.197 E.04895
G1 X274.346 Y220.549 E.04895
G1 X275.058 Y221.938 E.04895
G1 X275.7 Y223.362 E.04895
G1 X276.27 Y224.815 E.04895
G1 X276.768 Y226.295 E.04895
G1 X277.19 Y227.798 E.04895
G1 X277.538 Y229.32 E.04895
G1 X277.809 Y230.858 E.04895
G1 X278.003 Y232.407 E.04895
G1 X278.12 Y233.964 E.04895
G1 X278.159 Y235.524 E.04895
G1 X278.12 Y237.085 E.04895
G1 X278.003 Y238.642 E.04895
G1 X277.87 Y239.707 E.03365
G1 X278.236 Y239.814 F9000
;TYPE:External perimeter
G1 F1200
G1 X278.182 Y240.248 E.01371
G1 X277.908 Y241.804 E.04954
G1 X277.556 Y243.344 E.04954
G1 X277.128 Y244.865 E.04954
G1 X276.625 Y246.363 E.04954
G1 X276.048 Y247.834 E.04954
G1 X275.398 Y249.274 E.04954
G1 X274.677 Y250.68 E.04954
G1 X273.887 Y252.049 E.04954
G1 X273.029 Y253.376 E.04954
G1 X272.107 Y254.659 E.04954
G1 X271.122 Y255.894 E.04954
G1 X270.076 Y257.079 E.04954
G1 X268.973 Y258.21 E.04954
G1 X267.815 Y259.285 E.04954
G1 X266.604 Y260.301 E.04954
G1 X265.345 Y261.255 E.04954
G1 X264.039 Y262.145 E.04954
G1 X262.691 Y262.969 E.04954
G1 X261.303 Y263.724 E.04954
G1 X259.88 Y264.41 E.04954
G1 X258.424 Y265.024 E.04954
G1 X256.939 Y265.564 E.04954
G1 X255.429 Y266.03 E.04954
G1 X253.898 Y266.42 E.04954
G1 X252.349 Y266.733 E.04954
G1 X250.786 Y266.968 E.04954
G1 X249.214 Y267.126 E.04954
G1 X247.636 Y267.205 E.04954
G1 X246.056 Y267.205 E.04954
G1 X244.478 Y267.126 E.04954
G1 X242.906 Y266.968 E.04954
G1 X241.343 Y266.733 E.04954
G1 X239.794 Y266.42 E.04954
G1 X238.263 Y266.03 E.04954
G1 X236.753 Y265.564 E.04954
G1 X235.268 Y265.024 E.04954
G1 X233.812 Y264.41 E.04954
G1 X232.389 Y263.724 E.04954
G1 X231.001 Y262.969 E.04954
G1 X229.653 Y262.145 E.04954
G1 X228.347 Y261.255 E.04954
G1 X227.088 Y260.301 E.04954
G1 X225.877 Y259.285 E.04954
G1 X224.719 Y258.21 E.04954
G1 X223.616 Y257.079 E.04954
G1 X222.57 Y255.894 E.04954
G1 X221.585 Y254.659 E.04954
G1 X220.663 Y253.376 E.04954
G1 X219.805 Y252.049 E.04954
G1 X219.015 Y250.68 E.04954
G1 X218.294 Y249.274 E.04954
G1 X217.645 Y247.834 E.04954
G1 X217.067 Y246.363 E.04954
G1 X216.564 Y244.865 E.04954
G1 X216.136 Y243.344 E.04954
G1 X215.784 Y241.804 E.04954
G1 X215.51 Y240.248 E.04954
G1 X215.314 Y238.68 E.04954
G1 X215.196 Y237.104 E.04954
G1 X215.156 Y235.524 E.04954
G1 X215.196 Y233.945 E.04954
G1 X215.314 Y232.369 E.04954
G1 X215.51 Y230.801 E.04954
G1 X215.784 Y229.245 E.04954
