; generated by PrusaSlicer 2.4.2+linux-x64-GTK2 on 2022-06-15 at 04:07:44 UTC

; 

; external perimeters extrusion width = 0.45mm
; perimeters extrusion width = 0.45mm
; infill extrusion width = 0.45mm
; solid infill extrusion width = 0.45mm
; top infill extrusion width = 0.40mm
; support material extrusion width = 0.38mm
; first layer extrusion width = 0.42mm

M107
;TYPE:Custom
G90 ; use absolute coordinates
M83 ; extruder relative mode
M140 S85 ; set final bed temp
M104 S150 ; set temporary nozzle temp to prevent oozing during homing
G4 S10 ; allow partial nozzle warmup
G28 ; home all axis
G1 Z50 F240
G1 X2 Y10 F3000
M104 S240 ; set final nozzle temp
M190 S85 ; wait for bed temp to stabilize
M109 S240 ; wait for nozzle temp to stabilize
G1 Z0.28 F240
G92 E0
G1 Y140 E10 F1500 ; prime the nozzle
G1 X2.3 F5000
G92 E0
G1 Y10 E10 F1200 ; prime the nozzle
G92 E0
G21 ; set units to millimeters
G90 ; use absolute coordinates
M83 ; use relative distances for extrusion
; Filament gcode
M107
;LAYER_CHANGE
;Z:0.2
;HEIGHT:0.2
;BEFORE_LAYER_CHANGE
G92 E0
;0.2


G1 E-6 F3600
G1 Z.2 F9000
;AFTER_LAYER_CHANGE
;0.2
G1 X126.094 Y104.808
G1 E6 F2400
M204 S500
;TYPE:Skirt/Brim
;WIDTH:0.42
G1 F1200
G1 X128.542 Y102.36 E.10853
G1 X129.419 Y101.728 E.03392
G1 X138.768 Y97.053 E.32771
G1 X146.221 Y94.533 E.2467
G1 X147.289 Y94.36 E.03392
G1 X162.711 Y94.36 E.48353
G1 X163.779 Y94.533 E.03392
G1 X171.232 Y97.053 E.2467
G1 X180.581 Y101.728 E.32771
G1 X181.458 Y102.36 E.03392
G1 X183.906 Y104.808 E.10853
G1 X184.538 Y105.685 E.03392
G1 X189.213 Y115.034 E.32771
G1 X191.733 Y122.487 E.2467
G1 X191.906 Y123.555 E.03392
G1 X191.906 Y138.977 E.48353
G1 X191.733 Y140.045 E.03392
G1 X189.213 Y147.498 E.2467
G1 X184.538 Y156.847 E.32771
G1 X183.906 Y157.724 E.03392
G1 X181.458 Y160.172 E.10853
G1 X180.581 Y160.804 E.03392
G1 X171.232 Y165.479 E.32771
G1 X163.779 Y167.999 E.2467
G1 X162.711 Y168.172 E.03392
G1 X147.289 Y168.172 E.48353
G1 X146.221 Y167.999 E.03392
G1 X138.768 Y165.479 E.2467
G1 X129.419 Y160.804 E.32771
G1 X128.542 Y160.172 E.03392
G1 X126.205 Y157.835 E.10363
G1 X125.462 Y156.847 E.03877
G1 X120.787 Y147.498 E.32771
G1 X118.267 Y140.045 E.2467
G1 X118.094 Y138.977 E.03392
G1 X118.094 Y123.555 E.48353
G1 X118.267 Y122.487 E.03392
G1 X120.787 Y115.034 E.2467
G1 X125.462 Y105.685 E.32771
G1 X126.059 Y104.856 E.03204
G1 E-4.2 F3600
;WIPE_START
G1 F7200
G1 X128.542 Y102.36 E-1.67231
G1 X128.606 Y102.314 E-.03769
;WIPE_END
G1 E-.09 F3600
G1 X134.083 Y111.936 F9000
G1 E6 F2400
G1 F1200
G1 X135.108 Y110.881 E.04612
G1 X136.015 Y110.035 E.03888
G1 X137.214 Y109.019 E.04928
G1 X138.352 Y108.155 E.04481
G1 X139.52 Y107.357 E.04433
G1 X140.724 Y106.619 E.0443
G1 X141.964 Y105.941 E.0443
G1 X143.236 Y105.326 E.0443
G1 X144.536 Y104.775 E.04428
G1 X145.711 Y104.343 E.03927
G1 X147.517 Y103.787 E.05924
G1 X148.753 Y103.477 E.03994
G1 X150.285 Y103.179 E.04893
G1 X151.514 Y102.997 E.03898
G1 X152.92 Y102.859 E.04429
G1 X154.345 Y102.791 E.04474
G1 X155.778 Y102.796 E.04493
G1 X157.154 Y102.865 E.0432
G1 X158.559 Y103.007 E.04427
G1 X159.956 Y103.218 E.04429
G1 X161.34 Y103.498 E.04429
G1 X162.709 Y103.847 E.04429
G1 X164.059 Y104.263 E.0443
G1 X165.397 Y104.749 E.04462
G1 X166.759 Y105.324 E.04638
G1 X168.03 Y105.939 E.04424
G1 X169.269 Y106.615 E.04426
G1 X170.464 Y107.347 E.04396
G1 X171.63 Y108.143 E.04426
G1 X172.748 Y108.989 E.04396
G1 X173.83 Y109.895 E.04425
G1 X174.866 Y110.855 E.04427
G1 X175.847 Y111.857 E.04397
G1 X176.783 Y112.914 E.04427
G1 X177.666 Y114.016 E.04428
G1 X178.493 Y115.161 E.04428
G1 X179.262 Y116.345 E.04428
G1 X179.972 Y117.566 E.04428
G1 X180.62 Y118.821 E.04428
G1 X181.206 Y120.106 E.04428
G1 X181.727 Y121.419 E.04428
G1 X182.182 Y122.756 E.04428
G1 X182.57 Y124.114 E.04428
G1 X182.891 Y125.489 E.04428
G1 X183.143 Y126.879 E.04428
G1 X183.325 Y128.279 E.04428
G1 X183.439 Y129.687 E.04428
G1 X183.482 Y131.098 E.04428
G1 X183.455 Y132.515 E.04441
G1 X183.341 Y134.1 E.04986
G1 X183.164 Y135.516 E.04471
G1 X182.918 Y136.907 E.0443
G1 X182.604 Y138.284 E.04428
G1 X182.223 Y139.644 E.04428
G1 X181.774 Y140.983 E.04428
G1 X181.26 Y142.296 E.04422
G1 X180.753 Y143.43 E.03893
G1 X180.048 Y144.826 E.04905
G1 X179.335 Y146.067 E.04488
G1 X178.571 Y147.256 E.0443
G1 X177.843 Y148.275 E.03927
G1 X176.666 Y149.751 E.0592
G1 X175.82 Y150.703 E.03992
G1 X174.723 Y151.812 E.04894
G1 X173.809 Y152.655 E.03896
G1 X172.727 Y153.56 E.04424
G1 X171.6 Y154.411 E.04428
G1 X170.432 Y155.206 E.04428
G1 X169.227 Y155.941 E.04428
G1 X167.985 Y156.616 E.04431
G1 X166.698 Y157.235 E.04476
G1 X165.232 Y157.847 E.04983
G1 X163.907 Y158.319 E.0441
G1 X162.555 Y158.728 E.04428
G1 X161.193 Y159.067 E.04399
G1 X159.817 Y159.338 E.04399
G1 X158.429 Y159.541 E.04399
G1 X157.023 Y159.677 E.04428
G1 X155.621 Y159.742 E.04399
G1 X154.218 Y159.738 E.04399
G1 X152.807 Y159.664 E.04429
G1 X151.402 Y159.521 E.04429
G1 X150.005 Y159.307 E.0443
G1 X148.621 Y159.025 E.04429
G1 X147.253 Y158.675 E.0443
G1 X145.903 Y158.257 E.0443
G1 X144.576 Y157.773 E.0443
G1 X143.274 Y157.223 E.0443
G1 X142.001 Y156.61 E.0443
G1 X140.761 Y155.934 E.0443
G1 X139.555 Y155.198 E.0443
G1 X138.387 Y154.402 E.0443
G1 X137.26 Y153.55 E.0443
G1 X136.177 Y152.643 E.0443
G1 X135.14 Y151.683 E.0443
G1 X134.153 Y150.673 E.0443
G1 X133.21 Y149.608 E.0446
G1 X132.321 Y148.497 E.0446
G1 X131.489 Y147.343 E.0446
G1 X130.717 Y146.151 E.04453
G1 X129.983 Y144.882 E.04596
G1 X129.335 Y143.618 E.04454
G1 X128.755 Y142.331 E.04429
G1 X128.238 Y141.017 E.04426
G1 X127.788 Y139.679 E.04425
G1 X127.405 Y138.321 E.04425
G1 X127.089 Y136.946 E.04424
G1 X126.842 Y135.557 E.04423
G1 X126.664 Y134.158 E.04422
G1 X126.556 Y132.752 E.04421
G1 X126.517 Y131.343 E.04418
G1 X126.545 Y130.012 E.04177
G1 X126.65 Y128.522 E.04683
G1 X126.822 Y127.112 E.04452
G1 X127.062 Y125.722 E.04425
G1 X127.371 Y124.345 E.04424
G1 X127.748 Y122.985 E.04425
G1 X128.191 Y121.645 E.04425
G1 X128.701 Y120.329 E.04426
G1 X129.275 Y119.039 E.04427
G1 X129.913 Y117.779 E.04427
G1 X130.612 Y116.552 E.04428
G1 X131.372 Y115.362 E.04428
G1 X132.192 Y114.207 E.04442
G1 X133.18 Y112.96 E.04987
G1 X134.044 Y111.981 E.04095
G1 X134.326 Y112.23 F9000
G1 F1200
G1 X135.375 Y111.147 E.04727
G1 X136.269 Y110.314 E.03832
G1 X137.454 Y109.31 E.0487
G1 X138.577 Y108.458 E.04419
G1 X139.728 Y107.671 E.04374
G1 X140.917 Y106.943 E.04371
G1 X142.141 Y106.274 E.04371
G1 X143.396 Y105.668 E.04371
G1 X144.679 Y105.124 E.04369
G1 X145.837 Y104.699 E.03868
G1 X147.614 Y104.151 E.0583
G1 X148.83 Y103.846 E.03931
G1 X150.344 Y103.551 E.04837
G1 X151.556 Y103.372 E.03841
G1 X152.943 Y103.236 E.0437
G1 X154.349 Y103.168 E.04414
G1 X155.773 Y103.173 E.04464
G1 X157.121 Y103.24 E.04234
G1 X158.507 Y103.38 E.04368
G1 X159.886 Y103.588 E.0437
G1 X161.252 Y103.865 E.0437
G1 X162.602 Y104.208 E.0437
G1 X163.935 Y104.619 E.04371
G1 X165.254 Y105.098 E.04402
G1 X166.608 Y105.67 E.04608
G1 X167.861 Y106.276 E.04365
G1 X169.084 Y106.944 E.04368
G1 X170.263 Y107.666 E.04337
G1 X171.414 Y108.451 E.04367
G1 X172.517 Y109.287 E.04338
G1 X173.584 Y110.181 E.04367
G1 X174.606 Y111.128 E.04369
G1 X175.574 Y112.118 E.04338
G1 X176.497 Y113.161 E.04368
G1 X177.368 Y114.248 E.04369
G1 X178.184 Y115.378 E.04369
G1 X178.943 Y116.547 E.0437
G1 X179.644 Y117.752 E.04369
G1 X180.283 Y118.99 E.0437
G1 X180.861 Y120.258 E.04369
G1 X181.374 Y121.554 E.04369
G1 X181.823 Y122.873 E.04369
G1 X182.206 Y124.213 E.04369
G1 X182.522 Y125.57 E.04369
G1 X182.771 Y126.941 E.0437
G1 X182.951 Y128.323 E.04369
G1 X183.062 Y129.712 E.04369
G1 X183.105 Y131.105 E.04369
G1 X183.078 Y132.502 E.04382
G1 X182.965 Y134.068 E.04923
G1 X182.79 Y135.464 E.0441
G1 X182.548 Y136.837 E.04371
G1 X182.238 Y138.196 E.04369
G1 X181.861 Y139.537 E.04369
G1 X181.418 Y140.858 E.04369
G1 X180.911 Y142.155 E.04364
G1 X180.411 Y143.271 E.03837
G1 X179.713 Y144.651 E.04848
G1 X179.01 Y145.875 E.04426
G1 X178.257 Y147.048 E.04371
G1 X177.539 Y148.052 E.03868
G1 X176.381 Y149.504 E.05826
G1 X175.549 Y150.441 E.03929
G1 X174.464 Y151.538 E.04838
G1 X173.564 Y152.369 E.0384
G1 X172.496 Y153.262 E.04366
G1 X171.384 Y154.102 E.04369
G1 X170.232 Y154.886 E.0437
G1 X169.042 Y155.612 E.0437
G1 X167.817 Y156.279 E.04372
G1 X166.549 Y156.889 E.04415
G1 X165.1 Y157.493 E.04921
G1 X163.793 Y157.96 E.04351
G1 X162.459 Y158.363 E.0437
G1 X161.116 Y158.698 E.04341
G1 X159.749 Y158.967 E.0437
G1 X158.379 Y159.167 E.0434
G1 X156.991 Y159.301 E.0437
G1 X155.608 Y159.365 E.04341
G1 X154.224 Y159.361 E.04341
G1 X152.832 Y159.288 E.04371
G1 X151.445 Y159.146 E.04371
G1 X150.067 Y158.935 E.04371
G1 X148.701 Y158.657 E.04371
G1 X147.351 Y158.311 E.04371
G1 X146.019 Y157.898 E.04371
G1 X144.709 Y157.42 E.04371
G1 X143.425 Y156.878 E.04371
G1 X142.169 Y156.272 E.04371
G1 X140.945 Y155.605 E.04371
G1 X139.756 Y154.878 E.04371
G1 X138.603 Y154.093 E.04371
G1 X137.492 Y153.252 E.04371
G1 X136.423 Y152.357 E.04371
G1 X135.4 Y151.41 E.04371
G1 X134.425 Y150.413 E.04371
G1 X133.495 Y149.362 E.04401
G1 X132.619 Y148.266 E.04401
G1 X131.798 Y147.127 E.04401
G1 X131.036 Y145.95 E.04394
G1 X130.312 Y144.698 E.04537
G1 X129.673 Y143.45 E.04395
G1 X129.1 Y142.18 E.0437
G1 X128.591 Y140.883 E.04367
G1 X128.147 Y139.563 E.04367
G1 X127.769 Y138.223 E.04366
G1 X127.458 Y136.866 E.04365
G1 X127.214 Y135.496 E.04364
G1 X127.039 Y134.115 E.04364
G1 X126.932 Y132.728 E.04363
G1 X126.894 Y131.338 E.0436
G1 X126.922 Y130.024 E.04119
G1 X127.025 Y128.553 E.04624
G1 X127.195 Y127.163 E.04391
G1 X127.433 Y125.791 E.04366
G1 X127.738 Y124.432 E.04365
G1 X128.11 Y123.09 E.04366
G1 X128.548 Y121.768 E.04367
G1 X129.051 Y120.469 E.04368
G1 X129.618 Y119.197 E.04368
G1 X130.247 Y117.954 E.04369
G1 X130.938 Y116.743 E.04369
G1 X131.687 Y115.569 E.04369
G1 X132.496 Y114.429 E.04382
G1 X133.472 Y113.198 E.04925
G1 X134.287 Y112.275 E.0386
G1 X134.569 Y112.525 F9000
G1 F1200
G1 X135.642 Y111.414 E.04842
G1 X136.522 Y110.592 E.03776
G1 X137.694 Y109.601 E.04811
G1 X138.801 Y108.761 E.04357
G1 X139.937 Y107.985 E.04315
G1 X141.11 Y107.267 E.04313
G1 X142.317 Y106.608 E.04313
G1 X143.556 Y106.009 E.04312
G1 X144.822 Y105.473 E.04311
G1 X145.962 Y105.054 E.03809
G1 X147.71 Y104.516 E.05737
G1 X148.907 Y104.215 E.03868
G1 X150.403 Y103.923 E.04781
G1 X151.597 Y103.747 E.03784
G1 X152.966 Y103.612 E.04311
G1 X154.352 Y103.545 E.04353
G1 X155.767 Y103.55 E.04435
G1 X157.088 Y103.616 E.04148
G1 X158.456 Y103.754 E.04309
G1 X159.815 Y103.959 E.04312
G1 X161.163 Y104.231 E.04311
G1 X162.496 Y104.57 E.04312
G1 X163.811 Y104.975 E.04313
G1 X165.112 Y105.448 E.04342
G1 X166.457 Y106.016 E.04577
G1 X167.693 Y106.613 E.04305
G1 X168.899 Y107.273 E.04309
G1 X170.063 Y107.985 E.04279
G1 X171.198 Y108.76 E.04309
G1 X172.285 Y109.584 E.04279
G1 X173.338 Y110.467 E.04309
G1 X174.347 Y111.402 E.0431
G1 X175.301 Y112.378 E.0428
G1 X176.212 Y113.407 E.0431
G1 X177.071 Y114.48 E.04311
G1 X177.876 Y115.595 E.04311
G1 X178.625 Y116.748 E.04311
G1 X179.315 Y117.937 E.04311
G1 X179.946 Y119.159 E.04311
G1 X180.515 Y120.41 E.04311
G1 X181.022 Y121.688 E.04311
G1 X181.465 Y122.99 E.04311
G1 X181.842 Y124.312 E.04311
G1 X182.154 Y125.651 E.04311
G1 X182.399 Y127.004 E.04311
G1 X182.576 Y128.367 E.04311
G1 X182.686 Y129.738 E.04311
G1 X182.728 Y131.112 E.04311
G1 X182.701 Y132.49 E.04322
G1 X182.589 Y134.036 E.04861
G1 X182.416 Y135.412 E.04348
G1 X182.177 Y136.767 E.04313
G1 X181.871 Y138.107 E.04311
G1 X181.499 Y139.431 E.04311
G1 X181.062 Y140.734 E.04311
G1 X180.561 Y142.013 E.04306
G1 X180.068 Y143.113 E.03781
G1 X179.379 Y144.477 E.04791
G1 X178.686 Y145.683 E.04363
G1 X177.942 Y146.84 E.04312
G1 X177.235 Y147.828 E.03809
G1 X176.096 Y149.258 E.05732
G1 X175.277 Y150.18 E.03866
G1 X174.205 Y151.264 E.04781
G1 X173.318 Y152.082 E.03783
G1 X172.265 Y152.964 E.04308
G1 X171.168 Y153.793 E.04311
G1 X170.031 Y154.567 E.04311
G1 X168.858 Y155.283 E.04311
G1 X167.65 Y155.941 E.04313
G1 X166.399 Y156.543 E.04353
G1 X164.969 Y157.14 E.04859
G1 X163.68 Y157.6 E.04292
G1 X162.364 Y157.998 E.04311
G1 X161.038 Y158.329 E.04283
G1 X159.689 Y158.595 E.04311
G1 X158.338 Y158.793 E.04282
G1 X156.969 Y158.924 E.04312
G1 X155.605 Y158.988 E.04282
G1 X154.23 Y158.984 E.04312
G1 X152.856 Y158.912 E.04312
G1 X151.488 Y158.771 E.04312
G1 X150.129 Y158.563 E.04312
G1 X148.781 Y158.288 E.04312
G1 X147.449 Y157.947 E.04312
G1 X146.135 Y157.54 E.04312
G1 X144.843 Y157.068 E.04313
G1 X143.576 Y156.532 E.04313
G1 X142.337 Y155.935 E.04313
G1 X141.13 Y155.276 E.04313
G1 X139.956 Y154.559 E.04313
G1 X138.82 Y153.784 E.04313
G1 X137.723 Y152.954 E.04312
G1 X136.669 Y152.071 E.04313
G1 X135.66 Y151.136 E.04312
G1 X134.698 Y150.153 E.04312
G1 X133.781 Y149.116 E.04342
G1 X132.916 Y148.034 E.04342
G1 X132.107 Y146.91 E.04342
G1 X131.355 Y145.75 E.04335
G1 X130.641 Y144.513 E.04477
G1 X130.011 Y143.283 E.04335
G1 X129.446 Y142.029 E.04311
G1 X128.944 Y140.75 E.04309
G1 X128.506 Y139.448 E.04308
G1 X128.133 Y138.125 E.04307
G1 X127.826 Y136.786 E.04307
G1 X127.586 Y135.434 E.04306
G1 X127.414 Y134.072 E.04305
G1 X127.309 Y132.704 E.04304
G1 X127.271 Y131.332 E.04302
G1 X127.299 Y130.037 E.04062
G1 X127.401 Y128.584 E.04566
G1 X127.569 Y127.213 E.04331
G1 X127.803 Y125.86 E.04307
G1 X128.105 Y124.52 E.04307
G1 X128.472 Y123.196 E.04308
G1 X128.904 Y121.891 E.04308
G1 X129.401 Y120.61 E.04309
G1 X129.96 Y119.355 E.0431
G1 X130.581 Y118.128 E.0431
G1 X131.263 Y116.934 E.0431
G1 X132.002 Y115.775 E.04311
G1 X132.801 Y114.651 E.04323
G1 X133.764 Y113.436 E.04862
G1 X134.53 Y112.57 E.03625
G1 X134.812 Y112.819 F9000
G1 F1200
G1 X135.908 Y111.68 E.04957
G1 X136.776 Y110.871 E.0372
G1 X137.933 Y109.892 E.04753
G1 X139.025 Y109.065 E.04295
G1 X140.146 Y108.299 E.04256
G1 X141.303 Y107.591 E.04254
G1 X142.494 Y106.941 E.04254
G1 X143.715 Y106.351 E.04254
G1 X144.964 Y105.822 E.04252
G1 X146.087 Y105.41 E.0375
G1 X147.807 Y104.88 E.05643
G1 X148.984 Y104.584 E.03805
G1 X150.463 Y104.296 E.04725
G1 X151.639 Y104.122 E.03728
G1 X152.989 Y103.988 E.04253
G1 X154.356 Y103.922 E.04292
G1 X155.761 Y103.927 E.04406
G1 X157.055 Y103.992 E.04063
G1 X158.404 Y104.127 E.0425
G1 X159.745 Y104.329 E.04253
G1 X161.075 Y104.598 E.04253
G1 X162.39 Y104.932 E.04253
G1 X163.686 Y105.331 E.04254
G1 X164.97 Y105.797 E.04282
G1 X166.306 Y106.361 E.04547
G1 X167.524 Y106.951 E.04244
G1 X168.714 Y107.601 E.04251
G1 X169.862 Y108.304 E.0422
G1 X170.981 Y109.069 E.0425
G1 X172.054 Y109.882 E.04221
G1 X173.092 Y110.753 E.0425
G1 X174.087 Y111.675 E.04251
G1 X175.028 Y112.638 E.04221
G1 X175.926 Y113.653 E.04251
G1 X176.774 Y114.712 E.04252
G1 X177.567 Y115.812 E.04252
G1 X178.306 Y116.95 E.04252
G1 X178.987 Y118.122 E.04252
G1 X179.609 Y119.327 E.04252
G1 X180.17 Y120.562 E.04252
G1 X180.67 Y121.823 E.04252
G1 X181.106 Y123.107 E.04252
G1 X181.479 Y124.411 E.04252
G1 X181.786 Y125.732 E.04252
G1 X182.027 Y127.066 E.04252
G1 X182.202 Y128.411 E.04252
G1 X182.31 Y129.763 E.04252
G1 X182.351 Y131.118 E.04252
G1 X182.324 Y132.478 E.04263
G1 X182.214 Y134.004 E.04798
G1 X182.043 Y135.361 E.04287
G1 X181.807 Y136.696 E.04254
G1 X181.505 Y138.018 E.04252
G1 X181.137 Y139.324 E.04252
G1 X180.706 Y140.61 E.04252
G1 X180.212 Y141.871 E.04247
G1 X179.726 Y142.955 E.03724
G1 X179.045 Y144.302 E.04734
G1 X178.361 Y145.491 E.04301
G1 X177.627 Y146.632 E.04253
G1 X176.932 Y147.605 E.0375
G1 X175.81 Y149.011 E.05639
G1 X175.005 Y149.918 E.03803
G1 X173.946 Y150.99 E.04725
G1 X173.073 Y151.796 E.03727
G1 X172.034 Y152.666 E.04249
G1 X170.952 Y153.484 E.04252
G1 X169.831 Y154.247 E.04252
G1 X168.673 Y154.954 E.04252
G1 X167.482 Y155.603 E.04254
G1 X166.249 Y156.197 E.04291
G1 X164.837 Y156.786 E.04797
G1 X163.566 Y157.241 E.04232
G1 X162.268 Y157.634 E.04253
G1 X160.952 Y157.962 E.04253
G1 X159.621 Y158.224 E.04253
G1 X158.288 Y158.419 E.04223
G1 X156.938 Y158.549 E.04253
G1 X155.592 Y158.611 E.04224
G1 X154.236 Y158.607 E.04253
G1 X152.881 Y158.535 E.04253
G1 X151.531 Y158.397 E.04253
G1 X150.19 Y158.191 E.04254
G1 X148.861 Y157.92 E.04254
G1 X147.547 Y157.583 E.04254
G1 X146.251 Y157.181 E.04254
G1 X144.977 Y156.715 E.04254
G1 X143.727 Y156.187 E.04254
