; generated by PrusaSlicer 2.4.2+linux-x64-GTK2 on 2022-06-15 at 17:31:14 UTC

; 

; external perimeters extrusion width = 0.45mm
; perimeters extrusion width = 0.45mm
; infill extrusion width = 0.45mm
; solid infill extrusion width = 0.45mm
; top infill extrusion width = 0.40mm
; first layer extrusion width = 0.42mm

M107
;TYPE:Custom
G90 ; use absolute coordinates
M83 ; extruder relative mode
M140 S85 ; set final bed temp
M104 S150 ; set temporary nozzle temp to prevent oozing during homing
G4 S10 ; allow partial nozzle warmup
G28 ; home all axis
G1 Z50 F240
G1 X2 Y10 F3000
M104 S240 ; set final nozzle temp
M190 S85 ; wait for bed temp to stabilize
M109 S240 ; wait for nozzle temp to stabilize
G1 Z0.28 F240
G92 E0
G1 Y140 E10 F1500 ; prime the nozzle
G1 X2.3 F5000
G92 E0
G1 Y10 E10 F1200 ; prime the nozzle
G92 E0
G21 ; set units to millimeters
G90 ; use absolute coordinates
M83 ; use relative distances for extrusion
; Filament gcode
M107
;LAYER_CHANGE
;Z:0.2
;HEIGHT:0.2
;BEFORE_LAYER_CHANGE
G92 E0
;0.2


G1 E-6 F3600
G1 Z.2 F9000
;AFTER_LAYER_CHANGE
;0.2
G1 X87.447 Y99.122
G1 E6 F2400
M204 S500
;TYPE:Skirt/Brim
;WIDTH:0.42
G1 F1200
G1 X89.893 Y96.977 E.10198
G1 X92.599 Y95.042 E.10433
G1 X95.485 Y93.385 E.10433
G1 X98.521 Y92.025 E.10433
G1 X101.678 Y90.973 E.10432
G1 X104.924 Y90.241 E.10433
G1 X108.226 Y89.835 E.10433
G1 X111.553 Y89.761 E.10433
G1 X114.87 Y90.018 E.10432
G1 X118.146 Y90.604 E.10433
G1 X121.346 Y91.513 E.10433
G1 X124.287 Y92.667 E.09905
G1 X127.252 Y94.178 E.10433
G1 X130.051 Y95.976 E.10433
G1 X132.658 Y98.044 E.10433
G1 X135.046 Y100.361 E.10433
G1 X137.191 Y102.905 E.10433
G1 X139.072 Y105.649 E.10433
G1 X140.671 Y108.567 E.10433
G1 X141.971 Y111.63 E.10433
G1 X142.96 Y114.807 E.10433
G1 X143.627 Y118.067 E.10433
G1 X143.967 Y121.376 E.10433
G1 X143.975 Y124.704 E.10433
G1 X143.652 Y128.015 E.10433
G1 X143.001 Y131.278 E.10433
G1 X142.029 Y134.46 E.10433
G1 X140.744 Y137.53 E.10433
G1 X139.16 Y140.456 E.10433
G1 X137.293 Y143.21 E.10433
G1 X135.16 Y145.764 E.10433
G1 X133.826 Y147.127 E.0598
G1 X131.38 Y149.271 E.10198
G1 X128.674 Y151.207 E.10433
G1 X125.788 Y152.863 E.10433
G1 X122.752 Y154.224 E.10433
G1 X119.595 Y155.276 E.10432
G1 X116.349 Y156.008 E.10433
G1 X113.047 Y156.413 E.10433
G1 X109.72 Y156.488 E.10433
G1 X106.57 Y156.252 E.09905
G1 X103.292 Y155.682 E.10433
G1 X100.087 Y154.789 E.10433
G1 X96.986 Y153.581 E.10433
G1 X94.022 Y152.071 E.10433
G1 X91.222 Y150.273 E.10433
G1 X88.615 Y148.205 E.10433
G1 X86.228 Y145.887 E.10433
G1 X84.082 Y143.344 E.10433
G1 X82.201 Y140.6 E.10433
G1 X80.602 Y137.681 E.10433
G1 X79.302 Y134.619 E.10433
G1 X78.313 Y131.442 E.10433
G1 X77.646 Y128.182 E.10433
G1 X77.306 Y124.872 E.10433
G1 X77.298 Y121.545 E.10433
G1 X77.621 Y118.233 E.10433
G1 X78.272 Y114.97 E.10433
G1 X79.245 Y111.788 E.10433
G1 X80.529 Y108.719 E.10433
G1 X82.113 Y105.793 E.10433
G1 X83.981 Y103.039 E.10433
G1 X86.113 Y100.485 E.10433
G1 X87.405 Y99.165 E.05792
G1 E-4.2 F3600
;WIPE_START
G1 F7200
G1 X89.893 Y96.977 E-1.5734
G1 X90.127 Y96.81 E-.1366
;WIPE_END
G1 E-.09 F3600
G1 X129.722 Y120.811 F9000
G1 E6 F2400
;TYPE:Perimeter
G1 F1200
G1 X91.552 Y120.811 E1.19679
G1 X91.88 Y119.082 E.0552
G1 X92.103 Y118.16 E.02972
G1 X92.37 Y117.251 E.02972
G1 X92.683 Y116.356 E.02972
G1 X93.039 Y115.478 E.02972
G1 X93.438 Y114.618 E.02972
G1 X93.879 Y113.779 E.02972
G1 X94.361 Y112.963 E.02972
G1 X94.874 Y112.184 E.02927
G1 X95.442 Y111.408 E.03015
G1 X96.039 Y110.671 E.02972
G1 X96.672 Y109.966 E.02972
G1 X97.339 Y109.292 E.02972
G1 X98.038 Y108.653 E.02972
G1 X98.768 Y108.048 E.02972
G1 X99.527 Y107.48 E.02972
G1 X100.325 Y106.944 E.03015
G1 X101.124 Y106.461 E.02927
G1 X101.959 Y106.011 E.02972
G1 X102.815 Y105.604 E.02972
G1 X103.689 Y105.239 E.02972
G1 X104.581 Y104.918 E.02972
G1 X105.487 Y104.641 E.02972
G1 X106.406 Y104.409 E.02972
G1 X107.336 Y104.223 E.02972
G1 X108.273 Y104.083 E.02972
G1 X109.216 Y103.99 E.02972
G1 X110.163 Y103.943 E.02972
G1 X111.111 Y103.943 E.02972
G1 X112.057 Y103.99 E.02972
G1 X113 Y104.083 E.02972
G1 X113.938 Y104.223 E.02972
G1 X114.867 Y104.409 E.02972
G1 X115.786 Y104.641 E.02972
G1 X116.692 Y104.918 E.02972
G1 X117.584 Y105.239 E.02972
G1 X118.459 Y105.604 E.02972
G1 X119.314 Y106.011 E.02972
G1 X120.149 Y106.461 E.02972
G1 X120.96 Y106.951 E.02972
G1 X121.746 Y107.48 E.02972
G1 X122.505 Y108.048 E.02972
G1 X123.235 Y108.653 E.02972
G1 X123.934 Y109.292 E.02972
G1 X124.601 Y109.966 E.02972
G1 X125.234 Y110.671 E.02972
G1 X125.831 Y111.407 E.02972
G1 X126.391 Y112.172 E.02972
G1 X126.913 Y112.963 E.02972
G1 X127.395 Y113.779 E.02972
G1 X127.836 Y114.618 E.02972
G1 X128.235 Y115.478 E.02972
G1 X128.591 Y116.356 E.02972
G1 X128.903 Y117.251 E.02972
G1 X129.171 Y118.16 E.02972
G1 X129.393 Y119.082 E.02972
G1 X129.71 Y120.752 E.05332
G1 X129.266 Y120.434 F9000
;TYPE:External perimeter
G1 F1200
G1 X92.007 Y120.434 E1.16823
G1 X92.249 Y119.161 E.04063
G1 X92.467 Y118.258 E.02913
G1 X92.729 Y117.367 E.02913
G1 X93.036 Y116.489 E.02913
G1 X93.385 Y115.628 E.02913
G1 X93.776 Y114.786 E.02913
G1 X94.208 Y113.963 E.02913
G1 X94.681 Y113.163 E.02913
G1 X95.184 Y112.399 E.02869
G1 X95.741 Y111.638 E.02957
G1 X96.326 Y110.916 E.02913
G1 X96.947 Y110.224 E.02913
G1 X97.6 Y109.564 E.02913
G1 X98.286 Y108.937 E.02913
G1 X99.002 Y108.344 E.02913
G1 X99.746 Y107.788 E.02913
G1 X100.528 Y107.262 E.02957
G1 X101.311 Y106.788 E.02869
G1 X102.129 Y106.348 E.02913
G1 X102.968 Y105.948 E.02913
G1 X103.826 Y105.591 E.02913
G1 X104.7 Y105.276 E.02913
G1 X105.589 Y105.004 E.02913
G1 X106.489 Y104.777 E.02913
G1 X107.401 Y104.595 E.02913
G1 X108.319 Y104.457 E.02913
G1 X109.244 Y104.366 E.02913
G1 X110.172 Y104.32 E.02913
G1 X111.101 Y104.32 E.02913
G1 X112.029 Y104.366 E.02913
G1 X112.954 Y104.457 E.02913
G1 X113.873 Y104.595 E.02913
G1 X114.784 Y104.777 E.02913
G1 X115.685 Y105.004 E.02913
G1 X116.573 Y105.276 E.02913
G1 X117.448 Y105.591 E.02913
G1 X118.305 Y105.948 E.02913
G1 X119.144 Y106.348 E.02913
G1 X119.962 Y106.788 E.02913
G1 X120.757 Y107.269 E.02913
G1 X121.528 Y107.788 E.02913
G1 X122.272 Y108.344 E.02913
G1 X122.987 Y108.937 E.02913
G1 X123.673 Y109.564 E.02913
G1 X124.327 Y110.224 E.02913
G1 X124.947 Y110.916 E.02913
G1 X125.532 Y111.638 E.02913
G1 X126.081 Y112.387 E.02913
G1 X126.593 Y113.163 E.02913
G1 X127.065 Y113.963 E.02913
G1 X127.497 Y114.786 E.02913
G1 X127.889 Y115.628 E.02913
G1 X128.238 Y116.489 E.02913
G1 X128.544 Y117.367 E.02913
G1 X128.806 Y118.258 E.02913
G1 X129.025 Y119.161 E.02913
G1 X129.255 Y120.375 E.03875
G1 X129.294 Y120.833 F9000
G1 E-4.2 F3600
;WIPE_START
G1 F7200
G1 X125.655 Y120.381 E-1.71
;WIPE_END
G1 E-.09 F3600
G1 X129.722 Y125.437 F9000
G1 E6 F2400
;TYPE:Perimeter
G1 F1200
G1 X129.393 Y127.167 E.0552
G1 X129.171 Y128.088 E.02972
G1 X128.903 Y128.997 E.02972
G1 X128.591 Y129.892 E.02972
G1 X128.235 Y130.77 E.02972
G1 X127.836 Y131.63 E.02972
G1 X127.395 Y132.469 E.02972
G1 X126.913 Y133.285 E.02972
G1 X126.391 Y134.076 E.02972
G1 X125.831 Y134.841 E.02972
G1 X125.234 Y135.577 E.02972
G1 X124.601 Y136.283 E.02972
G1 X123.934 Y136.956 E.02972
G1 X123.235 Y137.596 E.02972
G1 X122.505 Y138.2 E.02972
G1 X121.746 Y138.768 E.02972
G1 X120.96 Y139.298 E.02972
G1 X120.149 Y139.788 E.02972
G1 X119.314 Y140.237 E.02972
G1 X118.459 Y140.645 E.02972
G1 X117.584 Y141.01 E.02972
G1 X116.692 Y141.331 E.02972
G1 X115.786 Y141.608 E.02972
G1 X114.867 Y141.839 E.02972
G1 X113.924 Y142.028 E.03015
G1 X113 Y142.165 E.02927
G1 X112.057 Y142.259 E.02972
G1 X111.111 Y142.306 E.02972
G1 X110.163 Y142.306 E.02972
G1 X109.216 Y142.259 E.02972
G1 X108.273 Y142.165 E.02972
G1 X107.336 Y142.025 E.02972
G1 X106.406 Y141.839 E.02972
G1 X105.487 Y141.608 E.02972
G1 X104.581 Y141.331 E.02972
G1 X103.689 Y141.01 E.02972
G1 X102.815 Y140.645 E.02972
G1 X101.959 Y140.237 E.02972
G1 X101.112 Y139.78 E.03015
G1 X100.313 Y139.298 E.02927
G1 X99.527 Y138.768 E.02972
G1 X98.768 Y138.2 E.02972
G1 X98.038 Y137.596 E.02972
G1 X97.339 Y136.956 E.02972
G1 X96.672 Y136.283 E.02972
G1 X96.039 Y135.577 E.02972
G1 X95.442 Y134.841 E.02972
G1 X94.874 Y134.065 E.03015
G1 X94.361 Y133.285 E.02927
G1 X93.879 Y132.469 E.02972
G1 X93.438 Y131.63 E.02972
G1 X93.039 Y130.77 E.02972
G1 X92.683 Y129.892 E.02972
G1 X92.37 Y128.997 E.02972
G1 X92.103 Y128.088 E.02972
G1 X91.88 Y127.167 E.02972
G1 X91.552 Y125.437 E.0552
G1 X129.662 Y125.437 E1.19491
G1 X129.266 Y125.814 F9000
;TYPE:External perimeter
G1 F1200
G1 X129.025 Y127.087 E.04063
G1 X128.806 Y127.991 E.02913
G1 X128.544 Y128.882 E.02913
G1 X128.238 Y129.759 E.02913
G1 X127.889 Y130.62 E.02913
G1 X127.497 Y131.463 E.02913
G1 X127.065 Y132.285 E.02913
G1 X126.593 Y133.085 E.02913
G1 X126.081 Y133.861 E.02913
G1 X125.532 Y134.611 E.02913
G1 X124.947 Y135.332 E.02913
G1 X124.327 Y136.024 E.02913
G1 X123.673 Y136.684 E.02913
G1 X122.987 Y137.311 E.02913
G1 X122.272 Y137.904 E.02913
G1 X121.528 Y138.461 E.02913
G1 X120.757 Y138.98 E.02913
G1 X119.962 Y139.46 E.02913
G1 X119.144 Y139.901 E.02913
G1 X118.305 Y140.3 E.02913
G1 X117.448 Y140.658 E.02913
G1 X116.573 Y140.973 E.02913
G1 X115.685 Y141.244 E.02913
G1 X114.784 Y141.471 E.02914
G1 X113.859 Y141.656 E.02957
G1 X112.954 Y141.791 E.02869
G1 X112.029 Y141.883 E.02913
G1 X111.101 Y141.929 E.02913
G1 X110.172 Y141.929 E.02913
G1 X109.244 Y141.883 E.02913
G1 X108.319 Y141.791 E.02913
G1 X107.401 Y141.654 E.02913
G1 X106.489 Y141.471 E.02913
G1 X105.589 Y141.244 E.02913
G1 X104.7 Y140.973 E.02913
G1 X103.826 Y140.658 E.02913
G1 X102.968 Y140.3 E.02913
G1 X102.129 Y139.901 E.02913
G1 X101.299 Y139.453 E.02957
G1 X100.516 Y138.98 E.02869
G1 X99.746 Y138.461 E.02913
G1 X99.002 Y137.904 E.02913
G1 X98.286 Y137.311 E.02913
G1 X97.6 Y136.684 E.02913
G1 X96.947 Y136.024 E.02913
G1 X96.326 Y135.332 E.02913
G1 X95.741 Y134.611 E.02913
G1 X95.184 Y133.849 E.02957
G1 X94.681 Y133.085 E.02869
G1 X94.208 Y132.285 E.02913
G1 X93.776 Y131.463 E.02913
G1 X93.385 Y130.62 E.02913
G1 X93.036 Y129.759 E.02913
G1 X92.729 Y128.882 E.02913
G1 X92.467 Y127.991 E.02913
G1 X92.249 Y127.087 E.02913
G1 X92.007 Y125.814 E.04063
G1 X129.206 Y125.814 E1.16635
G1 X129.664 Y125.86 F9000
G1 E-4.2 F3600
;WIPE_START
G1 F7200
G1 X129.025 Y127.087 E-.61086
G1 X128.806 Y127.991 E-.44134
G1 X128.544 Y128.882 E-.44134
G1 X128.394 Y129.312 E-.21646
;WIPE_END
G1 E-.09 F3600
G1 X139.669 Y127.118 F9000
G1 E6 F2400
;TYPE:Perimeter
G1 F1200
G1 X139.622 Y127.493 E.01186
G1 X139.368 Y128.932 E.04583
G1 X139.043 Y130.357 E.04583
G1 X138.647 Y131.764 E.04583
G1 X138.182 Y133.15 E.04583
G1 X137.648 Y134.51 E.04583
G1 X137.046 Y135.843 E.04583
G1 X136.38 Y137.143 E.04583
G1 X135.649 Y138.409 E.04583
G1 X134.856 Y139.637 E.04583
G1 X134.003 Y140.823 E.04583
G1 X133.091 Y141.966 E.04583
G1 X132.125 Y143.061 E.0458
G1 X131.051 Y144.157 E.04809
G1 X130.032 Y145.102 E.04358
G1 X128.913 Y146.042 E.04583
G1 X127.748 Y146.924 E.04583
G1 X126.54 Y147.748 E.04583
G1 X125.293 Y148.51 E.04583
G1 X124.009 Y149.209 E.04583
G1 X122.693 Y149.843 E.04583
G1 X121.346 Y150.411 E.04583
G1 X119.972 Y150.911 E.04583
G1 X118.576 Y151.341 E.04583
G1 X117.159 Y151.702 E.04583
G1 X115.727 Y151.992 E.04582
G1 X114.282 Y152.209 E.04583
G1 X112.827 Y152.355 E.04583
G1 X111.367 Y152.428 E.04583
G1 X109.906 Y152.428 E.04583
G1 X108.446 Y152.355 E.04583
G1 X106.992 Y152.209 E.04583
G1 X105.547 Y151.992 E.04583
G1 X104.114 Y151.702 E.04583
G1 X102.698 Y151.341 E.04583
G1 X101.301 Y150.911 E.04583
G1 X99.928 Y150.411 E.04583
G1 X98.581 Y149.843 E.04583
G1 X97.264 Y149.209 E.04583
G1 X95.98 Y148.51 E.04583
G1 X94.733 Y147.748 E.04583
G1 X93.526 Y146.924 E.04583
G1 X92.36 Y146.042 E.04583
G1 X91.241 Y145.102 E.04583
G1 X90.169 Y144.108 E.04583
G1 X89.149 Y143.062 E.04583
G1 X88.182 Y141.966 E.04582
G1 X87.271 Y140.823 E.04583
G1 X86.417 Y139.637 E.04583
G1 X85.624 Y138.409 E.04583
G1 X84.894 Y137.143 E.04583
G1 X84.227 Y135.843 E.04583
G1 X83.626 Y134.51 E.04583
G1 X83.092 Y133.15 E.04583
G1 X82.626 Y131.764 E.04583
G1 X82.23 Y130.357 E.04583
G1 X81.905 Y128.932 E.04583
G1 X81.651 Y127.493 E.04583
G1 X81.47 Y126.043 E.04583
G1 X81.36 Y124.585 E.04583
G1 X81.324 Y123.124 E.04583
G1 X81.36 Y121.663 E.04583
G1 X81.47 Y120.206 E.04583
G1 X81.651 Y118.755 E.04583
G1 X81.905 Y117.316 E.04583
G1 X82.23 Y115.891 E.04583
G1 X82.626 Y114.484 E.04583
G1 X83.092 Y113.099 E.04583
G1 X83.626 Y111.738 E.04583
G1 X84.227 Y110.406 E.04583
G1 X84.894 Y109.105 E.04583
G1 X85.624 Y107.84 E.04583
G1 X86.417 Y106.612 E.04583
G1 X87.271 Y105.425 E.04583
G1 X88.182 Y104.282 E.04583
G1 X89.149 Y103.187 E.04582
G1 X90.169 Y102.14 E.04583
G1 X91.241 Y101.146 E.04583
G1 X92.36 Y100.207 E.04583
G1 X93.526 Y99.324 E.04583
G1 X94.733 Y98.501 E.04583
G1 X95.98 Y97.739 E.04583
G1 X97.264 Y97.04 E.04583
G1 X98.581 Y96.406 E.04583
G1 X99.928 Y95.838 E.04583
G1 X101.301 Y95.338 E.04583
G1 X102.698 Y94.907 E.04583
G1 X104.114 Y94.546 E.04583
G1 X105.547 Y94.257 E.04582
G1 X106.992 Y94.039 E.04583
G1 X108.446 Y93.893 E.04583
G1 X109.905 Y93.821 E.0458
G1 X111.439 Y93.824 E.04809
G1 X112.827 Y93.893 E.04358
G1 X114.282 Y94.039 E.04583
G1 X115.727 Y94.257 E.04583
G1 X117.159 Y94.546 E.04583
G1 X118.576 Y94.907 E.04583
G1 X119.972 Y95.338 E.04583
G1 X121.346 Y95.838 E.04583
G1 X122.693 Y96.406 E.04583
G1 X124.009 Y97.04 E.04583
G1 X125.293 Y97.739 E.04583
G1 X126.54 Y98.501 E.04583
G1 X127.748 Y99.324 E.04583
G1 X128.913 Y100.207 E.04583
G1 X130.032 Y101.146 E.04583
G1 X131.104 Y102.14 E.04583
G1 X132.124 Y103.187 E.04583
G1 X133.091 Y104.282 E.04582
G1 X134.003 Y105.425 E.04583
G1 X134.856 Y106.612 E.04583
G1 X135.649 Y107.84 E.04583
G1 X136.38 Y109.105 E.04583
G1 X137.047 Y110.406 E.04583
G1 X137.648 Y111.738 E.04583
G1 X138.182 Y113.099 E.04583
G1 X138.647 Y114.484 E.04583
G1 X139.043 Y115.891 E.04583
G1 X139.368 Y117.316 E.04583
G1 X139.622 Y118.755 E.04583
G1 X139.804 Y120.206 E.04583
G1 X139.913 Y121.663 E.04583
G1 X139.949 Y123.124 E.04583
G1 X139.913 Y124.585 E.04583
G1 X139.804 Y126.043 E.04583
G1 X139.676 Y127.058 E.03209
G1 X140.043 Y127.165 F9000
;TYPE:External perimeter
G1 F1200
G1 X139.995 Y127.549 E.01215
G1 X139.738 Y129.007 E.04642
G1 X139.408 Y130.45 E.04641
G1 X139.008 Y131.876 E.04642
G1 X138.536 Y133.279 E.04642
G1 X137.995 Y134.657 E.04642
G1 X137.386 Y136.006 E.04642
G1 X136.711 Y137.324 E.04642
G1 X135.971 Y138.606 E.04642
G1 X135.168 Y139.849 E.04642
G1 X134.303 Y141.051 E.04642
G1 X133.38 Y142.209 E.04642
G1 X132.401 Y143.318 E.04641
G1 X131.314 Y144.427 E.04868
G1 X130.282 Y145.385 E.04416
G1 X129.148 Y146.337 E.04642
G1 X127.968 Y147.231 E.04642
G1 X126.745 Y148.065 E.04642
G1 X125.482 Y148.836 E.04642
G1 X124.182 Y149.544 E.04642
G1 X122.848 Y150.187 E.04642
G1 X121.484 Y150.762 E.04642
G1 X120.092 Y151.268 E.04642
G1 X118.678 Y151.704 E.04642
G1 X117.243 Y152.07 E.04642
G1 X115.792 Y152.363 E.04642
G1 X114.328 Y152.584 E.04642
G1 X112.855 Y152.731 E.04642
G1 X111.377 Y152.805 E.04642
G1 X109.896 Y152.805 E.04642
G1 X108.418 Y152.731 E.04642
G1 X106.945 Y152.584 E.04642
G1 X105.481 Y152.363 E.04642
G1 X104.03 Y152.07 E.04642
G1 X102.595 Y151.704 E.04642
G1 X101.181 Y151.268 E.04642
G1 X99.79 Y150.762 E.04642
G1 X98.426 Y150.187 E.04642
G1 X97.092 Y149.544 E.04642
G1 X95.792 Y148.836 E.04642
G1 X94.529 Y148.065 E.04642
G1 X93.305 Y147.231 E.04642
G1 X92.125 Y146.337 E.04642
G1 X90.991 Y145.385 E.04642
G1 X89.906 Y144.378 E.04642
G1 X88.872 Y143.318 E.04642
G1 X87.893 Y142.209 E.04641
G1 X86.97 Y141.051 E.04642
G1 X86.106 Y139.849 E.04642
G1 X85.303 Y138.606 E.04642
G1 X84.562 Y137.324 E.04642
G1 X83.887 Y136.006 E.04642
G1 X83.278 Y134.657 E.04642
G1 X82.737 Y133.279 E.04642
G1 X82.266 Y131.876 E.04642
G1 X81.865 Y130.45 E.04642
G1 X81.535 Y129.007 E.04642
G1 X81.278 Y127.549 E.04642
G1 X81.094 Y126.08 E.04642
G1 X80.984 Y124.604 E.04641
G1 X80.947 Y123.124 E.04642
G1 X80.984 Y121.644 E.04642
G1 X81.094 Y120.168 E.04641
G1 X81.278 Y118.699 E.04642
G1 X81.535 Y117.241 E.04642
G1 X81.865 Y115.798 E.04641
G1 X82.266 Y114.373 E.04642
G1 X82.737 Y112.97 E.04642
G1 X83.278 Y111.592 E.04642
G1 X83.887 Y110.242 E.04642
G1 X84.562 Y108.925 E.04642
G1 X85.303 Y107.643 E.04642
