; generated by PrusaSlicer 2.4.2+linux-x64-GTK2 on 2022-06-16 at 02:58:55 UTC

; 

; external perimeters extrusion width = 0.45mm
; perimeters extrusion width = 0.45mm
; infill extrusion width = 0.45mm
; solid infill extrusion width = 0.45mm
; top infill extrusion width = 0.40mm
; first layer extrusion width = 0.42mm

M107
;TYPE:Custom
G90 ; use absolute coordinates
M83 ; extruder relative mode
M140 S85 ; set final bed temp
;M104 S150 ; set temporary nozzle temp to prevent oozing during homing
G4 S10 ; allow partial nozzle warmup
G28 ; home all axis
G1 Z50 F240
G1 X2 Y10 F3000
M104 S245 ; set final nozzle temp
M190 S85 ; wait for bed temp to stabilize
M109 S245 ; wait for nozzle temp to stabilize
G1 Z0.28 F240
G92 E0
G1 Y140 E10 F1500 ; prime the nozzle
G1 X2.3 F5000
G92 E0
G1 Y10 E10 F1200 ; prime the nozzle
G92 E0
G21 ; set units to millimeters
G90 ; use absolute coordinates
M83 ; use relative distances for extrusion
; Filament gcode
M107
;LAYER_CHANGE
;Z:0.2
;HEIGHT:0.2
;BEFORE_LAYER_CHANGE
G92 E0
;0.2


G1 E-6 F3600
G1 Z.2 F9000
;AFTER_LAYER_CHANGE
;0.2
G1 X49.029 Y217.258
G1 E6 F2400
M204 S500
;TYPE:Skirt/Brim
;WIDTH:0.42
G1 F1200
G1 X50.386 Y216.952 E.04363
G1 X53.787 Y216.534 E.10745
G1 X57.213 Y216.457 E.10745
G1 X60.63 Y216.722 E.10745
G1 X64.004 Y217.325 E.10745
G1 X67.3 Y218.261 E.10745
G1 X70.487 Y219.521 E.10745
G1 X73.533 Y221.092 E.10745
G1 X76.407 Y222.958 E.10745
G1 X78.955 Y224.99 E.10218
G1 X81.414 Y227.377 E.10745
G1 X83.624 Y229.997 E.10745
G1 X85.561 Y232.824 E.10745
G1 X87.207 Y235.829 E.10745
G1 X88.546 Y238.984 E.10745
G1 X89.565 Y242.256 E.10745
G1 X90.252 Y245.614 E.10745
G1 X90.601 Y249.023 E.10745
G1 X90.61 Y252.45 E.10745
G1 X90.277 Y255.861 E.10745
G1 X89.606 Y259.221 E.10745
G1 X88.604 Y262.499 E.10745
G1 X87.281 Y265.66 E.10745
G1 X85.649 Y268.673 E.10745
G1 X83.725 Y271.51 E.10745
G1 X81.529 Y274.14 E.10745
G1 X80.045 Y275.646 E.06628
G1 X77.64 Y277.749 E.10019
G1 X74.852 Y279.743 E.10745
G1 X71.88 Y281.449 E.10745
G1 X68.753 Y282.851 E.10745
G1 X65.502 Y283.934 E.10745
G1 X62.159 Y284.689 E.10745
G1 X58.757 Y285.107 E.10745
G1 X55.331 Y285.184 E.10745
G1 X51.914 Y284.919 E.10745
G1 X48.541 Y284.316 E.10745
G1 X45.244 Y283.38 E.10745
G1 X42.057 Y282.12 E.10745
G1 X39.011 Y280.549 E.10745
G1 X36.137 Y278.683 E.10745
G1 X33.589 Y276.651 E.10218
G1 X31.13 Y274.264 E.10745
G1 X28.921 Y271.644 E.10745
G1 X26.983 Y268.817 E.10745
G1 X25.337 Y265.811 E.10745
G1 X23.998 Y262.657 E.10745
G1 X22.98 Y259.385 E.10745
G1 X22.293 Y256.027 E.10745
G1 X21.943 Y252.618 E.10745
G1 X21.935 Y249.191 E.10745
G1 X22.268 Y245.78 E.10745
G1 X22.938 Y242.419 E.10745
G1 X23.941 Y239.142 E.10745
G1 X25.264 Y235.981 E.10745
G1 X26.896 Y232.967 E.10745
G1 X28.819 Y230.131 E.10745
G1 X31.016 Y227.501 E.10745
G1 X32.5 Y225.995 E.06628
G1 X34.905 Y223.892 E.10018
G1 X37.692 Y221.898 E.10745
G1 X40.664 Y220.192 E.10745
G1 X43.792 Y218.79 E.10745
G1 X47.043 Y217.706 E.10745
G1 X48.97 Y217.272 E.06195
G1 E-4.2 F3600
;WIPE_START
G1 F7200
G1 X50.386 Y216.952 E-.6894
G1 X52.518 Y216.69 E-1.0206
;WIPE_END
G1 E-.09 F3600
G1 X75.357 Y248.508 F9000
G1 E6 F2400
;TYPE:Perimeter
G1 F1200
G1 X37.187 Y248.508 E1.19679
G1 X37.516 Y246.778 E.0552
G1 X37.738 Y245.857 E.02972
G1 X38.006 Y244.947 E.02972
G1 X38.318 Y244.053 E.02972
G1 X38.674 Y243.174 E.02972
G1 X39.073 Y242.315 E.02972
G1 X39.514 Y241.476 E.02972
G1 X39.996 Y240.66 E.02972
G1 X40.51 Y239.88 E.02927
G1 X41.078 Y239.104 E.03015
G1 X41.675 Y238.368 E.02972
G1 X42.308 Y237.662 E.02972
G1 X42.975 Y236.988 E.02972
G1 X43.674 Y236.349 E.02972
G1 X44.404 Y235.744 E.02972
G1 X45.163 Y235.176 E.02972
G1 X45.961 Y234.64 E.03015
G1 X46.76 Y234.157 E.02927
G1 X47.595 Y233.708 E.02972
G1 X48.45 Y233.3 E.02972
G1 X49.325 Y232.935 E.02972
G1 X50.217 Y232.614 E.02972
G1 X51.123 Y232.337 E.02972
G1 X52.042 Y232.105 E.02972
G1 X52.971 Y231.919 E.02972
G1 X53.909 Y231.779 E.02972
G1 X54.852 Y231.686 E.02972
G1 X55.798 Y231.639 E.02972
G1 X56.746 Y231.639 E.02972
G1 X57.693 Y231.686 E.02972
G1 X58.636 Y231.779 E.02972
G1 X59.573 Y231.919 E.02972
G1 X60.503 Y232.105 E.02972
G1 X61.422 Y232.337 E.02972
G1 X62.328 Y232.614 E.02972
G1 X63.22 Y232.935 E.02972
G1 X64.094 Y233.3 E.02972
G1 X64.95 Y233.708 E.02972
G1 X65.784 Y234.157 E.02972
G1 X66.596 Y234.647 E.02972
G1 X67.382 Y235.177 E.02972
G1 X68.141 Y235.744 E.02972
G1 X68.871 Y236.349 E.02972
G1 X69.57 Y236.988 E.02972
G1 X70.237 Y237.662 E.02972
G1 X70.87 Y238.368 E.02972
G1 X71.467 Y239.104 E.02972
G1 X72.027 Y239.868 E.02972
G1 X72.548 Y240.66 E.02972
G1 X73.03 Y241.476 E.02972
G1 X73.471 Y242.315 E.02972
G1 X73.87 Y243.174 E.02972
G1 X74.226 Y244.053 E.02972
G1 X74.539 Y244.947 E.02972
G1 X74.806 Y245.857 E.02972
G1 X75.029 Y246.778 E.02972
G1 X75.346 Y248.449 E.05332
G1 X74.902 Y248.13 F9000
;TYPE:External perimeter
G1 F1200
G1 X37.643 Y248.13 E1.16823
G1 X37.884 Y246.857 E.04063
G1 X38.103 Y245.954 E.02913
G1 X38.365 Y245.063 E.02913
G1 X38.671 Y244.186 E.02913
G1 X39.02 Y243.325 E.02913
G1 X39.411 Y242.482 E.02913
G1 X39.844 Y241.659 E.02913
G1 X40.316 Y240.859 E.02913
G1 X40.82 Y240.095 E.02869
G1 X41.377 Y239.334 E.02957
G1 X41.962 Y238.612 E.02913
G1 X42.582 Y237.921 E.02913
G1 X43.236 Y237.26 E.02913
G1 X43.921 Y236.633 E.02913
G1 X44.637 Y236.041 E.02913
G1 X45.381 Y235.484 E.02913
G1 X46.164 Y234.958 E.02957
G1 X46.947 Y234.485 E.02869
G1 X47.765 Y234.044 E.02913
G1 X48.604 Y233.644 E.02913
G1 X49.461 Y233.287 E.02913
G1 X50.336 Y232.972 E.02913
G1 X51.224 Y232.7 E.02913
G1 X52.125 Y232.473 E.02913
G1 X53.036 Y232.291 E.02913
G1 X53.955 Y232.154 E.02913
G1 X54.88 Y232.062 E.02913
G1 X55.808 Y232.016 E.02913
G1 X56.737 Y232.016 E.02913
G1 X57.665 Y232.062 E.02913
G1 X58.589 Y232.154 E.02913
G1 X59.508 Y232.291 E.02913
G1 X60.419 Y232.473 E.02913
G1 X61.32 Y232.7 E.02913
G1 X62.209 Y232.972 E.02913
G1 X63.083 Y233.287 E.02913
G1 X63.941 Y233.644 E.02913
G1 X64.779 Y234.044 E.02913
G1 X65.597 Y234.485 E.02913
G1 X66.393 Y234.965 E.02913
G1 X67.163 Y235.484 E.02913
G1 X67.907 Y236.041 E.02913
G1 X68.623 Y236.633 E.02913
G1 X69.309 Y237.26 E.02913
G1 X69.962 Y237.921 E.02913
G1 X70.583 Y238.612 E.02913
G1 X71.168 Y239.334 E.02913
G1 X71.717 Y240.084 E.02913
G1 X72.228 Y240.859 E.02913
G1 X72.701 Y241.659 E.02913
G1 X73.133 Y242.482 E.02913
G1 X73.524 Y243.325 E.02913
G1 X73.873 Y244.186 E.02913
G1 X74.18 Y245.063 E.02913
G1 X74.442 Y245.954 E.02913
G1 X74.66 Y246.857 E.02913
G1 X74.891 Y248.071 E.03875
G1 X74.93 Y248.529 F9000
G1 E-4.2 F3600
;WIPE_START
G1 F7200
G1 X71.291 Y248.077 E-1.71
;WIPE_END
G1 E-.09 F3600
G1 X75.357 Y253.133 F9000
G1 E6 F2400
;TYPE:Perimeter
G1 F1200
G1 X75.029 Y254.863 E.0552
G1 X74.806 Y255.784 E.02972
G1 X74.539 Y256.693 E.02972
G1 X74.226 Y257.588 E.02972
G1 X73.87 Y258.467 E.02972
G1 X73.471 Y259.326 E.02972
G1 X73.03 Y260.165 E.02972
G1 X72.548 Y260.981 E.02972
G1 X72.027 Y261.773 E.02972
G1 X71.467 Y262.537 E.02972
G1 X70.87 Y263.273 E.02972
G1 X70.237 Y263.979 E.02972
G1 X69.57 Y264.652 E.02972
G1 X68.871 Y265.292 E.02972
G1 X68.141 Y265.897 E.02972
G1 X67.382 Y266.464 E.02972
G1 X66.596 Y266.994 E.02972
G1 X65.784 Y267.484 E.02972
G1 X64.95 Y267.933 E.02972
G1 X64.094 Y268.341 E.02972
G1 X63.22 Y268.706 E.02972
G1 X62.328 Y269.027 E.02972
G1 X61.422 Y269.304 E.02972
G1 X60.502 Y269.536 E.02972
G1 X59.559 Y269.724 E.03015
G1 X58.636 Y269.862 E.02927
G1 X57.693 Y269.955 E.02972
G1 X56.746 Y270.002 E.02972
G1 X55.798 Y270.002 E.02972
G1 X54.852 Y269.955 E.02972
G1 X53.909 Y269.862 E.02972
G1 X52.971 Y269.722 E.02972
G1 X52.042 Y269.536 E.02972
G1 X51.123 Y269.304 E.02972
G1 X50.217 Y269.027 E.02972
G1 X49.325 Y268.706 E.02972
G1 X48.45 Y268.341 E.02972
G1 X47.594 Y267.933 E.02972
G1 X46.748 Y267.477 E.03015
G1 X45.949 Y266.994 E.02927
G1 X45.163 Y266.464 E.02972
G1 X44.404 Y265.897 E.02972
G1 X43.674 Y265.292 E.02972
G1 X42.975 Y264.652 E.02972
G1 X42.308 Y263.979 E.02972
G1 X41.675 Y263.273 E.02972
G1 X41.078 Y262.537 E.02972
G1 X40.51 Y261.761 E.03015
G1 X39.996 Y260.981 E.02927
G1 X39.514 Y260.165 E.02972
G1 X39.073 Y259.326 E.02972
G1 X38.674 Y258.467 E.02972
G1 X38.318 Y257.588 E.02972
G1 X38.006 Y256.693 E.02972
G1 X37.738 Y255.784 E.02972
G1 X37.516 Y254.863 E.02972
G1 X37.187 Y253.133 E.0552
G1 X75.297 Y253.133 E1.19491
G1 X74.902 Y253.51 F9000
;TYPE:External perimeter
G1 F1200
G1 X74.66 Y254.784 E.04063
G1 X74.442 Y255.687 E.02913
G1 X74.18 Y256.578 E.02913
G1 X73.873 Y257.455 E.02913
G1 X73.524 Y258.316 E.02913
G1 X73.133 Y259.159 E.02913
G1 X72.701 Y259.982 E.02913
G1 X72.228 Y260.782 E.02913
G1 X71.717 Y261.557 E.02913
G1 X71.168 Y262.307 E.02913
G1 X70.583 Y263.028 E.02913
G1 X69.962 Y263.72 E.02913
G1 X69.309 Y264.38 E.02913
G1 X68.623 Y265.008 E.02913
G1 X67.907 Y265.6 E.02913
G1 X67.163 Y266.157 E.02913
G1 X66.393 Y266.676 E.02913
G1 X65.598 Y267.156 E.02913
G1 X64.779 Y267.597 E.02913
G1 X63.941 Y267.996 E.02913
G1 X63.083 Y268.354 E.02913
G1 X62.209 Y268.669 E.02913
G1 X61.32 Y268.94 E.02913
G1 X60.419 Y269.168 E.02914
G1 X59.495 Y269.352 E.02957
G1 X58.589 Y269.487 E.02869
G1 X57.665 Y269.579 E.02913
G1 X56.737 Y269.625 E.02913
G1 X55.808 Y269.625 E.02913
G1 X54.88 Y269.579 E.02913
G1 X53.955 Y269.487 E.02913
G1 X53.036 Y269.35 E.02913
G1 X52.125 Y269.168 E.02913
G1 X51.224 Y268.94 E.02913
G1 X50.336 Y268.669 E.02913
G1 X49.461 Y268.354 E.02913
G1 X48.604 Y267.996 E.02913
G1 X47.765 Y267.597 E.02913
G1 X46.935 Y267.149 E.02957
G1 X46.152 Y266.676 E.02869
G1 X45.381 Y266.157 E.02913
G1 X44.637 Y265.6 E.02913
G1 X43.921 Y265.008 E.02913
G1 X43.236 Y264.38 E.02913
G1 X42.582 Y263.72 E.02913
G1 X41.962 Y263.028 E.02913
G1 X41.377 Y262.307 E.02913
G1 X40.82 Y261.546 E.02957
G1 X40.316 Y260.782 E.02869
G1 X39.844 Y259.982 E.02913
G1 X39.411 Y259.159 E.02913
G1 X39.02 Y258.316 E.02913
G1 X38.671 Y257.455 E.02913
G1 X38.365 Y256.578 E.02913
G1 X38.103 Y255.687 E.02913
G1 X37.884 Y254.784 E.02913
G1 X37.643 Y253.51 E.04063
G1 X74.842 Y253.51 E1.16635
G1 X75.299 Y253.556 F9000
G1 E-4.2 F3600
;WIPE_START
G1 F7200
G1 X74.66 Y254.784 E-.61086
G1 X74.442 Y255.687 E-.44134
G1 X74.18 Y256.578 E-.44134
G1 X74.029 Y257.008 E-.21646
;WIPE_END
G1 E-.09 F3600
G1 X86.297 Y254.938 F9000
G1 E6 F2400
;TYPE:Perimeter
G1 F1200
G1 X86.246 Y255.338 E.01264
G1 X85.984 Y256.827 E.04739
G1 X85.648 Y258.3 E.04739
G1 X85.238 Y259.755 E.04739
G1 X84.757 Y261.188 E.04739
G1 X84.205 Y262.595 E.04739
G1 X83.583 Y263.973 E.04739
G1 X82.894 Y265.318 E.04739
G1 X82.138 Y266.627 E.04739
G1 X81.318 Y267.896 E.04739
G1 X80.436 Y269.123 E.04739
G1 X79.493 Y270.305 E.04739
G1 X78.493 Y271.438 E.04739
G1 X77.438 Y272.52 E.04739
G1 X76.33 Y273.548 E.04739
G1 X75.172 Y274.52 E.04739
G1 X73.967 Y275.432 E.04739
G1 X72.718 Y276.284 E.04739
G1 X71.429 Y277.072 E.04739
G1 X70.101 Y277.795 E.04739
G1 X68.739 Y278.451 E.04739
G1 X67.347 Y279.038 E.04739
G1 X65.927 Y279.554 E.04737
G1 X64.41 Y280.018 E.04973
G1 X63.017 Y280.373 E.04507
G1 X61.536 Y280.673 E.04739
G1 X60.041 Y280.898 E.04739
G1 X58.538 Y281.048 E.04739
G1 X57.028 Y281.124 E.04739
G1 X55.517 Y281.124 E.04739
G1 X54.007 Y281.048 E.04739
G1 X52.503 Y280.898 E.04739
G1 X51.009 Y280.673 E.04739
G1 X49.527 Y280.373 E.04739
G1 X48.062 Y280 E.04739
G1 X46.618 Y279.555 E.04739
G1 X45.198 Y279.038 E.04739
G1 X43.805 Y278.451 E.04739
G1 X42.443 Y277.795 E.04739
G1 X41.116 Y277.072 E.04739
G1 X39.826 Y276.284 E.04739
G1 X38.577 Y275.432 E.04739
G1 X37.373 Y274.52 E.04739
G1 X36.215 Y273.548 E.04739
G1 X35.107 Y272.52 E.04739
G1 X34.051 Y271.438 E.04739
G1 X33.051 Y270.305 E.04739
G1 X32.109 Y269.123 E.04739
G1 X31.227 Y267.896 E.04739
G1 X30.407 Y266.627 E.04739
G1 X29.651 Y265.318 E.04739
G1 X28.961 Y263.973 E.04739
G1 X28.34 Y262.595 E.04739
G1 X27.788 Y261.188 E.04739
G1 X27.306 Y259.755 E.04739
G1 X26.897 Y258.3 E.04739
G1 X26.561 Y256.827 E.04739
G1 X26.298 Y255.338 E.04739
G1 X26.11 Y253.839 E.04739
G1 X25.997 Y252.331 E.04739
G1 X25.96 Y250.82 E.04739
G1 X25.997 Y249.309 E.04739
G1 X26.11 Y247.802 E.04739
G1 X26.298 Y246.303 E.04739
G1 X26.561 Y244.814 E.04739
G1 X26.897 Y243.341 E.04739
G1 X27.306 Y241.886 E.04739
G1 X27.788 Y240.453 E.04739
G1 X28.34 Y239.046 E.04739
G1 X28.961 Y237.668 E.04739
G1 X29.651 Y236.323 E.04739
G1 X30.407 Y235.014 E.04739
G1 X31.227 Y233.745 E.04739
G1 X32.109 Y232.517 E.04739
G1 X33.051 Y231.336 E.04739
G1 X34.052 Y230.203 E.04739
G1 X35.107 Y229.121 E.04739
G1 X36.215 Y228.093 E.04739
G1 X37.373 Y227.121 E.04739
G1 X38.577 Y226.208 E.04739
G1 X39.826 Y225.357 E.04739
G1 X41.116 Y224.569 E.04739
G1 X42.443 Y223.846 E.04739
G1 X43.805 Y223.19 E.04739
G1 X45.198 Y222.603 E.04739
G1 X46.618 Y222.086 E.04739
G1 X48.062 Y221.641 E.04739
G1 X49.527 Y221.268 E.04739
G1 X51.009 Y220.968 E.04739
G1 X52.503 Y220.743 E.04739
G1 X54.007 Y220.592 E.04739
G1 X55.516 Y220.517 E.04737
G1 X57.102 Y220.521 E.04973
G1 X58.538 Y220.592 E.04507
G1 X60.041 Y220.743 E.04739
G1 X61.536 Y220.968 E.04739
G1 X63.017 Y221.268 E.04739
G1 X64.482 Y221.641 E.04739
G1 X65.926 Y222.086 E.04739
G1 X67.347 Y222.603 E.04739
G1 X68.739 Y223.19 E.04739
G1 X70.101 Y223.846 E.04739
G1 X71.429 Y224.569 E.04739
G1 X72.718 Y225.357 E.04739
G1 X73.967 Y226.208 E.04739
G1 X75.172 Y227.121 E.04739
G1 X76.33 Y228.093 E.04739
G1 X77.438 Y229.121 E.04739
G1 X78.493 Y230.203 E.04739
G1 X79.493 Y231.336 E.04739
G1 X80.436 Y232.517 E.04739
G1 X81.318 Y233.745 E.04739
G1 X82.138 Y235.014 E.04739
G1 X82.894 Y236.323 E.04739
G1 X83.583 Y237.668 E.04739
G1 X84.205 Y239.046 E.04739
G1 X84.757 Y240.453 E.04739
G1 X85.238 Y241.886 E.04739
G1 X85.648 Y243.341 E.04739
G1 X85.984 Y244.814 E.04739
G1 X86.246 Y246.303 E.04739
G1 X86.434 Y247.802 E.04739
G1 X86.547 Y249.309 E.04739
G1 X86.585 Y250.82 E.04739
G1 X86.547 Y252.331 E.04739
G1 X86.434 Y253.839 E.04739
G1 X86.304 Y254.879 E.03287
G1 X86.671 Y254.985 F9000
;TYPE:External perimeter
G1 F1200
G1 X86.619 Y255.395 E.01293
G1 X86.354 Y256.902 E.04798
G1 X86.013 Y258.393 E.04798
G1 X85.599 Y259.866 E.04798
G1 X85.111 Y261.317 E.04798
G1 X84.552 Y262.741 E.04798
G1 X83.923 Y264.136 E.04798
G1 X83.225 Y265.498 E.04798
G1 X82.46 Y266.823 E.04798
G1 X81.629 Y268.109 E.04798
G1 X80.736 Y269.351 E.04798
G1 X79.782 Y270.548 E.04798
G1 X78.77 Y271.695 E.04798
G1 X77.701 Y272.79 E.04798
G1 X76.579 Y273.831 E.04798
G1 X75.407 Y274.815 E.04798
G1 X74.187 Y275.739 E.04798
G1 X72.923 Y276.601 E.04798
G1 X71.617 Y277.399 E.04798
G1 X70.273 Y278.131 E.04798
G1 X68.895 Y278.794 E.04798
G1 X67.485 Y279.389 E.04798
G1 X66.047 Y279.912 E.04797
G1 X64.512 Y280.382 E.05032
G1 X63.101 Y280.741 E.04564
G1 X61.602 Y281.044 E.04798
G1 X60.088 Y281.272 E.04798
G1 X58.566 Y281.425 E.04798
G1 X57.037 Y281.501 E.04798
G1 X55.507 Y281.501 E.04798
G1 X53.979 Y281.425 E.04798
G1 X52.456 Y281.272 E.04798
G1 X50.943 Y281.044 E.04798
G1 X49.443 Y280.741 E.04798
G1 X47.96 Y280.363 E.04798
G1 X46.498 Y279.912 E.04798
G1 X45.06 Y279.389 E.04798
G1 X43.65 Y278.794 E.04798
G1 X42.271 Y278.131 E.04798
G1 X40.927 Y277.399 E.04798
G1 X39.622 Y276.601 E.04798
G1 X38.357 Y275.739 E.04798
G1 X37.137 Y274.815 E.04798
G1 X35.965 Y273.831 E.04798
G1 X34.843 Y272.79 E.04798
G1 X33.775 Y271.695 E.04798
G1 X32.762 Y270.548 E.04798
G1 X31.808 Y269.351 E.04798
G1 X30.915 Y268.109 E.04798
G1 X30.085 Y266.823 E.04798
G1 X29.32 Y265.498 E.04798
G1 X28.622 Y264.136 E.04798
G1 X27.992 Y262.741 E.04798
G1 X27.433 Y261.317 E.04798
G1 X26.946 Y259.866 E.04798
G1 X26.531 Y258.393 E.04798
G1 X26.191 Y256.902 E.04798
G1 X25.925 Y255.395 E.04798
G1 X25.735 Y253.876 E.04798
G1 X25.621 Y252.35 E.04798
G1 X25.582 Y250.82 E.04798
G1 X25.621 Y249.291 E.04798
G1 X25.735 Y247.765 E.04798
G1 X25.925 Y246.246 E.04798
G1 X26.191 Y244.739 E.04798
G1 X26.531 Y243.247 E.04798
G1 X26.946 Y241.774 E.04798
G1 X27.433 Y240.324 E.04798
G1 X27.992 Y238.899 E.04798
G1 X28.622 Y237.505 E.04798
G1 X29.32 Y236.143 E.04798
G1 X30.085 Y234.818 E.04798
G1 X30.915 Y233.532 E.04798
G1 X31.808 Y232.29 E.04798
G1 X32.762 Y231.093 E.04798
G1 X33.775 Y229.946 E.04798
G1 X34.843 Y228.851 E.04798
G1 X35.965 Y227.81 E.04798
G1 X37.137 Y226.826 E.04798
G1 X38.357 Y225.902 E.04798
G1 X39.622 Y225.04 E.04798
