; generated by PrusaSlicer 2.4.2+linux-x64-GTK2 on 2022-06-15 at 19:03:49 UTC

; 

; external perimeters extrusion width = 0.45mm
; perimeters extrusion width = 0.45mm
; infill extrusion width = 0.45mm
; solid infill extrusion width = 0.45mm
; top infill extrusion width = 0.40mm
; first layer extrusion width = 0.42mm

M107
;TYPE:Custom
G90 ; use absolute coordinates
M83 ; extruder relative mode
M140 S85 ; set final bed temp
;M104 S150 ; set temporary nozzle temp to prevent oozing during homing
G4 S10 ; allow partial nozzle warmup
G28 ; home all axis
G1 Z50 F240
G1 X2 Y10 F3000
M104 S245 ; set final nozzle temp
M190 S85 ; wait for bed temp to stabilize
M109 S245 ; wait for nozzle temp to stabilize
G1 Z0.28 F240
G92 E0
G1 Y140 E10 F1500 ; prime the nozzle
G1 X2.3 F5000
G92 E0
G1 Y10 E10 F1200 ; prime the nozzle
G92 E0
G21 ; set units to millimeters
G90 ; use absolute coordinates
M83 ; use relative distances for extrusion
; Filament gcode
M107
;LAYER_CHANGE
;Z:0.2
;HEIGHT:0.2
;BEFORE_LAYER_CHANGE
G92 E0
;0.2


G1 E-6 F3600
G1 Z.2 F9000
;AFTER_LAYER_CHANGE
;0.2
G1 X197.744 Y110.583
G1 E6 F2400
M204 S500
;TYPE:Skirt/Brim
;WIDTH:0.42
G1 F1200
G1 X199.612 Y107.829 E.10433
G1 X201.744 Y105.274 E.10433
G1 X203.078 Y103.912 E.0598
G1 X205.524 Y101.767 E.10198
G1 X208.23 Y99.832 E.10433
G1 X211.116 Y98.175 E.10433
G1 X214.152 Y96.815 E.10433
G1 X217.309 Y95.763 E.10432
G1 X220.555 Y95.031 E.10433
G1 X223.858 Y94.625 E.10433
G1 X227.184 Y94.551 E.10433
G1 X230.501 Y94.808 E.10432
G1 X233.777 Y95.394 E.10433
G1 X236.977 Y96.303 E.10433
G1 X239.918 Y97.457 E.09905
G1 X242.883 Y98.968 E.10433
G1 X245.682 Y100.766 E.10433
G1 X248.289 Y102.834 E.10433
G1 X250.677 Y105.151 E.10433
G1 X252.822 Y107.694 E.10433
G1 X254.703 Y110.439 E.10433
G1 X256.302 Y113.357 E.10433
G1 X257.602 Y116.42 E.10433
G1 X258.591 Y119.597 E.10433
G1 X259.258 Y122.856 E.10433
G1 X259.598 Y126.166 E.10433
G1 X259.606 Y129.494 E.10433
G1 X259.284 Y132.805 E.10433
G1 X258.632 Y136.068 E.10433
G1 X257.66 Y139.25 E.10433
G1 X256.375 Y142.32 E.10433
G1 X254.791 Y145.246 E.10433
G1 X252.924 Y148 E.10433
G1 X250.791 Y150.554 E.10433
G1 X249.457 Y151.917 E.0598
G1 X247.012 Y154.061 E.10198
G1 X244.305 Y155.997 E.10433
G1 X241.419 Y157.653 E.10433
G1 X238.383 Y159.014 E.10433
G1 X235.226 Y160.066 E.10432
G1 X231.981 Y160.798 E.10433
G1 X228.678 Y161.203 E.10433
G1 X225.352 Y161.278 E.10433
G1 X222.201 Y161.042 E.09905
G1 X218.923 Y160.472 E.10433
G1 X215.718 Y159.579 E.10433
G1 X212.617 Y158.371 E.10433
G1 X209.653 Y156.861 E.10433
G1 X206.853 Y155.063 E.10433
G1 X204.246 Y152.995 E.10433
G1 X201.859 Y150.677 E.10433
G1 X199.713 Y148.134 E.10433
G1 X197.832 Y145.389 E.10433
G1 X196.234 Y142.471 E.10433
G1 X194.933 Y139.409 E.10433
G1 X193.945 Y136.232 E.10433
G1 X193.277 Y132.972 E.10433
G1 X192.937 Y129.662 E.10433
G1 X192.929 Y126.335 E.10433
G1 X193.252 Y123.023 E.10433
G1 X193.903 Y119.76 E.10433
G1 X194.876 Y116.578 E.10433
G1 X196.16 Y113.509 E.10433
G1 X197.716 Y110.635 E.10244
G1 E-4.2 F3600
;WIPE_START
G1 F7200
G1 X199.612 Y107.829 E-1.60883
G1 X199.748 Y107.665 E-.10117
;WIPE_END
G1 E-.09 F3600
G1 X245.353 Y125.601 F9000
G1 E6 F2400
;TYPE:Perimeter
G1 F1200
G1 X207.183 Y125.601 E1.19679
G1 X207.511 Y123.872 E.0552
G1 X207.734 Y122.95 E.02972
G1 X208.001 Y122.041 E.02972
G1 X208.314 Y121.146 E.02972
G1 X208.67 Y120.268 E.02972
G1 X209.069 Y119.408 E.02972
G1 X209.51 Y118.569 E.02972
G1 X209.992 Y117.753 E.02972
G1 X210.506 Y116.974 E.02927
G1 X211.073 Y116.198 E.03015
G1 X211.671 Y115.461 E.02972
G1 X212.303 Y114.756 E.02972
G1 X212.97 Y114.082 E.02972
G1 X213.669 Y113.442 E.02972
G1 X214.399 Y112.838 E.02972
G1 X215.158 Y112.27 E.02972
G1 X215.956 Y111.733 E.03015
G1 X216.756 Y111.251 E.02927
G1 X217.59 Y110.801 E.02972
G1 X218.446 Y110.394 E.02972
G1 X219.32 Y110.029 E.02972
G1 X220.212 Y109.708 E.02972
G1 X221.118 Y109.431 E.02972
G1 X222.037 Y109.199 E.02972
G1 X222.967 Y109.013 E.02972
G1 X223.904 Y108.873 E.02972
G1 X224.847 Y108.78 E.02972
G1 X225.794 Y108.733 E.02972
G1 X226.742 Y108.733 E.02972
G1 X227.688 Y108.78 E.02972
G1 X228.631 Y108.873 E.02972
G1 X229.569 Y109.013 E.02972
G1 X230.498 Y109.199 E.02972
G1 X231.417 Y109.431 E.02972
G1 X232.324 Y109.708 E.02972
G1 X233.215 Y110.029 E.02972
G1 X234.09 Y110.394 E.02972
G1 X234.946 Y110.801 E.02972
G1 X235.78 Y111.251 E.02972
G1 X236.591 Y111.741 E.02972
G1 X237.377 Y112.27 E.02972
G1 X238.136 Y112.838 E.02972
G1 X238.866 Y113.442 E.02972
G1 X239.565 Y114.082 E.02972
G1 X240.232 Y114.756 E.02972
G1 X240.865 Y115.461 E.02972
G1 X241.462 Y116.197 E.02972
G1 X242.022 Y116.962 E.02972
G1 X242.544 Y117.753 E.02972
G1 X243.026 Y118.569 E.02972
G1 X243.467 Y119.408 E.02972
G1 X243.866 Y120.268 E.02972
G1 X244.222 Y121.146 E.02972
G1 X244.534 Y122.041 E.02972
G1 X244.802 Y122.95 E.02972
G1 X245.024 Y123.872 E.02972
G1 X245.341 Y125.542 E.05332
G1 X244.897 Y125.224 F9000
;TYPE:External perimeter
G1 F1200
G1 X207.638 Y125.224 E1.16823
G1 X207.88 Y123.951 E.04063
G1 X208.098 Y123.048 E.02913
G1 X208.36 Y122.157 E.02913
G1 X208.667 Y121.279 E.02913
G1 X209.016 Y120.418 E.02913
G1 X209.407 Y119.576 E.02913
G1 X209.839 Y118.753 E.02913
G1 X210.312 Y117.953 E.02913
G1 X210.815 Y117.189 E.02869
G1 X211.372 Y116.428 E.02957
G1 X211.957 Y115.706 E.02913
G1 X212.578 Y115.014 E.02913
G1 X213.231 Y114.354 E.02913
G1 X213.917 Y113.727 E.02913
G1 X214.633 Y113.134 E.02913
G1 X215.377 Y112.578 E.02913
G1 X216.159 Y112.052 E.02957
G1 X216.943 Y111.578 E.02869
G1 X217.761 Y111.138 E.02913
G1 X218.599 Y110.738 E.02913
G1 X219.457 Y110.38 E.02913
G1 X220.331 Y110.065 E.02913
G1 X221.22 Y109.794 E.02913
G1 X222.121 Y109.567 E.02913
G1 X223.032 Y109.385 E.02913
G1 X223.951 Y109.247 E.02913
G1 X224.875 Y109.156 E.02913
G1 X225.803 Y109.11 E.02913
G1 X226.732 Y109.11 E.02913
G1 X227.66 Y109.156 E.02913
G1 X228.585 Y109.247 E.02913
G1 X229.504 Y109.385 E.02913
G1 X230.415 Y109.567 E.02913
G1 X231.316 Y109.794 E.02913
G1 X232.204 Y110.065 E.02913
G1 X233.079 Y110.38 E.02913
G1 X233.936 Y110.738 E.02913
G1 X234.775 Y111.138 E.02913
G1 X235.593 Y111.578 E.02913
G1 X236.388 Y112.059 E.02913
G1 X237.159 Y112.578 E.02913
G1 X237.903 Y113.134 E.02913
G1 X238.619 Y113.727 E.02913
G1 X239.304 Y114.354 E.02913
G1 X239.958 Y115.014 E.02913
G1 X240.578 Y115.706 E.02913
G1 X241.163 Y116.428 E.02913
G1 X241.712 Y117.177 E.02913
G1 X242.224 Y117.953 E.02913
G1 X242.696 Y118.753 E.02913
G1 X243.129 Y119.576 E.02913
G1 X243.52 Y120.418 E.02913
G1 X243.869 Y121.279 E.02913
G1 X244.175 Y122.157 E.02913
G1 X244.437 Y123.048 E.02913
G1 X244.656 Y123.951 E.02913
G1 X244.886 Y125.165 E.03875
G1 X244.925 Y125.623 F9000
G1 E-4.2 F3600
;WIPE_START
G1 F7200
G1 X241.286 Y125.171 E-1.71
;WIPE_END
G1 E-.09 F3600
G1 X245.353 Y130.227 F9000
G1 E6 F2400
;TYPE:Perimeter
G1 F1200
G1 X245.024 Y131.957 E.0552
G1 X244.802 Y132.878 E.02972
G1 X244.534 Y133.787 E.02972
G1 X244.222 Y134.682 E.02972
G1 X243.866 Y135.56 E.02972
G1 X243.467 Y136.42 E.02972
G1 X243.026 Y137.259 E.02972
G1 X242.544 Y138.075 E.02972
G1 X242.022 Y138.866 E.02972
G1 X241.462 Y139.631 E.02972
G1 X240.865 Y140.367 E.02972
G1 X240.232 Y141.073 E.02972
G1 X239.565 Y141.746 E.02972
G1 X238.866 Y142.386 E.02972
G1 X238.136 Y142.99 E.02972
G1 X237.377 Y143.558 E.02972
G1 X236.591 Y144.088 E.02972
G1 X235.78 Y144.578 E.02972
G1 X234.946 Y145.027 E.02972
G1 X234.09 Y145.435 E.02972
G1 X233.215 Y145.8 E.02972
G1 X232.324 Y146.121 E.02972
G1 X231.417 Y146.398 E.02972
G1 X230.498 Y146.629 E.02972
G1 X229.555 Y146.817 E.03015
G1 X228.631 Y146.955 E.02927
G1 X227.688 Y147.049 E.02972
G1 X226.742 Y147.096 E.02972
G1 X225.794 Y147.096 E.02972
G1 X224.847 Y147.049 E.02972
G1 X223.904 Y146.955 E.02972
G1 X222.967 Y146.815 E.02972
G1 X222.037 Y146.629 E.02972
G1 X221.118 Y146.398 E.02972
G1 X220.212 Y146.121 E.02972
G1 X219.32 Y145.8 E.02972
G1 X218.446 Y145.435 E.02972
G1 X217.59 Y145.027 E.02972
G1 X216.743 Y144.57 E.03015
G1 X215.944 Y144.088 E.02927
G1 X215.158 Y143.558 E.02972
G1 X214.399 Y142.99 E.02972
G1 X213.669 Y142.386 E.02972
G1 X212.97 Y141.746 E.02972
G1 X212.303 Y141.073 E.02972
G1 X211.671 Y140.367 E.02972
G1 X211.073 Y139.631 E.02972
G1 X210.506 Y138.855 E.03015
G1 X209.992 Y138.075 E.02927
G1 X209.51 Y137.259 E.02972
G1 X209.069 Y136.42 E.02972
G1 X208.67 Y135.56 E.02972
G1 X208.314 Y134.682 E.02972
G1 X208.001 Y133.787 E.02972
G1 X207.734 Y132.878 E.02972
G1 X207.511 Y131.957 E.02972
G1 X207.183 Y130.227 E.0552
G1 X245.293 Y130.227 E1.19491
G1 X244.897 Y130.604 F9000
;TYPE:External perimeter
G1 F1200
G1 X244.656 Y131.877 E.04063
G1 X244.437 Y132.78 E.02913
G1 X244.175 Y133.672 E.02913
G1 X243.869 Y134.549 E.02913
G1 X243.52 Y135.41 E.02913
G1 X243.129 Y136.253 E.02913
G1 X242.696 Y137.075 E.02913
G1 X242.224 Y137.875 E.02913
G1 X241.712 Y138.651 E.02913
G1 X241.163 Y139.401 E.02913
G1 X240.578 Y140.122 E.02913
G1 X239.958 Y140.814 E.02913
G1 X239.304 Y141.474 E.02913
G1 X238.619 Y142.101 E.02913
G1 X237.903 Y142.694 E.02913
G1 X237.159 Y143.251 E.02913
G1 X236.388 Y143.77 E.02913
G1 X235.593 Y144.25 E.02913
G1 X234.775 Y144.691 E.02913
G1 X233.936 Y145.09 E.02913
G1 X233.079 Y145.448 E.02913
G1 X232.204 Y145.763 E.02913
G1 X231.316 Y146.034 E.02913
G1 X230.415 Y146.261 E.02914
G1 X229.49 Y146.446 E.02957
G1 X228.585 Y146.581 E.02869
G1 X227.66 Y146.673 E.02913
G1 X226.732 Y146.719 E.02913
G1 X225.803 Y146.719 E.02913
G1 X224.875 Y146.673 E.02913
G1 X223.951 Y146.581 E.02913
G1 X223.032 Y146.444 E.02913
G1 X222.121 Y146.261 E.02913
G1 X221.22 Y146.034 E.02913
G1 X220.331 Y145.763 E.02913
G1 X219.457 Y145.448 E.02913
G1 X218.599 Y145.09 E.02913
G1 X217.761 Y144.691 E.02913
G1 X216.931 Y144.243 E.02957
G1 X216.147 Y143.77 E.02869
G1 X215.377 Y143.251 E.02913
G1 X214.633 Y142.694 E.02913
G1 X213.917 Y142.101 E.02913
G1 X213.231 Y141.474 E.02913
G1 X212.578 Y140.814 E.02913
G1 X211.957 Y140.122 E.02913
G1 X211.372 Y139.401 E.02913
G1 X210.815 Y138.639 E.02957
G1 X210.312 Y137.875 E.02869
G1 X209.839 Y137.075 E.02913
G1 X209.407 Y136.253 E.02913
G1 X209.016 Y135.41 E.02913
G1 X208.667 Y134.549 E.02913
G1 X208.36 Y133.672 E.02913
G1 X208.098 Y132.78 E.02913
G1 X207.88 Y131.877 E.02913
G1 X207.638 Y130.604 E.04063
G1 X244.837 Y130.604 E1.16635
G1 X245.295 Y130.65 F9000
G1 E-4.2 F3600
;WIPE_START
G1 F7200
G1 X244.656 Y131.877 E-.61086
G1 X244.437 Y132.78 E-.44134
G1 X244.175 Y133.672 E-.44134
G1 X244.025 Y134.102 E-.21646
;WIPE_END
G1 E-.09 F3600
G1 X255.3 Y131.908 F9000
G1 E6 F2400
;TYPE:Perimeter
G1 F1200
G1 X255.253 Y132.283 E.01186
G1 X254.999 Y133.722 E.04583
G1 X254.674 Y135.147 E.04583
G1 X254.278 Y136.554 E.04583
G1 X253.813 Y137.94 E.04583
G1 X253.279 Y139.3 E.04583
G1 X252.678 Y140.632 E.04583
G1 X252.011 Y141.933 E.04583
G1 X251.28 Y143.199 E.04583
G1 X250.487 Y144.427 E.04583
G1 X249.634 Y145.613 E.04583
G1 X248.723 Y146.756 E.04583
G1 X247.756 Y147.851 E.0458
G1 X246.682 Y148.947 E.04809
G1 X245.664 Y149.892 E.04358
G1 X244.544 Y150.832 E.04583
G1 X243.379 Y151.714 E.04583
G1 X242.171 Y152.538 E.04583
G1 X240.924 Y153.3 E.04583
G1 X239.641 Y153.999 E.04583
G1 X238.324 Y154.633 E.04583
G1 X236.977 Y155.201 E.04583
G1 X235.603 Y155.7 E.04583
G1 X234.207 Y156.131 E.04583
G1 X232.79 Y156.492 E.04583
G1 X231.358 Y156.782 E.04582
G1 X229.913 Y156.999 E.04583
G1 X228.458 Y157.145 E.04583
G1 X226.999 Y157.218 E.04583
G1 X225.537 Y157.218 E.04583
G1 X224.077 Y157.145 E.04583
G1 X222.623 Y156.999 E.04583
G1 X221.178 Y156.782 E.04583
G1 X219.745 Y156.492 E.04583
G1 X218.329 Y156.131 E.04583
G1 X216.932 Y155.7 E.04583
G1 X215.559 Y155.201 E.04583
G1 X214.212 Y154.633 E.04583
G1 X212.895 Y153.999 E.04583
G1 X211.611 Y153.3 E.04583
G1 X210.364 Y152.538 E.04583
G1 X209.157 Y151.714 E.04583
G1 X207.992 Y150.832 E.04583
G1 X206.872 Y149.892 E.04583
G1 X205.801 Y148.898 E.04583
G1 X204.78 Y147.852 E.04583
G1 X203.813 Y146.756 E.04582
G1 X202.902 Y145.613 E.04583
G1 X202.048 Y144.427 E.04583
G1 X201.255 Y143.199 E.04583
G1 X200.525 Y141.933 E.04583
G1 X199.858 Y140.632 E.04583
G1 X199.257 Y139.3 E.04583
G1 X198.723 Y137.94 E.04583
G1 X198.257 Y136.554 E.04583
G1 X197.861 Y135.147 E.04583
G1 X197.536 Y133.722 E.04583
G1 X197.282 Y132.283 E.04583
G1 X197.101 Y130.833 E.04583
G1 X196.991 Y129.375 E.04583
G1 X196.955 Y127.914 E.04583
G1 X196.991 Y126.453 E.04583
G1 X197.101 Y124.996 E.04583
G1 X197.282 Y123.545 E.04583
G1 X197.536 Y122.106 E.04583
G1 X197.861 Y120.681 E.04583
G1 X198.257 Y119.274 E.04583
G1 X198.723 Y117.889 E.04583
G1 X199.257 Y116.528 E.04583
G1 X199.858 Y115.196 E.04583
G1 X200.525 Y113.895 E.04583
G1 X201.255 Y112.629 E.04583
G1 X202.048 Y111.402 E.04583
G1 X202.902 Y110.215 E.04583
G1 X203.813 Y109.072 E.04583
G1 X204.78 Y107.976 E.04582
G1 X205.801 Y106.93 E.04583
G1 X206.872 Y105.936 E.04583
G1 X207.992 Y104.997 E.04583
G1 X209.157 Y104.114 E.04583
G1 X210.364 Y103.291 E.04583
G1 X211.611 Y102.529 E.04583
G1 X212.895 Y101.83 E.04583
G1 X214.212 Y101.195 E.04583
G1 X215.559 Y100.628 E.04583
G1 X216.932 Y100.128 E.04583
G1 X218.329 Y99.697 E.04583
G1 X219.745 Y99.336 E.04583
G1 X221.178 Y99.047 E.04582
G1 X222.623 Y98.829 E.04583
G1 X224.077 Y98.683 E.04583
G1 X225.536 Y98.611 E.0458
G1 X227.07 Y98.614 E.04809
G1 X228.458 Y98.683 E.04358
G1 X229.913 Y98.829 E.04583
G1 X231.358 Y99.047 E.04583
G1 X232.79 Y99.336 E.04583
G1 X234.207 Y99.697 E.04583
G1 X235.603 Y100.128 E.04583
G1 X236.977 Y100.628 E.04583
G1 X238.324 Y101.195 E.04583
G1 X239.641 Y101.83 E.04583
G1 X240.924 Y102.529 E.04583
G1 X242.171 Y103.291 E.04583
G1 X243.379 Y104.114 E.04583
G1 X244.544 Y104.997 E.04583
G1 X245.664 Y105.936 E.04583
G1 X246.735 Y106.93 E.04583
G1 X247.756 Y107.976 E.04583
G1 X248.723 Y109.072 E.04582
G1 X249.634 Y110.215 E.04583
G1 X250.487 Y111.402 E.04583
G1 X251.28 Y112.629 E.04583
G1 X252.011 Y113.895 E.04583
G1 X252.678 Y115.196 E.04583
G1 X253.279 Y116.528 E.04583
G1 X253.813 Y117.889 E.04583
G1 X254.278 Y119.274 E.04583
G1 X254.674 Y120.681 E.04583
G1 X254.999 Y122.106 E.04583
G1 X255.253 Y123.545 E.04583
G1 X255.435 Y124.996 E.04583
G1 X255.544 Y126.453 E.04583
G1 X255.58 Y127.914 E.04583
G1 X255.544 Y129.375 E.04583
G1 X255.435 Y130.833 E.04583
G1 X255.308 Y131.848 E.03209
G1 X255.674 Y131.955 F9000
;TYPE:External perimeter
G1 F1200
G1 X255.626 Y132.339 E.01215
G1 X255.369 Y133.797 E.04642
G1 X255.04 Y135.24 E.04641
G1 X254.639 Y136.665 E.04642
G1 X254.167 Y138.069 E.04642
G1 X253.626 Y139.447 E.04642
G1 X253.017 Y140.796 E.04642
G1 X252.342 Y142.113 E.04642
G1 X251.602 Y143.396 E.04642
G1 X250.799 Y144.639 E.04642
G1 X249.935 Y145.841 E.04642
G1 X249.012 Y146.998 E.04642
G1 X248.032 Y148.108 E.04641
G1 X246.946 Y149.217 E.04868
G1 X245.913 Y150.175 E.04416
G1 X244.779 Y151.127 E.04642
G1 X243.599 Y152.021 E.04642
G1 X242.376 Y152.854 E.04642
G1 X241.113 Y153.626 E.04642
G1 X239.813 Y154.334 E.04642
G1 X238.479 Y154.977 E.04642
G1 X237.115 Y155.552 E.04642
G1 X235.724 Y156.058 E.04642
G1 X234.309 Y156.494 E.04642
G1 X232.874 Y156.86 E.04642
G1 X231.423 Y157.153 E.04642
G1 X229.96 Y157.374 E.04642
G1 X228.486 Y157.521 E.04642
G1 X227.008 Y157.595 E.04642
G1 X225.528 Y157.595 E.04642
G1 X224.049 Y157.521 E.04642
G1 X222.576 Y157.374 E.04642
G1 X221.112 Y157.153 E.04642
G1 X219.661 Y156.86 E.04642
G1 X218.227 Y156.494 E.04642
G1 X216.812 Y156.058 E.04642
G1 X215.421 Y155.552 E.04642
G1 X214.057 Y154.977 E.04642
G1 X212.723 Y154.334 E.04642
G1 X211.423 Y153.626 E.04642
G1 X210.16 Y152.854 E.04642
G1 X208.936 Y152.021 E.04642
G1 X207.756 Y151.127 E.04642
G1 X206.622 Y150.175 E.04642
G1 X205.537 Y149.168 E.04642
G1 X204.503 Y148.108 E.04642
G1 X203.524 Y146.998 E.04641
G1 X202.601 Y145.841 E.04642
G1 X201.737 Y144.639 E.04642
G1 X200.934 Y143.396 E.04642
G1 X200.193 Y142.114 E.04642
G1 X199.518 Y140.796 E.04642
G1 X198.909 Y139.447 E.04642
G1 X198.368 Y138.069 E.04642
G1 X197.897 Y136.665 E.04642
G1 X197.496 Y135.24 E.04642
G1 X197.167 Y133.797 E.04642
G1 X196.909 Y132.339 E.04642
G1 X196.725 Y130.87 E.04642
G1 X196.615 Y129.394 E.04641
G1 X196.578 Y127.914 E.04642
G1 X196.615 Y126.434 E.04642
G1 X196.725 Y124.958 E.04641
G1 X196.909 Y123.489 E.04642
G1 X197.167 Y122.031 E.04642
