; generated by PrusaSlicer 2.4.2+linux-x64-GTK2 on 2022-06-15 at 21:06:10 UTC

; 

; external perimeters extrusion width = 0.45mm
; perimeters extrusion width = 0.45mm
; infill extrusion width = 0.45mm
; solid infill extrusion width = 0.45mm
; top infill extrusion width = 0.40mm
; first layer extrusion width = 0.42mm

M107
;TYPE:Custom
G90 ; use absolute coordinates
M83 ; extruder relative mode
M140 S85 ; set final bed temp
;M104 S150 ; set temporary nozzle temp to prevent oozing during homing
G4 S10 ; allow partial nozzle warmup
G28 ; home all axis
G1 Z50 F240
G1 X2 Y10 F3000
M104 S245 ; set final nozzle temp
M190 S85 ; wait for bed temp to stabilize
M109 S245 ; wait for nozzle temp to stabilize
G1 Z0.28 F240
G92 E0
G1 Y140 E10 F1500 ; prime the nozzle
G1 X2.3 F5000
G92 E0
G1 Y10 E10 F1200 ; prime the nozzle
G92 E0
G21 ; set units to millimeters
G90 ; use absolute coordinates
M83 ; use relative distances for extrusion
; Filament gcode
M107
;LAYER_CHANGE
;Z:0.2
;HEIGHT:0.2
;BEFORE_LAYER_CHANGE
G92 E0
;0.2


G1 E-6 F3600
G1 Z.2 F9000
;AFTER_LAYER_CHANGE
;0.2
G1 X224.095 Y219.079
G1 E6 F2400
M204 S500
;TYPE:Skirt/Brim
;WIDTH:0.42
G1 F1200
G1 X225.619 Y217.533 E.06808
G1 X228.094 Y215.368 E.10308
G1 X230.962 Y213.316 E.11058
G1 X234.02 Y211.56 E.11058
G1 X237.238 Y210.117 E.11058
G1 X240.584 Y209.002 E.11058
G1 X244.024 Y208.225 E.11058
G1 X247.525 Y207.795 E.11058
G1 X251.05 Y207.716 E.11058
G1 X254.567 Y207.988 E.11058
G1 X258.038 Y208.608 E.11058
G1 X261.431 Y209.572 E.11058
G1 X264.711 Y210.868 E.11058
G1 X267.845 Y212.484 E.11058
G1 X270.803 Y214.405 E.11058
G1 X273.555 Y216.61 E.11058
G1 X276.074 Y219.079 E.11058
G1 X278.335 Y221.786 E.11058
G1 X280.314 Y224.704 E.11058
G1 X281.92 Y227.654 E.1053
G1 X283.298 Y230.9 E.11058
G1 X284.346 Y234.268 E.11058
G1 X285.053 Y237.723 E.11058
G1 X285.412 Y241.231 E.11058
G1 X285.421 Y244.758 E.11058
G1 X285.078 Y248.268 E.11058
G1 X284.387 Y251.726 E.11058
G1 X283.356 Y255.099 E.11058
G1 X281.994 Y258.352 E.11058
G1 X280.314 Y261.453 E.11058
G1 X278.335 Y264.372 E.11058
G1 X276.074 Y267.079 E.11058
G1 X274.549 Y268.625 E.06808
G1 X272.075 Y270.789 E.10308
G1 X269.207 Y272.841 E.11058
G1 X266.148 Y274.597 E.11058
G1 X262.93 Y276.04 E.11058
G1 X259.585 Y277.155 E.11058
G1 X256.144 Y277.932 E.11058
G1 X252.644 Y278.362 E.11058
G1 X249.118 Y278.442 E.11058
G1 X245.602 Y278.17 E.11058
G1 X242.13 Y277.549 E.11058
G1 X238.738 Y276.586 E.11058
G1 X235.458 Y275.289 E.11058
G1 X232.323 Y273.673 E.11058
G1 X229.365 Y271.753 E.11058
G1 X226.613 Y269.547 E.11058
G1 X224.095 Y267.079 E.11058
G1 X221.834 Y264.372 E.11058
G1 X219.854 Y261.453 E.11058
G1 X218.248 Y258.504 E.1053
G1 X216.87 Y255.257 E.11058
G1 X215.823 Y251.89 E.11058
G1 X215.116 Y248.434 E.11058
G1 X214.756 Y244.926 E.11058
G1 X214.748 Y241.399 E.11058
G1 X215.091 Y237.889 E.11058
G1 X215.781 Y234.431 E.11058
G1 X216.813 Y231.058 E.11058
G1 X218.175 Y227.805 E.11058
G1 X219.854 Y224.704 E.11058
G1 X221.834 Y221.786 E.11058
G1 X224.056 Y219.125 E.1087
G1 E-4.2 F3600
;WIPE_START
G1 F7200
G1 X225.619 Y217.533 E-1.05979
G1 X226.649 Y216.631 E-.65021
;WIPE_END
G1 E-.09 F3600
G1 X269.169 Y240.766 F9000
G1 E6 F2400
;TYPE:Perimeter
G1 F1200
G1 X230.999 Y240.766 E1.19679
G1 X231.328 Y239.036 E.0552
G1 X231.55 Y238.115 E.02972
G1 X231.818 Y237.206 E.02972
G1 X232.13 Y236.311 E.02972
G1 X232.486 Y235.432 E.02972
G1 X232.885 Y234.573 E.02972
G1 X233.326 Y233.734 E.02972
G1 X233.808 Y232.918 E.02972
G1 X234.322 Y232.138 E.02927
G1 X234.89 Y231.362 E.03015
G1 X235.487 Y230.626 E.02972
G1 X236.12 Y229.92 E.02972
G1 X236.787 Y229.247 E.02972
G1 X237.486 Y228.607 E.02972
G1 X238.216 Y228.002 E.02972
G1 X238.975 Y227.435 E.02972
G1 X239.773 Y226.898 E.03015
G1 X240.572 Y226.415 E.02927
G1 X241.407 Y225.966 E.02972
G1 X242.262 Y225.558 E.02972
G1 X243.137 Y225.193 E.02972
G1 X244.029 Y224.872 E.02972
G1 X244.935 Y224.595 E.02972
G1 X245.854 Y224.364 E.02972
G1 X246.783 Y224.177 E.02972
G1 X247.721 Y224.038 E.02972
G1 X248.664 Y223.944 E.02972
G1 X249.61 Y223.897 E.02972
G1 X250.558 Y223.897 E.02972
G1 X251.505 Y223.944 E.02972
G1 X252.448 Y224.038 E.02972
G1 X253.385 Y224.177 E.02972
G1 X254.315 Y224.364 E.02972
G1 X255.234 Y224.595 E.02972
G1 X256.14 Y224.872 E.02972
G1 X257.032 Y225.193 E.02972
G1 X257.906 Y225.558 E.02972
G1 X258.762 Y225.966 E.02972
G1 X259.597 Y226.415 E.02972
G1 X260.408 Y226.905 E.02972
G1 X261.194 Y227.435 E.02972
G1 X261.953 Y228.002 E.02972
G1 X262.683 Y228.607 E.02972
G1 X263.382 Y229.247 E.02972
G1 X264.049 Y229.92 E.02972
G1 X264.682 Y230.626 E.02972
G1 X265.279 Y231.362 E.02972
G1 X265.839 Y232.126 E.02972
G1 X266.36 Y232.918 E.02972
G1 X266.842 Y233.734 E.02972
G1 X267.283 Y234.573 E.02972
G1 X267.682 Y235.432 E.02972
G1 X268.038 Y236.311 E.02972
G1 X268.351 Y237.206 E.02972
G1 X268.618 Y238.115 E.02972
G1 X268.841 Y239.036 E.02972
G1 X269.158 Y240.707 E.05332
G1 X268.714 Y240.389 F9000
;TYPE:External perimeter
G1 F1200
G1 X231.455 Y240.389 E1.16823
G1 X231.696 Y239.116 E.04063
G1 X231.915 Y238.212 E.02913
G1 X232.177 Y237.321 E.02913
G1 X232.483 Y236.444 E.02913
G1 X232.832 Y235.583 E.02913
G1 X233.223 Y234.74 E.02913
G1 X233.656 Y233.918 E.02913
G1 X234.128 Y233.118 E.02913
G1 X234.632 Y232.353 E.02869
G1 X235.189 Y231.592 E.02957
G1 X235.774 Y230.871 E.02913
G1 X236.394 Y230.179 E.02913
G1 X237.048 Y229.519 E.02913
G1 X237.734 Y228.891 E.02913
G1 X238.449 Y228.299 E.02913
G1 X239.193 Y227.742 E.02913
G1 X239.976 Y227.216 E.02957
G1 X240.759 Y226.743 E.02869
G1 X241.577 Y226.302 E.02913
G1 X242.416 Y225.903 E.02913
G1 X243.273 Y225.545 E.02913
G1 X244.148 Y225.23 E.02913
G1 X245.036 Y224.959 E.02913
G1 X245.937 Y224.731 E.02913
G1 X246.848 Y224.549 E.02913
G1 X247.767 Y224.412 E.02913
G1 X248.692 Y224.32 E.02913
G1 X249.62 Y224.274 E.02913
G1 X250.549 Y224.274 E.02913
G1 X251.477 Y224.32 E.02913
G1 X252.401 Y224.412 E.02913
G1 X253.32 Y224.549 E.02913
G1 X254.231 Y224.731 E.02913
G1 X255.132 Y224.959 E.02913
G1 X256.021 Y225.23 E.02913
G1 X256.895 Y225.545 E.02913
G1 X257.753 Y225.903 E.02913
G1 X258.591 Y226.302 E.02913
G1 X259.41 Y226.743 E.02913
G1 X260.205 Y227.223 E.02913
G1 X260.975 Y227.742 E.02913
G1 X261.719 Y228.299 E.02913
G1 X262.435 Y228.891 E.02913
G1 X263.121 Y229.519 E.02913
G1 X263.774 Y230.179 E.02913
G1 X264.395 Y230.871 E.02913
G1 X264.98 Y231.592 E.02913
G1 X265.529 Y232.342 E.02913
G1 X266.04 Y233.118 E.02913
G1 X266.513 Y233.918 E.02913
G1 X266.945 Y234.74 E.02913
G1 X267.336 Y235.583 E.02913
G1 X267.685 Y236.444 E.02913
G1 X267.992 Y237.321 E.02913
G1 X268.254 Y238.212 E.02913
G1 X268.472 Y239.116 E.02913
G1 X268.703 Y240.33 E.03875
G1 X268.742 Y240.788 F9000
G1 E-4.2 F3600
;WIPE_START
G1 F7200
G1 X265.103 Y240.335 E-1.71
;WIPE_END
G1 E-.09 F3600
G1 X269.169 Y245.392 F9000
G1 E6 F2400
;TYPE:Perimeter
G1 F1200
G1 X268.841 Y247.121 E.0552
G1 X268.618 Y248.043 E.02972
G1 X268.351 Y248.952 E.02972
G1 X268.038 Y249.847 E.02972
G1 X267.682 Y250.725 E.02972
G1 X267.283 Y251.585 E.02972
G1 X266.842 Y252.423 E.02972
G1 X266.36 Y253.24 E.02972
G1 X265.839 Y254.031 E.02972
G1 X265.279 Y254.795 E.02972
G1 X264.682 Y255.531 E.02972
G1 X264.049 Y256.237 E.02972
G1 X263.382 Y256.911 E.02972
G1 X262.683 Y257.55 E.02972
G1 X261.953 Y258.155 E.02972
G1 X261.194 Y258.723 E.02972
G1 X260.408 Y259.252 E.02972
G1 X259.597 Y259.742 E.02972
G1 X258.762 Y260.191 E.02972
G1 X257.906 Y260.599 E.02972
G1 X257.032 Y260.964 E.02972
G1 X256.14 Y261.285 E.02972
G1 X255.234 Y261.562 E.02972
G1 X254.314 Y261.794 E.02972
G1 X253.371 Y261.982 E.03015
G1 X252.448 Y262.12 E.02927
G1 X251.505 Y262.213 E.02972
G1 X250.558 Y262.26 E.02972
G1 X249.61 Y262.26 E.02972
G1 X248.664 Y262.213 E.02972
G1 X247.721 Y262.12 E.02972
G1 X246.783 Y261.98 E.02972
G1 X245.854 Y261.794 E.02972
G1 X244.935 Y261.562 E.02972
G1 X244.029 Y261.285 E.02972
G1 X243.137 Y260.964 E.02972
G1 X242.262 Y260.599 E.02972
G1 X241.406 Y260.191 E.02972
G1 X240.56 Y259.735 E.03015
G1 X239.761 Y259.252 E.02927
G1 X238.975 Y258.723 E.02972
G1 X238.216 Y258.155 E.02972
G1 X237.486 Y257.55 E.02972
G1 X236.787 Y256.911 E.02972
G1 X236.12 Y256.237 E.02972
G1 X235.487 Y255.531 E.02972
G1 X234.89 Y254.795 E.02972
G1 X234.322 Y254.019 E.03015
G1 X233.808 Y253.24 E.02927
G1 X233.326 Y252.423 E.02972
G1 X232.885 Y251.585 E.02972
G1 X232.486 Y250.725 E.02972
G1 X232.13 Y249.847 E.02972
G1 X231.818 Y248.952 E.02972
G1 X231.55 Y248.043 E.02972
G1 X231.328 Y247.121 E.02972
G1 X230.999 Y245.392 E.0552
G1 X269.109 Y245.392 E1.19491
G1 X268.714 Y245.769 F9000
;TYPE:External perimeter
G1 F1200
G1 X268.472 Y247.042 E.04063
G1 X268.254 Y247.945 E.02913
G1 X267.992 Y248.836 E.02913
G1 X267.685 Y249.713 E.02913
G1 X267.336 Y250.575 E.02913
G1 X266.945 Y251.417 E.02913
G1 X266.513 Y252.24 E.02913
G1 X266.04 Y253.04 E.02913
G1 X265.529 Y253.816 E.02913
G1 X264.98 Y254.565 E.02913
G1 X264.395 Y255.287 E.02913
G1 X263.774 Y255.978 E.02913
G1 X263.121 Y256.639 E.02913
G1 X262.435 Y257.266 E.02913
G1 X261.719 Y257.858 E.02913
G1 X260.975 Y258.415 E.02913
G1 X260.205 Y258.934 E.02913
G1 X259.41 Y259.414 E.02913
G1 X258.591 Y259.855 E.02913
G1 X257.753 Y260.255 E.02913
G1 X256.895 Y260.612 E.02913
G1 X256.021 Y260.927 E.02913
G1 X255.132 Y261.199 E.02913
G1 X254.231 Y261.426 E.02914
G1 X253.307 Y261.61 E.02957
G1 X252.401 Y261.745 E.02869
G1 X251.477 Y261.837 E.02913
G1 X250.549 Y261.883 E.02913
G1 X249.62 Y261.883 E.02913
G1 X248.692 Y261.837 E.02913
G1 X247.767 Y261.745 E.02913
G1 X246.848 Y261.608 E.02913
G1 X245.937 Y261.426 E.02913
G1 X245.036 Y261.199 E.02913
G1 X244.148 Y260.927 E.02913
G1 X243.273 Y260.612 E.02913
G1 X242.416 Y260.255 E.02913
G1 X241.577 Y259.855 E.02913
G1 X240.747 Y259.407 E.02957
G1 X239.964 Y258.934 E.02869
G1 X239.193 Y258.415 E.02913
G1 X238.449 Y257.858 E.02913
G1 X237.734 Y257.266 E.02913
G1 X237.048 Y256.639 E.02913
G1 X236.394 Y255.978 E.02913
G1 X235.774 Y255.287 E.02913
G1 X235.189 Y254.565 E.02913
G1 X234.632 Y253.804 E.02957
G1 X234.128 Y253.04 E.02869
G1 X233.656 Y252.24 E.02913
G1 X233.223 Y251.417 E.02913
G1 X232.832 Y250.575 E.02913
G1 X232.483 Y249.713 E.02913
G1 X232.177 Y248.836 E.02913
G1 X231.915 Y247.945 E.02913
G1 X231.696 Y247.042 E.02913
G1 X231.455 Y245.769 E.04063
G1 X268.654 Y245.769 E1.16635
G1 X269.111 Y245.814 F9000
G1 E-4.2 F3600
;WIPE_START
G1 F7200
G1 X268.472 Y247.042 E-.61086
G1 X268.254 Y247.945 E-.44134
G1 X267.992 Y248.836 E-.44134
G1 X267.841 Y249.266 E-.21646
;WIPE_END
G1 E-.09 F3600
G1 X281.1 Y247.321 F9000
G1 E6 F2400
;TYPE:Perimeter
G1 F1200
G1 X281.047 Y247.746 E.01342
G1 X280.776 Y249.283 E.04895
G1 X280.429 Y250.805 E.04895
G1 X280.006 Y252.308 E.04895
G1 X279.509 Y253.788 E.04895
G1 X278.938 Y255.242 E.04895
G1 X278.296 Y256.665 E.04895
G1 X277.584 Y258.054 E.04895
G1 X276.803 Y259.406 E.04895
G1 X275.956 Y260.718 E.04895
G1 X275.045 Y261.985 E.04895
G1 X274.071 Y263.206 E.04895
G1 X273.038 Y264.377 E.04895
G1 X271.948 Y265.494 E.04895
G1 X270.803 Y266.556 E.04895
G1 X269.607 Y267.56 E.04895
G1 X268.363 Y268.503 E.04895
G1 X267.073 Y269.382 E.04895
G1 X265.741 Y270.196 E.04895
G1 X264.369 Y270.943 E.04895
G1 X262.963 Y271.62 E.04895
G1 X261.524 Y272.227 E.04895
G1 X260.057 Y272.761 E.04895
G1 X258.565 Y273.221 E.04895
G1 X257.052 Y273.606 E.04896
G1 X255.522 Y273.916 E.04895
G1 X253.978 Y274.148 E.04895
G1 X252.424 Y274.304 E.04895
G1 X250.865 Y274.382 E.04895
G1 X249.304 Y274.382 E.04895
G1 X247.744 Y274.304 E.04895
G1 X246.191 Y274.148 E.04895
G1 X244.647 Y273.916 E.04895
G1 X243.117 Y273.606 E.04895
G1 X241.604 Y273.221 E.04895
G1 X240.112 Y272.761 E.04895
G1 X238.644 Y272.227 E.04895
G1 X237.206 Y271.62 E.04895
G1 X235.799 Y270.943 E.04895
G1 X234.428 Y270.196 E.04895
G1 X233.096 Y269.382 E.04895
G1 X231.806 Y268.503 E.04895
G1 X230.561 Y267.56 E.04895
G1 X229.365 Y266.556 E.04895
G1 X228.221 Y265.494 E.04895
G1 X227.13 Y264.377 E.04895
G1 X226.097 Y263.206 E.04895
G1 X225.124 Y261.985 E.04895
G1 X224.213 Y260.718 E.04895
G1 X223.365 Y259.406 E.04895
G1 X222.585 Y258.054 E.04895
G1 X221.873 Y256.665 E.04895
G1 X221.23 Y255.242 E.04895
G1 X220.66 Y253.788 E.04895
G1 X220.163 Y252.308 E.04895
G1 X219.74 Y250.805 E.04895
G1 X219.392 Y249.283 E.04895
G1 X219.121 Y247.746 E.04895
G1 X218.927 Y246.196 E.04895
G1 X218.811 Y244.639 E.04895
G1 X218.772 Y243.079 E.04895
G1 X218.811 Y241.518 E.04895
G1 X218.927 Y239.961 E.04895
G1 X219.121 Y238.412 E.04895
G1 X219.392 Y236.874 E.04895
G1 X219.74 Y235.352 E.04895
G1 X220.163 Y233.849 E.04895
G1 X220.66 Y232.369 E.04895
G1 X221.23 Y230.916 E.04895
G1 X221.873 Y229.493 E.04895
G1 X222.585 Y228.103 E.04895
G1 X223.365 Y226.751 E.04895
G1 X224.213 Y225.44 E.04895
G1 X225.124 Y224.172 E.04895
G1 X226.097 Y222.951 E.04895
G1 X227.13 Y221.781 E.04895
G1 X228.221 Y220.663 E.04895
G1 X229.365 Y219.601 E.04895
G1 X230.561 Y218.597 E.04895
G1 X231.806 Y217.655 E.04895
G1 X233.096 Y216.775 E.04895
G1 X234.428 Y215.961 E.04895
G1 X235.799 Y215.214 E.04895
G1 X237.206 Y214.537 E.04895
G1 X238.644 Y213.93 E.04895
G1 X240.112 Y213.396 E.04895
G1 X241.604 Y212.936 E.04895
G1 X243.117 Y212.551 E.04896
G1 X244.647 Y212.242 E.04895
G1 X246.191 Y212.009 E.04895
G1 X247.744 Y211.853 E.04895
G1 X249.303 Y211.776 E.04893
G1 X250.941 Y211.779 E.05137
G1 X252.424 Y211.853 E.04655
G1 X253.978 Y212.009 E.04895
G1 X255.522 Y212.242 E.04895
G1 X257.052 Y212.551 E.04895
G1 X258.565 Y212.936 E.04895
G1 X260.057 Y213.396 E.04895
G1 X261.524 Y213.93 E.04895
G1 X262.963 Y214.537 E.04895
G1 X264.369 Y215.214 E.04895
G1 X265.741 Y215.961 E.04895
G1 X267.073 Y216.775 E.04895
G1 X268.363 Y217.655 E.04895
G1 X269.607 Y218.597 E.04895
G1 X270.803 Y219.601 E.04895
G1 X271.948 Y220.663 E.04895
G1 X273.038 Y221.781 E.04895
G1 X274.071 Y222.951 E.04895
G1 X275.045 Y224.172 E.04895
G1 X275.956 Y225.44 E.04895
G1 X276.803 Y226.751 E.04895
G1 X277.584 Y228.103 E.04895
G1 X278.296 Y229.493 E.04895
G1 X278.938 Y230.916 E.04895
G1 X279.509 Y232.369 E.04895
G1 X280.006 Y233.849 E.04895
G1 X280.429 Y235.352 E.04895
G1 X280.776 Y236.874 E.04895
G1 X281.047 Y238.412 E.04895
G1 X281.241 Y239.961 E.04895
G1 X281.358 Y241.518 E.04895
G1 X281.397 Y243.079 E.04895
G1 X281.358 Y244.639 E.04895
G1 X281.241 Y246.196 E.04895
G1 X281.108 Y247.261 E.03365
G1 X281.475 Y247.368 F9000
;TYPE:External perimeter
G1 F1200
G1 X281.42 Y247.802 E.01371
G1 X281.146 Y249.358 E.04954
G1 X280.794 Y250.898 E.04954
G1 X280.366 Y252.419 E.04954
G1 X279.863 Y253.917 E.04954
G1 X279.286 Y255.388 E.04954
G1 X278.636 Y256.828 E.04954
G1 X277.915 Y258.234 E.04954
G1 X277.125 Y259.603 E.04954
G1 X276.268 Y260.93 E.04954
G1 X275.345 Y262.213 E.04954
G1 X274.36 Y263.449 E.04954
G1 X273.315 Y264.633 E.04954
G1 X272.211 Y265.764 E.04954
G1 X271.053 Y266.839 E.04954
G1 X269.843 Y267.855 E.04954
G1 X268.583 Y268.809 E.04954
G1 X267.278 Y269.699 E.04954
G1 X265.929 Y270.523 E.04954
G1 X264.542 Y271.279 E.04954
G1 X263.118 Y271.964 E.04954
G1 X261.662 Y272.578 E.04954
G1 X260.177 Y273.118 E.04954
G1 X258.667 Y273.584 E.04954
G1 X257.136 Y273.974 E.04954
G1 X255.587 Y274.287 E.04954
G1 X254.025 Y274.523 E.04954
G1 X252.452 Y274.68 E.04954
G1 X250.874 Y274.759 E.04954
G1 X249.294 Y274.759 E.04954
G1 X247.716 Y274.68 E.04954
G1 X246.144 Y274.523 E.04954
G1 X244.581 Y274.287 E.04954
G1 X243.033 Y273.974 E.04954
G1 X241.501 Y273.584 E.04954
G1 X239.991 Y273.118 E.04954
G1 X238.507 Y272.578 E.04954
G1 X237.051 Y271.964 E.04954
G1 X235.627 Y271.279 E.04954
G1 X234.239 Y270.523 E.04954
G1 X232.891 Y269.699 E.04954
G1 X231.586 Y268.809 E.04954
G1 X230.326 Y267.855 E.04954
G1 X229.116 Y266.839 E.04954
G1 X227.957 Y265.764 E.04954
G1 X226.854 Y264.633 E.04954
G1 X225.808 Y263.449 E.04954
G1 X224.823 Y262.213 E.04954
G1 X223.901 Y260.93 E.04954
G1 X223.044 Y259.603 E.04954
G1 X222.254 Y258.234 E.04954
G1 X221.533 Y256.828 E.04954
G1 X220.883 Y255.388 E.04954
G1 X220.306 Y253.917 E.04954
G1 X219.802 Y252.419 E.04954
G1 X219.374 Y250.898 E.04954
G1 X219.023 Y249.358 E.04954
G1 X218.748 Y247.802 E.04954
G1 X218.552 Y246.234 E.04954
G1 X218.434 Y244.658 E.04954
G1 X218.394 Y243.079 E.04954
G1 X218.434 Y241.499 E.04954
G1 X218.552 Y239.923 E.04954
