; generated by PrusaSlicer 2.4.2+linux-x64-GTK2 on 2022-06-16 at 00:04:17 UTC

; 

; external perimeters extrusion width = 0.45mm
; perimeters extrusion width = 0.45mm
; infill extrusion width = 0.45mm
; solid infill extrusion width = 0.45mm
; top infill extrusion width = 0.40mm
; first layer extrusion width = 0.42mm

M107
;TYPE:Custom
G90 ; use absolute coordinates
M83 ; extruder relative mode
M140 S85 ; set final bed temp
;M104 S150 ; set temporary nozzle temp to prevent oozing during homing
G4 S10 ; allow partial nozzle warmup
G28 ; home all axis
G1 Z50 F240
G1 X2 Y10 F3000
M104 S245 ; set final nozzle temp
M190 S85 ; wait for bed temp to stabilize
M109 S245 ; wait for nozzle temp to stabilize
G1 Z0.28 F240
G92 E0
G1 Y140 E10 F1500 ; prime the nozzle
G1 X2.3 F5000
G92 E0
G1 Y10 E10 F1200 ; prime the nozzle
G92 E0
G21 ; set units to millimeters
G90 ; use absolute coordinates
M83 ; use relative distances for extrusion
; Filament gcode
M107
;LAYER_CHANGE
;Z:0.2
;HEIGHT:0.2
;BEFORE_LAYER_CHANGE
G92 E0
;0.2


G1 E-6 F3600
G1 Z.2 F9000
;AFTER_LAYER_CHANGE
;0.2
G1 X144.938 Y217.805
G1 E6 F2400
M204 S500
;TYPE:Skirt/Brim
;WIDTH:0.42
G1 F1200
G1 X147.91 Y216.099 E.10745
G1 X151.038 Y214.697 E.10745
G1 X154.289 Y213.613 E.10745
G1 X157.632 Y212.859 E.10745
G1 X161.033 Y212.441 E.10745
G1 X164.459 Y212.364 E.10745
G1 X167.876 Y212.629 E.10745
G1 X171.25 Y213.232 E.10745
G1 X174.546 Y214.168 E.10745
G1 X177.733 Y215.428 E.10745
G1 X180.779 Y216.999 E.10745
G1 X183.653 Y218.865 E.10745
G1 X186.201 Y220.897 E.10218
G1 X188.66 Y223.284 E.10745
G1 X190.87 Y225.904 E.10745
G1 X192.807 Y228.731 E.10745
G1 X194.454 Y231.736 E.10745
G1 X195.792 Y234.891 E.10745
G1 X196.811 Y238.163 E.10745
G1 X197.498 Y241.521 E.10745
G1 X197.847 Y244.93 E.10745
G1 X197.856 Y248.357 E.10745
G1 X197.523 Y251.768 E.10745
G1 X196.852 Y255.128 E.10745
G1 X195.85 Y258.405 E.10745
G1 X194.527 Y261.567 E.10745
G1 X192.895 Y264.58 E.10745
G1 X190.971 Y267.417 E.10745
G1 X188.775 Y270.047 E.10745
G1 X187.291 Y271.552 E.06628
G1 X184.886 Y273.656 E.10019
G1 X182.098 Y275.65 E.10745
G1 X179.126 Y277.356 E.10745
G1 X175.999 Y278.758 E.10745
G1 X172.748 Y279.841 E.10745
G1 X169.405 Y280.596 E.10745
G1 X166.003 Y281.014 E.10745
G1 X162.577 Y281.091 E.10745
G1 X159.16 Y280.826 E.10745
G1 X155.787 Y280.223 E.10745
G1 X152.49 Y279.286 E.10745
G1 X149.303 Y278.027 E.10745
G1 X146.257 Y276.456 E.10745
G1 X143.383 Y274.589 E.10745
G1 X140.835 Y272.558 E.10218
G1 X138.376 Y270.171 E.10745
G1 X136.167 Y267.551 E.10745
G1 X134.229 Y264.724 E.10745
G1 X132.583 Y261.718 E.10745
G1 X131.244 Y258.564 E.10745
G1 X130.226 Y255.291 E.10745
G1 X129.539 Y251.934 E.10745
G1 X129.189 Y248.525 E.10745
G1 X129.181 Y245.098 E.10745
G1 X129.514 Y241.687 E.10745
G1 X130.184 Y238.326 E.10745
G1 X131.187 Y235.049 E.10745
G1 X132.51 Y231.888 E.10745
G1 X134.142 Y228.874 E.10745
G1 X136.065 Y226.038 E.10745
G1 X138.262 Y223.407 E.10745
G1 X139.746 Y221.902 E.06628
G1 X142.151 Y219.799 E.10018
G1 X144.89 Y217.84 E.10557
G1 E-4.2 F3600
;WIPE_START
G1 F7200
G1 X147.91 Y216.099 E-1.65619
G1 X148.014 Y216.052 E-.05381
;WIPE_END
G1 E-.09 F3600
G1 X182.603 Y244.414 F9000
G1 E6 F2400
;TYPE:Perimeter
G1 F1200
G1 X144.433 Y244.414 E1.19679
G1 X144.762 Y242.685 E.0552
G1 X144.984 Y241.763 E.02972
G1 X145.252 Y240.854 E.02972
G1 X145.564 Y239.959 E.02972
G1 X145.92 Y239.081 E.02972
G1 X146.319 Y238.221 E.02972
G1 X146.76 Y237.383 E.02972
G1 X147.242 Y236.566 E.02972
G1 X147.756 Y235.787 E.02927
G1 X148.324 Y235.011 E.03015
G1 X148.921 Y234.275 E.02972
G1 X149.554 Y233.569 E.02972
G1 X150.221 Y232.895 E.02972
G1 X150.92 Y232.256 E.02972
G1 X151.65 Y231.651 E.02972
G1 X152.409 Y231.083 E.02972
G1 X153.207 Y230.547 E.03015
G1 X154.006 Y230.064 E.02927
G1 X154.841 Y229.615 E.02972
G1 X155.696 Y229.207 E.02972
G1 X156.571 Y228.842 E.02972
G1 X157.463 Y228.521 E.02972
G1 X158.369 Y228.244 E.02972
G1 X159.288 Y228.012 E.02972
G1 X160.217 Y227.826 E.02972
G1 X161.155 Y227.686 E.02972
G1 X162.098 Y227.593 E.02972
G1 X163.044 Y227.546 E.02972
G1 X163.992 Y227.546 E.02972
G1 X164.939 Y227.593 E.02972
G1 X165.882 Y227.686 E.02972
G1 X166.819 Y227.826 E.02972
G1 X167.749 Y228.012 E.02972
G1 X168.668 Y228.244 E.02972
G1 X169.574 Y228.521 E.02972
G1 X170.466 Y228.842 E.02972
G1 X171.34 Y229.207 E.02972
G1 X172.196 Y229.615 E.02972
G1 X173.031 Y230.064 E.02972
G1 X173.842 Y230.554 E.02972
G1 X174.628 Y231.083 E.02972
G1 X175.387 Y231.651 E.02972
G1 X176.117 Y232.256 E.02972
G1 X176.816 Y232.895 E.02972
G1 X177.483 Y233.569 E.02972
G1 X178.116 Y234.275 E.02972
G1 X178.713 Y235.011 E.02972
G1 X179.273 Y235.775 E.02972
G1 X179.794 Y236.566 E.02972
G1 X180.276 Y237.383 E.02972
G1 X180.717 Y238.221 E.02972
G1 X181.116 Y239.081 E.02972
G1 X181.472 Y239.959 E.02972
G1 X181.785 Y240.854 E.02972
G1 X182.052 Y241.763 E.02972
G1 X182.275 Y242.685 E.02972
G1 X182.592 Y244.355 E.05332
G1 X182.148 Y244.037 F9000
;TYPE:External perimeter
G1 F1200
G1 X144.889 Y244.037 E1.16823
G1 X145.13 Y242.764 E.04063
G1 X145.349 Y241.861 E.02913
G1 X145.611 Y240.97 E.02913
G1 X145.917 Y240.093 E.02913
G1 X146.266 Y239.231 E.02913
G1 X146.657 Y238.389 E.02913
G1 X147.09 Y237.566 E.02913
G1 X147.562 Y236.766 E.02913
G1 X148.066 Y236.002 E.02869
G1 X148.623 Y235.241 E.02957
G1 X149.208 Y234.519 E.02913
G1 X149.828 Y233.828 E.02913
G1 X150.482 Y233.167 E.02913
G1 X151.168 Y232.54 E.02913
G1 X151.883 Y231.947 E.02913
G1 X152.627 Y231.391 E.02913
G1 X153.41 Y230.865 E.02957
G1 X154.193 Y230.391 E.02869
G1 X155.011 Y229.951 E.02913
G1 X155.85 Y229.551 E.02913
G1 X156.707 Y229.194 E.02913
G1 X157.582 Y228.879 E.02913
G1 X158.47 Y228.607 E.02913
G1 X159.371 Y228.38 E.02913
G1 X160.282 Y228.198 E.02913
G1 X161.201 Y228.06 E.02913
G1 X162.126 Y227.969 E.02913
G1 X163.054 Y227.923 E.02913
G1 X163.983 Y227.923 E.02913
G1 X164.911 Y227.969 E.02913
G1 X165.835 Y228.06 E.02913
G1 X166.754 Y228.198 E.02913
G1 X167.665 Y228.38 E.02913
G1 X168.566 Y228.607 E.02913
G1 X169.455 Y228.879 E.02913
G1 X170.329 Y229.194 E.02913
G1 X171.187 Y229.551 E.02913
G1 X172.025 Y229.951 E.02913
G1 X172.844 Y230.391 E.02913
G1 X173.639 Y230.872 E.02913
G1 X174.409 Y231.391 E.02913
G1 X175.153 Y231.947 E.02913
G1 X175.869 Y232.54 E.02913
G1 X176.555 Y233.167 E.02913
G1 X177.208 Y233.828 E.02913
G1 X177.829 Y234.519 E.02913
G1 X178.414 Y235.241 E.02913
G1 X178.963 Y235.99 E.02913
G1 X179.474 Y236.766 E.02913
G1 X179.947 Y237.566 E.02913
G1 X180.379 Y238.389 E.02913
G1 X180.77 Y239.231 E.02913
G1 X181.119 Y240.093 E.02913
G1 X181.426 Y240.97 E.02913
G1 X181.688 Y241.861 E.02913
G1 X181.906 Y242.764 E.02913
G1 X182.137 Y243.978 E.03875
G1 X182.176 Y244.436 F9000
G1 E-4.2 F3600
;WIPE_START
G1 F7200
G1 X178.537 Y243.984 E-1.71
;WIPE_END
G1 E-.09 F3600
G1 X182.603 Y249.04 F9000
G1 E6 F2400
;TYPE:Perimeter
G1 F1200
G1 X182.275 Y250.77 E.0552
G1 X182.052 Y251.691 E.02972
G1 X181.785 Y252.6 E.02972
G1 X181.472 Y253.495 E.02972
G1 X181.116 Y254.374 E.02972
G1 X180.717 Y255.233 E.02972
G1 X180.276 Y256.072 E.02972
G1 X179.794 Y256.888 E.02972
G1 X179.273 Y257.68 E.02972
G1 X178.713 Y258.444 E.02972
G1 X178.116 Y259.18 E.02972
G1 X177.483 Y259.886 E.02972
G1 X176.816 Y260.559 E.02972
G1 X176.117 Y261.199 E.02972
G1 X175.387 Y261.804 E.02972
G1 X174.628 Y262.371 E.02972
G1 X173.842 Y262.901 E.02972
G1 X173.031 Y263.391 E.02972
G1 X172.196 Y263.84 E.02972
G1 X171.34 Y264.248 E.02972
G1 X170.466 Y264.613 E.02972
G1 X169.574 Y264.934 E.02972
G1 X168.668 Y265.211 E.02972
G1 X167.748 Y265.443 E.02972
G1 X166.805 Y265.631 E.03015
G1 X165.882 Y265.768 E.02927
G1 X164.939 Y265.862 E.02972
G1 X163.992 Y265.909 E.02972
G1 X163.044 Y265.909 E.02972
G1 X162.098 Y265.862 E.02972
G1 X161.155 Y265.768 E.02972
G1 X160.217 Y265.629 E.02972
G1 X159.288 Y265.442 E.02972
G1 X158.369 Y265.211 E.02972
G1 X157.463 Y264.934 E.02972
G1 X156.571 Y264.613 E.02972
G1 X155.696 Y264.248 E.02972
G1 X154.84 Y263.84 E.02972
G1 X153.994 Y263.383 E.03015
G1 X153.195 Y262.901 E.02927
G1 X152.409 Y262.371 E.02972
G1 X151.65 Y261.804 E.02972
G1 X150.92 Y261.199 E.02972
G1 X150.221 Y260.559 E.02972
G1 X149.554 Y259.886 E.02972
G1 X148.921 Y259.18 E.02972
G1 X148.324 Y258.444 E.02972
G1 X147.756 Y257.668 E.03015
G1 X147.242 Y256.888 E.02927
G1 X146.76 Y256.072 E.02972
G1 X146.319 Y255.233 E.02972
G1 X145.92 Y254.374 E.02972
G1 X145.564 Y253.495 E.02972
G1 X145.252 Y252.6 E.02972
G1 X144.984 Y251.691 E.02972
G1 X144.762 Y250.77 E.02972
G1 X144.433 Y249.04 E.0552
G1 X182.543 Y249.04 E1.19491
G1 X182.148 Y249.417 F9000
;TYPE:External perimeter
G1 F1200
G1 X181.906 Y250.69 E.04063
G1 X181.688 Y251.594 E.02913
G1 X181.426 Y252.485 E.02913
G1 X181.119 Y253.362 E.02913
G1 X180.77 Y254.223 E.02913
G1 X180.379 Y255.066 E.02913
G1 X179.947 Y255.888 E.02913
G1 X179.474 Y256.688 E.02913
G1 X178.963 Y257.464 E.02913
G1 X178.414 Y258.214 E.02913
G1 X177.829 Y258.935 E.02913
G1 X177.208 Y259.627 E.02913
G1 X176.555 Y260.287 E.02913
G1 X175.869 Y260.915 E.02913
G1 X175.153 Y261.507 E.02913
G1 X174.409 Y262.064 E.02913
G1 X173.639 Y262.583 E.02913
G1 X172.844 Y263.063 E.02913
G1 X172.025 Y263.504 E.02913
G1 X171.187 Y263.903 E.02913
G1 X170.329 Y264.261 E.02913
G1 X169.455 Y264.576 E.02913
G1 X168.566 Y264.847 E.02913
G1 X167.665 Y265.075 E.02914
G1 X166.741 Y265.259 E.02957
G1 X165.835 Y265.394 E.02869
G1 X164.911 Y265.486 E.02913
G1 X163.983 Y265.532 E.02913
G1 X163.054 Y265.532 E.02913
G1 X162.126 Y265.486 E.02913
G1 X161.201 Y265.394 E.02913
G1 X160.282 Y265.257 E.02913
G1 X159.371 Y265.075 E.02913
G1 X158.47 Y264.847 E.02913
G1 X157.582 Y264.576 E.02913
G1 X156.707 Y264.261 E.02913
G1 X155.85 Y263.903 E.02913
G1 X155.011 Y263.504 E.02913
G1 X154.181 Y263.056 E.02957
G1 X153.398 Y262.583 E.02869
G1 X152.627 Y262.064 E.02913
G1 X151.883 Y261.507 E.02913
G1 X151.168 Y260.915 E.02913
G1 X150.482 Y260.287 E.02913
G1 X149.828 Y259.627 E.02913
G1 X149.208 Y258.935 E.02913
G1 X148.623 Y258.214 E.02913
G1 X148.066 Y257.453 E.02957
G1 X147.562 Y256.688 E.02869
G1 X147.09 Y255.888 E.02913
G1 X146.657 Y255.066 E.02913
G1 X146.266 Y254.223 E.02913
G1 X145.917 Y253.362 E.02913
G1 X145.611 Y252.485 E.02913
G1 X145.349 Y251.594 E.02913
G1 X145.13 Y250.69 E.02913
G1 X144.889 Y249.417 E.04063
G1 X182.088 Y249.417 E1.16635
G1 X182.545 Y249.463 F9000
G1 E-4.2 F3600
;WIPE_START
G1 F7200
G1 X181.906 Y250.69 E-.61086
G1 X181.688 Y251.594 E-.44134
G1 X181.426 Y252.485 E-.44134
G1 X181.275 Y252.915 E-.21646
;WIPE_END
G1 E-.09 F3600
G1 X193.543 Y250.845 F9000
G1 E6 F2400
;TYPE:Perimeter
G1 F1200
G1 X193.492 Y251.245 E.01264
G1 X193.23 Y252.734 E.04739
G1 X192.894 Y254.207 E.04739
G1 X192.484 Y255.662 E.04739
G1 X192.003 Y257.095 E.04739
G1 X191.451 Y258.502 E.04739
G1 X190.829 Y259.88 E.04739
G1 X190.14 Y261.225 E.04739
G1 X189.384 Y262.533 E.04739
G1 X188.564 Y263.803 E.04739
G1 X187.682 Y265.03 E.04739
G1 X186.739 Y266.212 E.04739
G1 X185.739 Y267.345 E.04739
G1 X184.684 Y268.427 E.04739
G1 X183.576 Y269.455 E.04739
G1 X182.418 Y270.427 E.04739
G1 X181.213 Y271.339 E.04739
G1 X179.964 Y272.191 E.04739
G1 X178.675 Y272.979 E.04739
G1 X177.347 Y273.702 E.04739
G1 X175.986 Y274.358 E.04739
G1 X174.593 Y274.945 E.04739
G1 X173.173 Y275.461 E.04737
G1 X171.656 Y275.925 E.04973
G1 X170.263 Y276.28 E.04507
G1 X168.782 Y276.58 E.04739
G1 X167.287 Y276.805 E.04739
G1 X165.784 Y276.955 E.04739
G1 X164.274 Y277.031 E.04739
G1 X162.763 Y277.031 E.04739
G1 X161.253 Y276.955 E.04739
G1 X159.749 Y276.805 E.04739
G1 X158.255 Y276.58 E.04739
G1 X156.773 Y276.28 E.04739
G1 X155.308 Y275.907 E.04739
G1 X153.864 Y275.462 E.04739
G1 X152.444 Y274.945 E.04739
G1 X151.051 Y274.358 E.04739
G1 X149.689 Y273.702 E.04739
G1 X148.362 Y272.979 E.04739
G1 X147.072 Y272.191 E.04739
G1 X145.823 Y271.339 E.04739
G1 X144.619 Y270.427 E.04739
G1 X143.461 Y269.455 E.04739
G1 X142.353 Y268.427 E.04739
G1 X141.298 Y267.345 E.04739
G1 X140.297 Y266.212 E.04739
G1 X139.355 Y265.03 E.04739
G1 X138.473 Y263.803 E.04739
G1 X137.653 Y262.533 E.04739
G1 X136.897 Y261.224 E.04739
G1 X136.208 Y259.88 E.04739
G1 X135.586 Y258.502 E.04739
G1 X135.034 Y257.095 E.04739
G1 X134.552 Y255.662 E.04739
G1 X134.143 Y254.207 E.04739
G1 X133.807 Y252.734 E.04739
G1 X133.544 Y251.245 E.04739
G1 X133.356 Y249.745 E.04739
G1 X133.243 Y248.238 E.04739
G1 X133.206 Y246.727 E.04739
G1 X133.243 Y245.216 E.04739
G1 X133.356 Y243.709 E.04739
G1 X133.544 Y242.209 E.04739
G1 X133.807 Y240.721 E.04739
G1 X134.143 Y239.247 E.04739
G1 X134.552 Y237.793 E.04739
G1 X135.034 Y236.36 E.04739
G1 X135.586 Y234.953 E.04739
G1 X136.207 Y233.575 E.04739
G1 X136.897 Y232.23 E.04739
G1 X137.653 Y230.921 E.04739
G1 X138.473 Y229.652 E.04739
G1 X139.355 Y228.424 E.04739
G1 X140.297 Y227.243 E.04739
G1 X141.298 Y226.109 E.04739
G1 X142.353 Y225.027 E.04739
G1 X143.461 Y223.999 E.04739
G1 X144.619 Y223.028 E.04739
G1 X145.823 Y222.115 E.04739
G1 X147.072 Y221.264 E.04739
G1 X148.362 Y220.476 E.04739
G1 X149.689 Y219.753 E.04739
G1 X151.051 Y219.097 E.04739
G1 X152.444 Y218.51 E.04739
G1 X153.864 Y217.993 E.04739
G1 X155.308 Y217.548 E.04739
G1 X156.773 Y217.175 E.04739
G1 X158.255 Y216.875 E.04739
G1 X159.749 Y216.65 E.04739
G1 X161.253 Y216.499 E.04739
G1 X162.762 Y216.424 E.04737
G1 X164.348 Y216.428 E.04973
G1 X165.784 Y216.499 E.04507
G1 X167.288 Y216.65 E.04739
G1 X168.782 Y216.875 E.04739
G1 X170.263 Y217.175 E.04739
G1 X171.728 Y217.548 E.04739
G1 X173.172 Y217.993 E.04739
G1 X174.593 Y218.51 E.04739
G1 X175.986 Y219.097 E.04739
G1 X177.347 Y219.753 E.04739
G1 X178.675 Y220.476 E.04739
G1 X179.964 Y221.264 E.04739
G1 X181.213 Y222.115 E.04739
G1 X182.418 Y223.028 E.04739
G1 X183.576 Y223.999 E.04739
G1 X184.684 Y225.027 E.04739
G1 X185.739 Y226.109 E.04739
G1 X186.739 Y227.243 E.04739
G1 X187.682 Y228.424 E.04739
G1 X188.564 Y229.652 E.04739
G1 X189.384 Y230.921 E.04739
G1 X190.14 Y232.23 E.04739
G1 X190.829 Y233.575 E.04739
G1 X191.451 Y234.953 E.04739
G1 X192.003 Y236.36 E.04739
G1 X192.484 Y237.792 E.04739
G1 X192.894 Y239.247 E.04739
G1 X193.23 Y240.721 E.04739
G1 X193.492 Y242.209 E.04739
G1 X193.68 Y243.709 E.04739
G1 X193.793 Y245.216 E.04739
G1 X193.831 Y246.727 E.04739
G1 X193.793 Y248.238 E.04739
G1 X193.68 Y249.745 E.04739
G1 X193.55 Y250.786 E.03287
G1 X193.917 Y250.892 F9000
;TYPE:External perimeter
G1 F1200
G1 X193.865 Y251.301 E.01293
G1 X193.6 Y252.808 E.04798
G1 X193.259 Y254.3 E.04798
G1 X192.845 Y255.773 E.04798
G1 X192.357 Y257.224 E.04798
G1 X191.798 Y258.648 E.04798
G1 X191.169 Y260.043 E.04798
G1 X190.471 Y261.405 E.04798
G1 X189.706 Y262.73 E.04798
G1 X188.875 Y264.016 E.04798
G1 X187.982 Y265.258 E.04798
G1 X187.028 Y266.454 E.04798
G1 X186.016 Y267.602 E.04798
G1 X184.947 Y268.697 E.04798
G1 X183.825 Y269.738 E.04798
G1 X182.653 Y270.722 E.04798
G1 X181.433 Y271.646 E.04798
G1 X180.169 Y272.508 E.04798
G1 X178.863 Y273.306 E.04798
G1 X177.519 Y274.037 E.04798
G1 X176.141 Y274.701 E.04798
G1 X174.731 Y275.296 E.04798
G1 X173.293 Y275.819 E.04797
G1 X171.758 Y276.289 E.05032
G1 X170.347 Y276.648 E.04564
G1 X168.848 Y276.951 E.04798
G1 X167.334 Y277.179 E.04798
G1 X165.812 Y277.331 E.04798
G1 X164.283 Y277.408 E.04798
G1 X162.753 Y277.408 E.04798
G1 X161.225 Y277.331 E.04798
G1 X159.702 Y277.179 E.04798
G1 X158.189 Y276.951 E.04798
G1 X156.689 Y276.648 E.04798
G1 X155.206 Y276.27 E.04798
G1 X153.744 Y275.819 E.04798
G1 X152.306 Y275.296 E.04798
G1 X150.896 Y274.701 E.04798
G1 X149.517 Y274.037 E.04798
G1 X148.173 Y273.306 E.04798
G1 X146.868 Y272.508 E.04798
G1 X145.603 Y271.646 E.04798
G1 X144.383 Y270.722 E.04798
G1 X143.211 Y269.738 E.04798
G1 X142.089 Y268.697 E.04798
G1 X141.021 Y267.602 E.04798
G1 X140.008 Y266.454 E.04798
G1 X139.054 Y265.258 E.04798
G1 X138.161 Y264.016 E.04798
G1 X137.331 Y262.73 E.04798
G1 X136.566 Y261.405 E.04798
G1 X135.868 Y260.043 E.04798
G1 X135.238 Y258.648 E.04798
G1 X134.679 Y257.224 E.04798
G1 X134.192 Y255.773 E.04798
G1 X133.777 Y254.3 E.04798
G1 X133.437 Y252.808 E.04798
G1 X133.171 Y251.301 E.04798
G1 X132.981 Y249.783 E.04798
G1 X132.867 Y248.257 E.04798
G1 X132.828 Y246.727 E.04798
G1 X132.867 Y245.198 E.04798
G1 X132.981 Y243.672 E.04798
