; generated by PrusaSlicer 2.4.2+linux-x64-GTK2 on 2022-07-27 at 15:20:39 UTC

; 

; external perimeters extrusion width = 0.61mm
; perimeters extrusion width = 0.65mm
; infill extrusion width = 0.70mm
; solid infill extrusion width = 0.65mm
; top infill extrusion width = 0.60mm
; first layer extrusion width = 0.65mm

M107
;TYPE:Custom
G90 ; use absolute coordinates
M83 ; extruder relative mode
M140 S60 ; set final bed temp
M104 S150 ; set temporary nozzle temp to prevent oozing during homing
G4 S10 ; allow partial nozzle warmup
G28 ; home all axis
G1 Z50 F240
G1 X2 Y10 F3000
M104 S210 ; set final nozzle temp
M190 S60 ; wait for bed temp to stabilize
M109 S210 ; wait for nozzle temp to stabilize
G1 Z0.28 F240
G92 E0
G1 Y140 E10 F1500 ; prime the nozzle
G1 X2.3 F5000
G92 E0
G1 Y10 E10 F1200 ; prime the nozzle
G92 E0
G21 ; set units to millimeters
G90 ; use absolute coordinates
M83 ; use relative distances for extrusion
; Filament gcode
M107
;LAYER_CHANGE
;Z:0.2
;HEIGHT:0.2
;BEFORE_LAYER_CHANGE
G92 E0
;0.2


G1 E-.8 F3600
G1 Z.4 F720
;AFTER_LAYER_CHANGE
;0.2
G1 X38.906 Y8.626 F10800
G1 Z.2 F720
G1 E.8 F2400
M204 S800
;TYPE:Skirt/Brim
;WIDTH:0.65
G1 F1200
G1 X39.298 Y7.251 E.0722
G1 X40.357 Y6.289 E.0722
G1 X41.513 Y6.019 E.05992
G1 X56.384 Y6.019 E.75067
G1 X57.76 Y6.411 E.0722
G1 X58.721 Y7.47 E.0722
G1 X58.991 Y8.626 E.05992
G1 X58.991 Y288.626 E14.13408
G1 X58.599 Y290.001 E.0722
G1 X57.54 Y290.963 E.0722
G1 X56.384 Y291.233 E.05992
G1 X41.513 Y291.233 E.75067
G1 X40.138 Y290.841 E.0722
G1 X39.176 Y289.782 E.0722
G1 X38.906 Y288.626 E.05992
G1 X38.906 Y8.716 E14.12954
M204 S1000
G1 E-.4 F3600
;WIPE_START
G1 F8640
G1 X39.154 Y7.789 E-.38
;WIPE_END
G1 E-.02 F3600
G1 Z.6 F720
G1 X42.645 Y9.758 F10800
G1 Z.2 F720
G1 E.8 F2400
M204 S800
;TYPE:Perimeter
G1 F1200
G1 X45.317 Y9.758 E.13485
G1 X45.317 Y287.494 E14.01979
G1 X42.645 Y287.494 E.13485
G1 X42.645 Y9.848 E14.01525
M204 S1000
G1 X42.038 Y9.151 F10800
M204 S800
;TYPE:External perimeter
G1 F1200
G1 X45.924 Y9.151 E.19613
G1 X45.924 Y288.101 E14.08108
G1 X42.038 Y288.101 E.19613
G1 X42.038 Y9.241 E14.07654
M204 S1000
G1 X42.559 Y9.449 F10800
G1 E-.4 F3600
;WIPE_START
G1 F8640
G1 X42.998 Y9.219 E-.38
;WIPE_END
G1 E-.02 F3600
G1 Z.6 F720
G1 X45.135 Y11.171 F10800
G1 Z.2 F720
G1 E.8 F2400
M204 S800
;TYPE:Solid infill
;WIDTH:0.651684
G1 F1200
G1 X44.177 Y10.213 E.06855
G1 X43.316 Y10.213 E.04358
G1 X44.861 Y11.759 E.11062
G1 X44.861 Y12.62 E.04358
G1 X43.101 Y10.859 E.12604
G1 X43.101 Y11.72 E.04358
G1 X44.861 Y13.48 E.12604
G1 X44.861 Y14.341 E.04358
G1 X43.101 Y12.581 E.12604
G1 X43.101 Y13.442 E.04358
G1 X44.861 Y15.202 E.12604
G1 X44.861 Y16.063 E.04358
G1 X43.101 Y14.302 E.12604
G1 X43.101 Y15.163 E.04358
G1 X44.861 Y16.924 E.12604
G1 X44.861 Y17.785 E.04358
G1 X43.101 Y16.024 E.12604
G1 X43.101 Y16.885 E.04358
G1 X44.861 Y18.646 E.12604
G1 X44.861 Y19.507 E.04358
G1 X43.101 Y17.746 E.12604
G1 X43.101 Y18.607 E.04358
G1 X44.861 Y20.368 E.12604
G1 X44.861 Y21.229 E.04358
G1 X43.101 Y19.468 E.12604
G1 X43.101 Y20.329 E.04358
G1 X44.861 Y22.09 E.12604
G1 X44.861 Y22.951 E.04358
G1 X43.101 Y21.19 E.12604
G1 X43.101 Y22.051 E.04358
G1 X44.861 Y23.812 E.12604
G1 X44.861 Y24.672 E.04358
G1 X43.101 Y22.912 E.12604
G1 X43.101 Y23.773 E.04358
G1 X44.861 Y25.533 E.12604
G1 X44.861 Y26.394 E.04358
G1 X43.101 Y24.634 E.12604
G1 X43.101 Y25.494 E.04358
G1 X44.861 Y27.255 E.12604
G1 X44.861 Y28.116 E.04358
G1 X43.101 Y26.355 E.12604
G1 X43.101 Y27.216 E.04358
G1 X44.861 Y28.977 E.12604
G1 X44.861 Y29.838 E.04358
G1 X43.101 Y28.077 E.12604
G1 X43.101 Y28.938 E.04358
G1 X44.861 Y30.699 E.12604
G1 X44.861 Y31.56 E.04358
G1 X43.101 Y29.799 E.12604
G1 X43.101 Y30.66 E.04358
G1 X44.861 Y32.421 E.12604
G1 X44.861 Y33.282 E.04358
G1 X43.101 Y31.521 E.12604
G1 X43.101 Y32.382 E.04358
G1 X44.861 Y34.143 E.12604
G1 X44.861 Y35.004 E.04358
G1 X43.101 Y33.243 E.12604
G1 X43.101 Y34.104 E.04358
G1 X44.861 Y35.864 E.12604
G1 X44.861 Y36.725 E.04358
G1 X43.101 Y34.965 E.12604
G1 X43.101 Y35.826 E.04358
G1 X44.861 Y37.586 E.12604
G1 X44.861 Y38.447 E.04358
G1 X43.101 Y36.686 E.12604
G1 X43.101 Y37.547 E.04358
G1 X44.861 Y39.308 E.12604
G1 X44.861 Y40.169 E.04358
G1 X43.101 Y38.408 E.12604
G1 X43.101 Y39.269 E.04358
G1 X44.861 Y41.03 E.12604
G1 X44.861 Y41.891 E.04358
G1 X43.101 Y40.13 E.12604
G1 X43.101 Y40.991 E.04358
G1 X44.861 Y42.752 E.12604
G1 X44.861 Y43.613 E.04358
G1 X43.101 Y41.852 E.12604
G1 X43.101 Y42.713 E.04358
G1 X44.861 Y44.474 E.12604
G1 X44.861 Y45.335 E.04358
G1 X43.101 Y43.574 E.12604
G1 X43.101 Y44.435 E.04358
G1 X44.861 Y46.196 E.12604
G1 X44.861 Y47.056 E.04358
G1 X43.101 Y45.296 E.12604
G1 X43.101 Y46.157 E.04358
G1 X44.861 Y47.917 E.12604
G1 X44.861 Y48.778 E.04358
G1 X43.101 Y47.018 E.12604
G1 X43.101 Y47.878 E.04358
G1 X44.861 Y49.639 E.12604
G1 X44.861 Y50.5 E.04358
G1 X43.101 Y48.739 E.12604
G1 X43.101 Y49.6 E.04358
G1 X44.861 Y51.361 E.12604
G1 X44.861 Y52.222 E.04358
G1 X43.101 Y50.461 E.12604
G1 X43.101 Y51.322 E.04358
G1 X44.861 Y53.083 E.12604
G1 X44.861 Y53.944 E.04358
G1 X43.101 Y52.183 E.12604
G1 X43.101 Y53.044 E.04358
G1 X44.861 Y54.805 E.12604
G1 X44.861 Y55.666 E.04358
G1 X43.101 Y53.905 E.12604
G1 X43.101 Y54.766 E.04358
G1 X44.861 Y56.527 E.12604
G1 X44.861 Y57.388 E.04358
G1 X43.101 Y55.627 E.12604
G1 X43.101 Y56.488 E.04358
G1 X44.861 Y58.248 E.12604
G1 X44.861 Y59.109 E.04358
G1 X43.101 Y57.349 E.12604
G1 X43.101 Y58.21 E.04358
G1 X44.861 Y59.97 E.12604
G1 X44.861 Y60.831 E.04358
G1 X43.101 Y59.07 E.12604
G1 X43.101 Y59.931 E.04358
G1 X44.861 Y61.692 E.12604
G1 X44.861 Y62.553 E.04358
G1 X43.101 Y60.792 E.12604
G1 X43.101 Y61.653 E.04358
G1 X44.861 Y63.414 E.12604
G1 X44.861 Y64.275 E.04358
G1 X43.101 Y62.514 E.12604
G1 X43.101 Y63.375 E.04358
G1 X44.861 Y65.136 E.12604
G1 X44.861 Y65.997 E.04358
G1 X43.101 Y64.236 E.12604
G1 X43.101 Y65.097 E.04358
G1 X44.861 Y66.858 E.12604
G1 X44.861 Y67.719 E.04358
G1 X43.101 Y65.958 E.12604
G1 X43.101 Y66.819 E.04358
G1 X44.861 Y68.58 E.12604
G1 X44.861 Y69.44 E.04358
G1 X43.101 Y67.68 E.12604
G1 X43.101 Y68.541 E.04358
G1 X44.861 Y70.301 E.12604
G1 X44.861 Y71.162 E.04358
G1 X43.101 Y69.402 E.12604
G1 X43.101 Y70.262 E.04358
G1 X44.861 Y72.023 E.12604
G1 X44.861 Y72.884 E.04358
G1 X43.101 Y71.123 E.12604
G1 X43.101 Y71.984 E.04358
G1 X44.861 Y73.745 E.12604
G1 X44.861 Y74.606 E.04358
G1 X43.101 Y72.845 E.12604
G1 X43.101 Y73.706 E.04358
G1 X44.861 Y75.467 E.12604
G1 X44.861 Y76.328 E.04358
G1 X43.101 Y74.567 E.12604
G1 X43.101 Y75.428 E.04358
G1 X44.861 Y77.189 E.12604
G1 X44.861 Y78.05 E.04358
G1 X43.101 Y76.289 E.12604
G1 X43.101 Y77.15 E.04358
G1 X44.861 Y78.911 E.12604
G1 X44.861 Y79.771 E.04358
G1 X43.101 Y78.011 E.12604
G1 X43.101 Y78.872 E.04358
G1 X44.861 Y80.632 E.12604
G1 X44.861 Y81.493 E.04358
G1 X43.101 Y79.733 E.12604
G1 X43.101 Y80.594 E.04358
G1 X44.861 Y82.354 E.12604
G1 X44.861 Y83.215 E.04358
G1 X43.101 Y81.454 E.12604
G1 X43.101 Y82.315 E.04358
G1 X44.861 Y84.076 E.12604
G1 X44.861 Y84.937 E.04358
G1 X43.101 Y83.176 E.12604
G1 X43.101 Y84.037 E.04358
G1 X44.861 Y85.798 E.12604
G1 X44.861 Y86.659 E.04358
G1 X43.101 Y84.898 E.12604
G1 X43.101 Y85.759 E.04358
G1 X44.861 Y87.52 E.12604
G1 X44.861 Y88.381 E.04358
G1 X43.101 Y86.62 E.12604
G1 X43.101 Y87.481 E.04358
G1 X44.861 Y89.242 E.12604
G1 X44.861 Y90.103 E.04358
G1 X43.101 Y88.342 E.12604
G1 X43.101 Y89.203 E.04358
G1 X44.861 Y90.963 E.12604
G1 X44.861 Y91.824 E.04358
G1 X43.101 Y90.064 E.12604
G1 X43.101 Y90.925 E.04358
G1 X44.861 Y92.685 E.12604
G1 X44.861 Y93.546 E.04358
G1 X43.101 Y91.786 E.12604
G1 X43.101 Y92.646 E.04358
G1 X44.861 Y94.407 E.12604
G1 X44.861 Y95.268 E.04358
G1 X43.101 Y93.507 E.12604
G1 X43.101 Y94.368 E.04358
G1 X44.861 Y96.129 E.12604
G1 X44.861 Y96.99 E.04358
G1 X43.101 Y95.229 E.12604
G1 X43.101 Y96.09 E.04358
G1 X44.861 Y97.851 E.12604
G1 X44.861 Y98.712 E.04358
G1 X43.101 Y96.951 E.12604
G1 X43.101 Y97.812 E.04358
G1 X44.861 Y99.573 E.12604
G1 X44.861 Y100.434 E.04358
G1 X43.101 Y98.673 E.12604
G1 X43.101 Y99.534 E.04358
G1 X44.861 Y101.295 E.12604
G1 X44.861 Y102.155 E.04358
G1 X43.101 Y100.395 E.12604
G1 X43.101 Y101.256 E.04358
G1 X44.861 Y103.016 E.12604
G1 X44.861 Y103.877 E.04358
G1 X43.101 Y102.117 E.12604
G1 X43.101 Y102.977 E.04358
G1 X44.861 Y104.738 E.12604
G1 X44.861 Y105.599 E.04358
G1 X43.101 Y103.838 E.12604
G1 X43.101 Y104.699 E.04358
G1 X44.861 Y106.46 E.12604
G1 X44.861 Y107.321 E.04358
G1 X43.101 Y105.56 E.12604
G1 X43.101 Y106.421 E.04358
G1 X44.861 Y108.182 E.12604
G1 X44.861 Y109.043 E.04358
G1 X43.101 Y107.282 E.12604
G1 X43.101 Y108.143 E.04358
G1 X44.861 Y109.904 E.12604
G1 X44.861 Y110.765 E.04358
G1 X43.101 Y109.004 E.12604
G1 X43.101 Y109.865 E.04358
G1 X44.861 Y111.626 E.12604
G1 X44.861 Y112.487 E.04358
G1 X43.101 Y110.726 E.12604
G1 X43.101 Y111.587 E.04358
G1 X44.861 Y113.347 E.12604
G1 X44.861 Y114.208 E.04358
G1 X43.101 Y112.448 E.12604
G1 X43.101 Y113.309 E.04358
G1 X44.861 Y115.069 E.12604
G1 X44.861 Y115.93 E.04358
G1 X43.101 Y114.169 E.12604
G1 X43.101 Y115.03 E.04358
G1 X44.861 Y116.791 E.12604
G1 X44.861 Y117.652 E.04358
G1 X43.101 Y115.891 E.12604
G1 X43.101 Y116.752 E.04358
G1 X44.861 Y118.513 E.12604
G1 X44.861 Y119.374 E.04358
G1 X43.101 Y117.613 E.12604
G1 X43.101 Y118.474 E.04358
G1 X44.861 Y120.235 E.12604
G1 X44.861 Y121.096 E.04358
G1 X43.101 Y119.335 E.12604
G1 X43.101 Y120.196 E.04358
G1 X44.861 Y121.957 E.12604
G1 X44.861 Y122.818 E.04358
G1 X43.101 Y121.057 E.12604
G1 X43.101 Y121.918 E.04358
G1 X44.861 Y123.679 E.12604
G1 X44.861 Y124.539 E.04358
G1 X43.101 Y122.779 E.12604
G1 X43.101 Y123.64 E.04358
G1 X44.861 Y125.4 E.12604
G1 X44.861 Y126.261 E.04358
G1 X43.101 Y124.501 E.12604
G1 X43.101 Y125.361 E.04358
G1 X44.861 Y127.122 E.12604
G1 X44.861 Y127.983 E.04358
G1 X43.101 Y126.222 E.12604
G1 X43.101 Y127.083 E.04358
G1 X44.861 Y128.844 E.12604
G1 X44.861 Y129.705 E.04358
G1 X43.101 Y127.944 E.12604
G1 X43.101 Y128.805 E.04358
G1 X44.861 Y130.566 E.12604
G1 X44.861 Y131.427 E.04358
G1 X43.101 Y129.666 E.12604
G1 X43.101 Y130.527 E.04358
G1 X44.861 Y132.288 E.12604
G1 X44.861 Y133.149 E.04358
G1 X43.101 Y131.388 E.12604
G1 X43.101 Y132.249 E.04358
G1 X44.861 Y134.01 E.12604
G1 X44.861 Y134.871 E.04358
G1 X43.101 Y133.11 E.12604
G1 X43.101 Y133.971 E.04358
G1 X44.861 Y135.731 E.12604
G1 X44.861 Y136.592 E.04358
G1 X43.101 Y134.832 E.12604
G1 X43.101 Y135.693 E.04358
G1 X44.861 Y137.453 E.12604
G1 X44.861 Y138.314 E.04358
G1 X43.101 Y136.553 E.12604
G1 X43.101 Y137.414 E.04358
G1 X44.861 Y139.175 E.12604
G1 X44.861 Y140.036 E.04358
G1 X43.101 Y138.275 E.12604
G1 X43.101 Y139.136 E.04358
G1 X44.861 Y140.897 E.12604
G1 X44.861 Y141.758 E.04358
G1 X43.101 Y139.997 E.12604
G1 X43.101 Y140.858 E.04358
G1 X44.861 Y142.619 E.12604
G1 X44.861 Y143.48 E.04358
G1 X43.101 Y141.719 E.12604
G1 X43.101 Y142.58 E.04358
G1 X44.861 Y144.341 E.12604
G1 X44.861 Y145.202 E.04358
G1 X43.101 Y143.441 E.12604
G1 X43.101 Y144.302 E.04358
G1 X44.861 Y146.063 E.12604
G1 X44.861 Y146.923 E.04358
G1 X43.101 Y145.163 E.12604
G1 X43.101 Y146.024 E.04358
G1 X44.861 Y147.784 E.12604
G1 X44.861 Y148.645 E.04358
G1 X43.101 Y146.885 E.12604
G1 X43.101 Y147.745 E.04358
G1 X44.861 Y149.506 E.12604
G1 X44.861 Y150.367 E.04358
G1 X43.101 Y148.606 E.12604
G1 X43.101 Y149.467 E.04358
G1 X44.861 Y151.228 E.12604
G1 X44.861 Y152.089 E.04358
G1 X43.101 Y150.328 E.12604
G1 X43.101 Y151.189 E.04358
G1 X44.861 Y152.95 E.12604
G1 X44.861 Y153.811 E.04358
G1 X43.101 Y152.05 E.12604
G1 X43.101 Y152.911 E.04358
G1 X44.861 Y154.672 E.12604
G1 X44.861 Y155.533 E.04358
G1 X43.101 Y153.772 E.12604
G1 X43.101 Y154.633 E.04358
G1 X44.861 Y156.394 E.12604
G1 X44.861 Y157.254 E.04358
G1 X43.101 Y155.494 E.12604
G1 X43.101 Y156.355 E.04358
G1 X44.861 Y158.115 E.12604
G1 X44.861 Y158.976 E.04358
G1 X43.101 Y157.216 E.12604
G1 X43.101 Y158.077 E.04358
G1 X44.861 Y159.837 E.12604
G1 X44.861 Y160.698 E.04358
G1 X43.101 Y158.937 E.12604
G1 X43.101 Y159.798 E.04358
G1 X44.861 Y161.559 E.12604
G1 X44.861 Y162.42 E.04358
G1 X43.101 Y160.659 E.12604
G1 X43.101 Y161.52 E.04358
G1 X44.861 Y163.281 E.12604
G1 X44.861 Y164.142 E.04358
G1 X43.101 Y162.381 E.12604
G1 X43.101 Y163.242 E.04358
G1 X44.861 Y165.003 E.12604
G1 X44.861 Y165.864 E.04358
G1 X43.101 Y164.103 E.12604
G1 X43.101 Y164.964 E.04358
G1 X44.861 Y166.725 E.12604
G1 X44.861 Y167.586 E.04358
G1 X43.101 Y165.825 E.12604
G1 X43.101 Y166.686 E.04358
G1 X44.861 Y168.446 E.12604
G1 X44.861 Y169.307 E.04358
G1 X43.101 Y167.547 E.12604
G1 X43.101 Y168.408 E.04358
G1 X44.861 Y170.168 E.12604
G1 X44.861 Y171.029 E.04358
G1 X43.101 Y169.269 E.12604
G1 X43.101 Y170.129 E.04358
G1 X44.861 Y171.89 E.12604
G1 X44.861 Y172.751 E.04358
G1 X43.101 Y170.99 E.12604
G1 X43.101 Y171.851 E.04358
G1 X44.861 Y173.612 E.12604
G1 X44.861 Y174.473 E.04358
G1 X43.101 Y172.712 E.12604
G1 X43.101 Y173.573 E.04358
G1 X44.861 Y175.334 E.12604
G1 X44.861 Y176.195 E.04358
G1 X43.101 Y174.434 E.12604
G1 X43.101 Y175.295 E.04358
G1 X44.861 Y177.056 E.12604
G1 X44.861 Y177.917 E.04358
G1 X43.101 Y176.156 E.12604
G1 X43.101 Y177.017 E.04358
G1 X44.861 Y178.778 E.12604
G1 X44.861 Y179.638 E.04358
G1 X43.101 Y177.878 E.12604
G1 X43.101 Y178.739 E.04358
G1 X44.861 Y180.499 E.12604
G1 X44.861 Y181.36 E.04358
G1 X43.101 Y179.6 E.12604
G1 X43.101 Y180.461 E.04358
G1 X44.861 Y182.221 E.12604
G1 X44.861 Y183.082 E.04358
G1 X43.101 Y181.321 E.12604
G1 X43.101 Y182.182 E.04358
G1 X44.861 Y183.943 E.12604
G1 X44.861 Y184.804 E.04358
G1 X43.101 Y183.043 E.12604
G1 X43.101 Y183.904 E.04358
G1 X44.861 Y185.665 E.12604
G1 X44.861 Y186.526 E.04358
G1 X43.101 Y184.765 E.12604
G1 X43.101 Y185.626 E.04358
G1 X44.861 Y187.387 E.12604
G1 X44.861 Y188.248 E.04358
G1 X43.101 Y186.487 E.12604
G1 X43.101 Y187.348 E.04358
G1 X44.861 Y189.109 E.12604
G1 X44.861 Y189.97 E.04358
G1 X43.101 Y188.209 E.12604
G1 X43.101 Y189.07 E.04358
G1 X44.861 Y190.83 E.12604
G1 X44.861 Y191.691 E.04358
G1 X43.101 Y189.931 E.12604
G1 X43.101 Y190.792 E.04358
G1 X44.861 Y192.552 E.12604
G1 X44.861 Y193.413 E.04358
G1 X43.101 Y191.652 E.12604
G1 X43.101 Y192.513 E.04358
G1 X44.861 Y194.274 E.12604
G1 X44.861 Y195.135 E.04358
G1 X43.101 Y193.374 E.12604
G1 X43.101 Y194.235 E.04358
G1 X44.861 Y195.996 E.12604
G1 X44.861 Y196.857 E.04358
G1 X43.101 Y195.096 E.12604
G1 X43.101 Y195.957 E.04358
G1 X44.861 Y197.718 E.12604
G1 X44.861 Y198.579 E.04358
G1 X43.101 Y196.818 E.12604
G1 X43.101 Y197.679 E.04358
G1 X44.861 Y199.44 E.12604
G1 X44.861 Y200.301 E.04358
G1 X43.101 Y198.54 E.12604
G1 X43.101 Y199.401 E.04358
G1 X44.861 Y201.162 E.12604
G1 X44.861 Y202.022 E.04358
G1 X43.101 Y200.262 E.12604
G1 X43.101 Y201.123 E.04358
G1 X44.861 Y202.883 E.12604
G1 X44.861 Y203.744 E.04358
G1 X43.101 Y201.984 E.12604
G1 X43.101 Y202.844 E.04358
G1 X44.861 Y204.605 E.12604
G1 X44.861 Y205.466 E.04358
G1 X43.101 Y203.705 E.12604
G1 X43.101 Y204.566 E.04358
G1 X44.861 Y206.327 E.12604
G1 X44.861 Y207.188 E.04358
G1 X43.101 Y205.427 E.12604
G1 X43.101 Y206.288 E.04358
G1 X44.861 Y208.049 E.12604
G1 X44.861 Y208.91 E.04358
G1 X43.101 Y207.149 E.12604
G1 X43.101 Y208.01 E.04358
G1 X44.861 Y209.771 E.12604
G1 X44.861 Y210.632 E.04358
G1 X43.101 Y208.871 E.12604
G1 X43.101 Y209.732 E.04358
G1 X44.861 Y211.493 E.12604
G1 X44.861 Y212.354 E.04358
G1 X43.101 Y210.593 E.12604
G1 X43.101 Y211.454 E.04358
G1 X44.861 Y213.214 E.12604
G1 X44.861 Y214.075 E.04358
G1 X43.101 Y212.315 E.12604
G1 X43.101 Y213.176 E.04358
G1 X44.861 Y214.936 E.12604
G1 X44.861 Y215.797 E.04358
G1 X43.101 Y214.036 E.12604
G1 X43.101 Y214.897 E.04358
G1 X44.861 Y216.658 E.12604
G1 X44.861 Y217.519 E.04358
G1 X43.101 Y215.758 E.12604
G1 X43.101 Y216.619 E.04358
G1 X44.861 Y218.38 E.12604
G1 X44.861 Y219.241 E.04358
G1 X43.101 Y217.48 E.12604
G1 X43.101 Y218.341 E.04358
G1 X44.861 Y220.102 E.12604
G1 X44.861 Y220.963 E.04358
G1 X43.101 Y219.202 E.12604
G1 X43.101 Y220.063 E.04358
G1 X44.861 Y221.824 E.12604
G1 X44.861 Y222.685 E.04358
G1 X43.101 Y220.924 E.12604
G1 X43.101 Y221.785 E.04358
G1 X44.861 Y223.546 E.12604
G1 X44.861 Y224.406 E.04358
G1 X43.101 Y222.646 E.12604
