; generated by PrusaSlicer 2.5.0+linux-x64-GTK3 on 2022-10-06 at 16:48:32 UTC

; 

; external perimeters extrusion width = 0.63mm
; perimeters extrusion width = 0.66mm
; infill extrusion width = 0.66mm
; solid infill extrusion width = 0.66mm
; top infill extrusion width = 0.60mm
; support material extrusion width = 0.54mm
; first layer extrusion width = 0.63mm

; external perimeters extrusion width = 0.63mm
; perimeters extrusion width = 0.66mm
; infill extrusion width = 0.66mm
; solid infill extrusion width = 0.66mm
; top infill extrusion width = 0.60mm
; support material extrusion width = 0.54mm
; first layer extrusion width = 0.63mm

M107
;TYPE:Custom
G90 ; use absolute coordinates
M83 ; extruder relative mode
M140 S50 ; set final bed temp
M104 S150 ; set temporary nozzle temp to prevent oozing during homing
G4 S10 ; allow partial nozzle warmup
G28 ; home all axis
G1 Z50 F240
G1 X2 Y10 F3000
M104 S225 ; set final nozzle temp
M190 S50 ; wait for bed temp to stabilize
M109 S225 ; wait for nozzle temp to stabilize
G1 Z0.28 F240
G92 E0
G1 Y140 E10 F1500 ; prime the nozzle
G1 X2.3 F5000
G92 E0
G1 Y10 E10 F1200 ; prime the nozzle
G92 E0
G21 ; set units to millimeters
G90 ; use absolute coordinates
M83 ; use relative distances for extrusion
; Filament gcode
M107
;LAYER_CHANGE
;Z:0.3
;HEIGHT:0.3
;BEFORE_LAYER_CHANGE
G92 E0
;0.3


G1 E-5 F600
G1 Z.3 F9000
;AFTER_LAYER_CHANGE
;0.3
G1 X117.831 Y132.633
G1 E5 F600
M204 S500
;TYPE:Skirt/Brim
;WIDTH:0.63
G1 F883.987
G1 X119.302 Y131.73 E.13398
G1 X169.59 Y115.844 E4.09255
G1 X171.026 Y115.488 E.11483
G1 X173.417 Y115.081 E.18817
G1 X174.89 Y114.943 E.11483
G1 X176.71 Y114.894 E.14132
G1 X178.792 Y114.981 E.16166
G1 X181.196 Y115.299 E.18817
G1 X182.644 Y115.602 E.11483
G1 X185.142 Y116.333 E.20197
G1 X187.393 Y117.234 E.18817
G1 X189.115 Y118.104 E.14968
G1 X190.961 Y119.211 E.16711
G1 X192.92 Y120.641 E.18817
G1 X194.864 Y122.372 E.20197
G1 X195.889 Y123.439 E.11483
G1 X197.433 Y125.308 E.18817
G1 X198.287 Y126.517 E.11483
G1 X199.535 Y128.596 E.18817
G1 X200.409 Y130.394 E.15512
G1 X201.182 Y132.328 E.16166
G1 X201.877 Y134.651 E.18817
G1 X202.404 Y137.381 E.21577
G1 X202.55 Y138.675 E.10102
G1 X202.642 Y140.648 E.1533
G1 X202.505 Y143.696 E.23678
G1 X202.065 Y146.442 E.21577
G1 X201.427 Y148.844 E.19287
G1 X193.029 Y175.926 E2.2004
G1 X192.17 Y177.367 E.13014
G1 X190.698 Y178.27 E.13401
G1 X140.733 Y194.064 E4.06653
G1 X138.026 Y194.701 E.21577
G1 X135.445 Y195.033 E.20197
G1 X134.145 Y195.102 E.10102
G1 X132.24 Y195.08 E.14785
G1 X129.135 Y194.758 E.24221
G1 X126.592 Y194.203 E.20197
G1 X123.951 Y193.333 E.21577
G1 X121.577 Y192.268 E.20197
G1 X119.32 Y190.972 E.20197
G1 X117.204 Y189.457 E.20197
G1 X115.76 Y188.213 E.14785
G1 X114.46 Y186.938 E.14131
G1 X112.771 Y184.958 E.20197
G1 X111.193 Y182.669 E.21577
G1 X109.946 Y180.384 E.20197
G1 X108.764 Y177.495 E.24222
G1 X108.207 Y175.673 E.14785
G1 X107.908 Y174.407 E.10102
G1 X107.482 Y171.659 E.21577
G1 X107.351 Y169.059 E.20197
G1 X107.463 Y166.637 E.18817
G1 X107.615 Y165.345 E.10102
G1 X107.867 Y163.886 E.11483
G1 X108.457 Y161.535 E.18816
G1 X116.971 Y134.073 E2.2311
G1 X117.785 Y132.711 E.12316
G1 E-5 F600
G1 X144.279 Y137.305 F9000
G1 E5 F600
;TYPE:Support material
G1 F883.987
G1 X144.207 Y137.232 E.00795
G1 X140.117 Y137.232 E.31734
G1 X139.347 Y138.003 E.08454
G1 X139.347 Y152.165 E1.09903
G1 X139.096 Y153.285 E.0891
G1 X141.031 Y154.202 E.1662
G1 X141.758 Y154.598 E.06423
G1 X142.468 Y155.032 E.06456
G1 X143.155 Y155.501 E.06456
G1 X143.818 Y156.003 E.06456
G1 X144.456 Y156.538 E.06456
G1 X145.065 Y157.104 E.06456
G1 X145.646 Y157.699 E.06455
G1 X146.197 Y158.323 E.06456
G1 X146.715 Y158.973 E.06456
G1 X147.201 Y159.649 E.06456
G1 X147.652 Y160.347 E.06456
G1 X148.068 Y161.068 E.06456
G1 X148.448 Y161.808 E.06456
G1 X148.79 Y162.567 E.06456
G1 X148.944 Y162.959 E.03273
G1 X149.094 Y163.341 E.03182
G1 X149.359 Y164.13 E.06456
G1 X149.584 Y164.93 E.06456
G1 X149.769 Y165.741 E.06456
G1 X149.84 Y166.141 E.03152
G1 X149.84 Y171.953 E.45101
G1 X149.769 Y172.353 E.03153
G1 X149.584 Y173.164 E.06456
G1 X149.359 Y173.965 E.06456
G1 X149.094 Y174.754 E.06456
G1 X148.79 Y175.528 E.06456
G1 X148.448 Y176.287 E.06456
G1 X148.068 Y177.027 E.06456
G1 X147.652 Y177.747 E.06456
G1 X147.201 Y178.446 E.06456
G1 X146.715 Y179.122 E.06456
G1 X146.197 Y179.772 E.06456
G1 X145.918 Y180.088 E.03273
G1 X145.646 Y180.396 E.03182
G1 X145.065 Y180.991 E.06456
G1 X144.456 Y181.557 E.06456
G1 X143.818 Y182.092 E.06456
G1 X143.155 Y182.594 E.06456
G1 X142.468 Y183.063 E.06456
G1 X141.758 Y183.497 E.06456
G1 X141.027 Y183.895 E.06456
G1 X140.278 Y184.256 E.06456
G1 X139.511 Y184.579 E.06456
G1 X138.729 Y184.863 E.06456
G1 X137.934 Y185.108 E.06456
G1 X137.128 Y185.314 E.06456
G1 X136.313 Y185.479 E.06456
G1 X135.49 Y185.603 E.06456
G1 X134.662 Y185.685 E.06456
G1 X133.832 Y185.727 E.06456
G1 X133 Y185.727 E.06456
G1 X132.169 Y185.685 E.06456
G1 X131.341 Y185.603 E.06456
G1 X130.518 Y185.479 E.06456
G1 X129.703 Y185.314 E.06456
G1 X128.897 Y185.108 E.06456
G1 X128.102 Y184.863 E.06456
G1 X127.32 Y184.579 E.06456
G1 X126.553 Y184.256 E.06456
G1 X125.804 Y183.895 E.06456
G1 X125.073 Y183.497 E.06456
G1 X124.363 Y183.063 E.06456
G1 X124.015 Y182.825 E.03273
G1 X123.676 Y182.594 E.03183
G1 X123.013 Y182.092 E.06455
G1 X122.376 Y181.557 E.06456
G1 X121.766 Y180.991 E.06456
G1 X121.185 Y180.396 E.06456
G1 X120.634 Y179.772 E.06456
G1 X120.116 Y179.122 E.06456
G1 X119.63 Y178.446 E.06456
G1 X119.401 Y178.092 E.03275
G1 X119.179 Y177.747 E.03181
G1 X118.763 Y177.027 E.06456
G1 X118.383 Y176.287 E.06456
G1 X118.041 Y175.528 E.06456
G1 X117.737 Y174.754 E.06456
G1 X117.472 Y173.965 E.06456
G1 X117.247 Y173.164 E.06456
G1 X117.062 Y172.353 E.06455
G1 X116.991 Y171.949 E.03185
G1 X116.991 Y166.146 E.45037
G1 X117.062 Y165.741 E.03185
G1 X117.247 Y164.93 E.06456
G1 X117.472 Y164.13 E.06456
G1 X117.737 Y163.341 E.06456
G1 X118.041 Y162.567 E.06456
G1 X118.383 Y161.808 E.06456
G1 X118.763 Y161.068 E.06456
G1 X119.179 Y160.347 E.06456
G1 X119.63 Y159.649 E.06456
G1 X120.116 Y158.973 E.06456
G1 X120.634 Y158.323 E.06456
G1 X121.185 Y157.699 E.06456
G1 X121.766 Y157.103 E.06456
G1 X122.376 Y156.538 E.06456
G1 X123.013 Y156.003 E.06456
G1 X123.676 Y155.501 E.06456
G1 X124.363 Y155.032 E.06456
G1 X125.073 Y154.598 E.06456
G1 X125.8 Y154.202 E.06423
G1 X127.736 Y153.285 E.16619
G1 X127.483 Y152.161 E.08943
G1 X127.484 Y138.003 E1.09871
G1 X126.714 Y137.232 E.08454
G1 X122.625 Y137.232 E.31734
G1 X122.552 Y137.305 E.00796
G1 X120.377 Y135.13 E.23874
G1 X146.454 Y135.13 E2.02366
G1 X144.339 Y137.245 E.23215
G1 E-5 F600
G1 X147.556 Y177.406 F9000
G1 E5 F600
G1 F883.987
G1 X147.556 Y161.198 E1.25774
G1 X147.218 Y160.613 E.05243
G1 X146.78 Y159.936 E.06259
G1 X146.309 Y159.281 E.06259
G1 X145.807 Y158.65 E.06259
G1 X145.273 Y158.045 E.06259
G1 X144.728 Y157.486 E.06061
G1 X144.728 Y180.609 E1.79434
G1 X144.119 Y181.175 E.06456
G1 X143.501 Y181.694 E.06259
G1 X142.858 Y182.181 E.06259
G1 X141.899 Y182.814 E.08911
G1 X141.899 Y155.281 E2.13656
G1 X141.503 Y155.039 E.03604
G1 X140.8 Y154.656 E.06213
G1 X139.071 Y153.837 E.14844
G1 X139.071 Y184.197 E2.35598
G1 X138.567 Y184.381 E.04164
G1 X137.797 Y184.618 E.06259
G1 X137.015 Y184.817 E.06259
G1 X136.243 Y184.973 E.06109
G1 X136.243 Y135.639 E3.82846
G1 X139.071 Y135.639 E.21947
G1 X139.071 Y137.558 E.14897
G1 X139.906 Y136.723 E.09162
G1 X141.899 Y136.723 E.15468
G1 X141.899 Y135.639 E.08418
G1 X144.728 Y135.639 E.21947
G1 X144.728 Y136.496 E.06656
G1 E-5 F600
G1 X133.415 Y185.472 F9000
G1 E5 F600
G1 F883.987
G1 X133.415 Y135.639 E3.86719
G1 X130.587 Y135.639 E.21947
G1 X130.587 Y184.973 E3.82845
G1 X129.816 Y184.817 E.06103
G1 X129.035 Y184.618 E.06259
G1 X128.264 Y184.381 E.06259
G1 X127.759 Y184.197 E.0417
G1 X127.759 Y153.838 E2.35593
G1 X126.031 Y154.656 E.14838
G1 X125.328 Y155.039 E.06214
G1 X124.931 Y155.282 E.0361
G1 X124.931 Y182.813 E2.13649
G1 X123.973 Y182.181 E.08905
G1 X123.33 Y181.694 E.06258
G1 X122.713 Y181.175 E.06259
G1 X122.103 Y180.608 E.06464
G1 X122.103 Y157.487 E1.79422
G1 X121.558 Y158.045 E.06053
G1 X121.025 Y158.65 E.06259
G1 X120.522 Y159.281 E.06259
G1 X120.051 Y159.936 E.06259
G1 X119.613 Y160.613 E.06258
G1 X119.275 Y161.199 E.05255
G1 X119.275 Y177.405 E1.25755
G1 X127.759 Y152.229 F9000
G1 F883.987
G1 X127.759 Y135.639 E1.28747
G1 X124.931 Y135.639 E.21947
G1 X124.931 Y136.723 E.08418
G1 X122.691 Y136.723 E.17386
G1 X122.103 Y136.136 E.0645
G1 X122.103 Y135.384 E.05832
G1 E-5 F600
G1 X149.476 Y158.941 F9000
G1 E5 F600
;TYPE:Perimeter
;WIDTH:0.63
G1 F883.987
G1 X148.999 Y158.217 E.06727
G1 X148.439 Y157.453 E.07356
G1 X147.841 Y156.717 E.07356
G1 X147.208 Y156.012 E.07356
G1 X146.54 Y155.34 E.07356
G1 X145.839 Y154.702 E.07356
G1 X145.107 Y154.099 E.07356
G1 X144.346 Y153.534 E.07355
G1 X143.558 Y153.008 E.07356
G1 X142.887 Y152.599 E.06089
G1 X142.305 Y152.282 E.0515
G1 X141.643 Y151.952 E.05737
G1 X141.643 Y149.721 E.17312
;WIDTH:0.658261
G1 F841.92
G1 X141.657 Y149.247 E.03866
;WIDTH:0.686523
G1 F803.675
G1 X141.671 Y148.773 E.0405
G1 X141.921 Y149.08 E.03381
;WIDTH:0.658261
G1 F841.92
G1 X142.171 Y149.387 E.03228
;WIDTH:0.63
G1 F883.987
G1 X143.024 Y149.793 E.0733
G1 X143.976 Y150.298 E.08359
G1 X144.899 Y150.848 E.0834
G1 X145.793 Y151.444 E.0834
G1 X146.656 Y152.084 E.0834
G1 X147.487 Y152.766 E.0834
G1 X148.282 Y153.489 E.0834
G1 X149.04 Y154.251 E.0834
G1 X149.759 Y155.049 E.0834
G1 X150.438 Y155.883 E.0834
G1 X151.074 Y156.749 E.0834
G1 X151.666 Y157.646 E.0834
G1 X152.213 Y158.571 E.0834
G1 X152.712 Y159.523 E.0834
G1 X153.164 Y160.498 E.0834
G1 X153.566 Y161.495 E.0834
G1 X153.918 Y162.51 E.0834
G1 X154.218 Y163.542 E.08339
G1 X154.467 Y164.588 E.08341
G1 X154.664 Y165.644 E.0834
G1 X154.807 Y166.709 E.0834
G1 X154.897 Y167.78 E.0834
G1 X154.934 Y168.854 E.0834
G1 X154.917 Y169.929 E.0834
G1 X154.846 Y171.001 E.0834
G1 X154.721 Y172.069 E.0834
G1 X154.544 Y173.129 E.0834
G1 X154.314 Y174.179 E.0834
G1 X154.032 Y175.215 E.0834
G1 X153.698 Y176.237 E.0834
G1 X153.314 Y177.241 E.0834
G1 X152.88 Y178.224 E.08339
G1 X152.397 Y179.184 E.08341
G1 X151.868 Y180.119 E.08339
G1 X151.292 Y181.027 E.0834
G1 X150.672 Y181.904 E.0834
G1 X150.008 Y182.75 E.0834
G1 X149.303 Y183.561 E.0834
G1 X148.559 Y184.336 E.08341
G1 X147.777 Y185.073 E.0834
G1 X146.959 Y185.77 E.0834
G1 X146.107 Y186.426 E.0834
G1 X145.223 Y187.038 E.0834
G1 X144.31 Y187.605 E.0834
G1 X143.37 Y188.126 E.0834
G1 X142.405 Y188.599 E.0834
G1 X141.418 Y189.023 E.0834
G1 X140.411 Y189.398 E.0834
G1 X139.386 Y189.722 E.0834
G1 X138.346 Y189.994 E.0834
G1 X137.294 Y190.214 E.0834
G1 X136.233 Y190.381 E.0834
G1 X135.164 Y190.495 E.08339
G1 X134.091 Y190.556 E.0834
G1 X133.016 Y190.563 E.0834
G1 X131.943 Y190.516 E.0834
G1 X130.873 Y190.416 E.0834
G1 X129.809 Y190.262 E.0834
G1 X128.754 Y190.056 E.0834
G1 X127.711 Y189.797 E.0834
G1 X126.683 Y189.486 E.0834
G1 X125.67 Y189.124 E.0834
G1 X124.678 Y188.713 E.0834
G1 X123.707 Y188.252 E.0834
G1 X122.76 Y187.743 E.0834
G1 X121.84 Y187.188 E.0834
G1 X120.949 Y186.587 E.0834
G1 X120.089 Y185.943 E.08341
G1 X119.262 Y185.257 E.08339
G1 X118.47 Y184.53 E.08341
G1 X117.716 Y183.764 E.08339
G1 X117 Y182.962 E.08341
G1 X116.326 Y182.125 E.08339
G1 X115.695 Y181.256 E.0834
G1 X115.107 Y180.356 E.0834
G1 X114.565 Y179.427 E.0834
G1 X114.071 Y178.473 E.0834
G1 X113.624 Y177.496 E.0834
G1 X113.227 Y176.497 E.0834
G1 X112.88 Y175.48 E.08339
G1 X112.585 Y174.447 E.0834
G1 X112.341 Y173.4 E.0834
G1 X112.15 Y172.342 E.0834
G1 X112.012 Y171.277 E.0834
G1 X111.928 Y170.205 E.0834
G1 X111.897 Y169.131 E.0834
G1 X111.919 Y168.056 E.0834
G1 X111.996 Y166.984 E.08339
G1 X112.125 Y165.918 E.0834
G1 X112.308 Y164.858 E.0834
G1 X112.544 Y163.81 E.08339
G1 X112.831 Y162.774 E.0834
G1 X113.17 Y161.754 E.0834
G1 X113.559 Y160.753 E.0834
G1 X113.998 Y159.772 E.0834
G1 X114.486 Y158.814 E.0834
G1 X115.02 Y157.882 E.0834
G1 X115.6 Y156.977 E.0834
G1 X116.225 Y156.103 E.0834
G1 X116.893 Y155.261 E.0834
G1 X117.602 Y154.453 E.0834
G1 X118.35 Y153.682 E.0834
G1 X119.136 Y152.949 E.0834
G1 X119.958 Y152.256 E.0834
G1 X120.813 Y151.605 E.0834
G1 X121.668 Y151.019 E.0804
G1 X122.015 Y150.698 E.03669
G1 X122.106 Y150.503 E.0167
G1 X122.146 Y150.244 E.02032
G1 X122.146 Y142.454 E.60457
G1 X123.901 Y140.698 E.19262
;WIDTH:0.679377
G1 F813.013
G1 X123.973 Y140.612 E.00946
;WIDTH:0.728755
G1 F752.588
G1 X124.044 Y140.526 E.01022
;WIDTH:0.778132
G1 F700.524
G1 X124.116 Y140.439 E.01098
;WIDTH:0.82751
G1 F655.197
G1 X124.187 Y140.353 E.01174
;WIDTH:0.876888
G1 F615.379
G1 X124.259 Y140.267 E.0125
G1 X124.268 Y139.646 E.06915
;WIDTH:0.866527
G1 F623.327
G1 X125.07 Y139.646 E.08828
;WIDTH:0.876888
G1 F615.379
G1 X125.065 Y140.337 E.07697
G1 X125.09 Y140.516 E.02014
;WIDTH:0.82751
G1 F655.197
G1 X125.114 Y140.695 E.01891
;WIDTH:0.778132
G1 F700.524
G1 X125.139 Y140.874 E.01769
;WIDTH:0.728755
G1 F752.588
G1 X125.164 Y141.053 E.01647
;WIDTH:0.679377
G1 F813.013
G1 X125.188 Y141.232 E.01524
;WIDTH:0.63
G1 F883.987
G1 X125.187 Y151.952 E.83196
G1 X123.907 Y152.62 E.11206
G1 X123.1 Y153.115 E.07344
G1 X122.319 Y153.649 E.07344
G1 X121.565 Y154.221 E.07344
G1 X120.841 Y154.83 E.07344
G1 X120.148 Y155.475 E.07344
G1 X119.487 Y156.154 E.07354
G1 X118.86 Y156.865 E.07356
G1 X118.27 Y157.607 E.07357
G1 X117.718 Y158.378 E.07357
G1 X117.205 Y159.175 E.07357
G1 X116.732 Y159.997 E.07357
G1 X116.301 Y160.841 E.07357
G1 X115.913 Y161.706 E.07356
G1 X115.568 Y162.589 E.07357
G1 X115.268 Y163.49 E.07364
G1 X115.013 Y164.402 E.07349
G1 X114.804 Y165.326 E.07356
G1 X114.641 Y166.26 E.07357
G1 X114.526 Y167.201 E.07357
G1 X114.457 Y168.147 E.07356
G1 X114.436 Y169.094 E.07357
G1 X114.462 Y170.042 E.07357
G1 X114.535 Y170.987 E.07356
G1 X114.656 Y171.927 E.07357
G1 X114.823 Y172.861 E.07357
G1 X115.037 Y173.784 E.07357
G1 X115.296 Y174.696 E.07357
G1 X115.601 Y175.594 E.07356
G1 X115.95 Y176.475 E.07357
G1 X116.342 Y177.338 E.07357
G1 X116.778 Y178.18 E.07356
G1 X117.255 Y178.999 E.07357
G1 X117.772 Y179.794 E.07356
G1 X118.328 Y180.562 E.07357
G1 X118.922 Y181.3 E.07356
G1 X119.552 Y182.009 E.07357
G1 X120.216 Y182.685 E.07356
G1 X120.913 Y183.327 E.07357
G1 X121.642 Y183.933 E.07356
G1 X122.4 Y184.503 E.07357
G1 X123.186 Y185.033 E.07356
G1 X123.997 Y185.524 E.07356
G1 X124.831 Y185.974 E.07356
G1 X125.687 Y186.382 E.07357
G1 X126.562 Y186.746 E.07356
G1 X127.454 Y187.066 E.07356
G1 X128.361 Y187.341 E.07356
G1 X129.281 Y187.571 E.07357
G1 X130.211 Y187.754 E.07356
G1 X131.149 Y187.89 E.07357
G1 X132.093 Y187.98 E.07356
G1 X133.04 Y188.022 E.07356
G1 X133.988 Y188.018 E.07356
G1 X134.935 Y187.965 E.07356
G1 X135.877 Y187.866 E.07356
G1 X136.814 Y187.719 E.07357
G1 X137.742 Y187.526 E.07356
G1 X138.659 Y187.287 E.07356
G1 X139.563 Y187.003 E.07356
G1 X140.452 Y186.673 E.07356
G1 X141.323 Y186.3 E.07356
G1 X142.175 Y185.883 E.07356
G1 X143.005 Y185.425 E.07356
G1 X143.811 Y184.926 E.07356
G1 X144.59 Y184.387 E.07356
G1 X145.342 Y183.81 E.07356
G1 X146.065 Y183.196 E.07356
G1 X146.755 Y182.547 E.07356
G1 X147.413 Y181.864 E.07357
G1 X148.035 Y181.149 E.07356
G1 X148.621 Y180.404 E.07356
G1 X149.169 Y179.63 E.07356
G1 X149.678 Y178.83 E.07356
G1 X150.146 Y178.006 E.07355
G1 X150.572 Y177.16 E.07357
G1 X150.956 Y176.293 E.07355
G1 X151.296 Y175.408 E.07356
G1 X151.591 Y174.506 E.07363
G1 X151.841 Y173.593 E.07348
G1 X152.045 Y172.667 E.07356
G1 X152.203 Y171.732 E.07356
G1 X152.313 Y170.791 E.07355
G1 X152.377 Y169.845 E.07356
G1 X152.393 Y168.897 E.07356
G1 X152.362 Y167.95 E.07356
G1 X152.283 Y167.005 E.07356
G1 X152.158 Y166.066 E.07356
G1 X151.985 Y165.134 E.07355
G1 X151.767 Y164.211 E.07356
G1 X151.502 Y163.301 E.07355
G1 X151.193 Y162.405 E.07356
G1 X150.839 Y161.526 E.07356
G1 X150.442 Y160.665 E.07356
G1 X150.002 Y159.826 E.07355
G1 X149.525 Y159.017 E.07286
G1 X148.456 Y158.432 F9000
;TYPE:External perimeter
G1 F883.987
G1 X147.997 Y157.805 E.06031
G1 X147.417 Y157.091 E.07137
G1 X146.803 Y156.407 E.07137
G1 X146.155 Y155.754 E.07137
G1 X145.475 Y155.135 E.07137
G1 X144.765 Y154.55 E.07137
G1 X144.027 Y154.001 E.07137
