; generated by PrusaSlicer 2.5.0+linux-x64-GTK3 on 2022-10-07 at 17:20:06 UTC

; 

; external perimeters extrusion width = 0.63mm
; perimeters extrusion width = 0.66mm
; infill extrusion width = 0.66mm
; solid infill extrusion width = 0.66mm
; top infill extrusion width = 0.60mm
; support material extrusion width = 0.54mm
; first layer extrusion width = 0.63mm

; external perimeters extrusion width = 0.63mm
; perimeters extrusion width = 0.66mm
; infill extrusion width = 0.66mm
; solid infill extrusion width = 0.66mm
; top infill extrusion width = 0.60mm
; support material extrusion width = 0.54mm
; first layer extrusion width = 0.63mm

M107
;TYPE:Custom
G90 ; use absolute coordinates
M83 ; extruder relative mode
M140 S50 ; set final bed temp
M104 S150 ; set temporary nozzle temp to prevent oozing during homing
G4 S10 ; allow partial nozzle warmup
G28 ; home all axis
G1 Z50 F240
G1 X2 Y10 F3000
M104 S220 ; set final nozzle temp
M190 S50 ; wait for bed temp to stabilize
M109 S220 ; wait for nozzle temp to stabilize
G1 Z0.28 F240
G92 E0
G1 Y140 E10 F1500 ; prime the nozzle
G1 X2.3 F5000
G92 E0
G1 Y10 E10 F1200 ; prime the nozzle
G92 E0
G21 ; set units to millimeters
G90 ; use absolute coordinates
M83 ; use relative distances for extrusion
; Filament gcode
M107
;LAYER_CHANGE
;Z:0.3
;HEIGHT:0.3
;BEFORE_LAYER_CHANGE
G92 E0
;0.3


G1 E-5 F600
G1 Z.3 F9000
;AFTER_LAYER_CHANGE
;0.3
G1 X109.682 Y149.818
G1 E5 F600
M204 S500
;TYPE:Skirt/Brim
;WIDTH:0.63
G1 F883.987
G1 X182.765 Y96.313 E7.02886
G1 X184.819 Y95.02 E.18835
G1 X186.128 Y94.327 E.11494
G1 X188.352 Y93.355 E.18836
G1 X189.75 Y92.865 E.11494
G1 X192.095 Y92.236 E.18835
G1 X193.55 Y91.961 E.11495
G1 X195.962 Y91.69 E.18836
G1 X198.342 Y91.647 E.18472
G1 X200.045 Y91.743 E.13238
G1 X202.449 Y92.077 E.18836
G1 X204.332 Y92.507 E.14983
G1 X206.393 Y93.138 E.16727
G1 X208.639 Y94.056 E.18835
G1 X210.871 Y95.229 E.19563
G1 X212.197 Y96.061 E.12148
G1 X214.147 Y97.506 E.18836
G1 X215.267 Y98.475 E.11494
G1 X216.979 Y100.196 E.18836
G1 X217.942 Y101.321 E.11494
G1 X219.476 Y103.427 E.20217
G1 X220.709 Y105.518 E.18835
G1 X221.57 Y107.324 E.15528
G1 X222.329 Y109.266 E.16182
G1 X223.006 Y111.597 E.18835
G1 X223.512 Y114.334 E.21598
G1 X223.648 Y115.63 E.10112
G1 X223.728 Y118.055 E.18835
G1 X223.542 Y120.832 E.21599
G1 X223.138 Y123.226 E.18836
G1 X222.83 Y124.492 E.10112
G1 X222.403 Y125.91 E.11495
G1 X214.011 Y149.398 E1.93557
G1 X212.76 Y151.075 E.16237
G1 X127.843 Y213.253 E8.16735
G1 X125.768 Y214.639 E.19362
G1 X124.478 Y215.366 E.11494
G1 X122.28 Y216.395 E.18836
G1 X120.895 Y216.921 E.11494
G1 X119.654 Y217.318 E.10112
G1 X117.295 Y217.89 E.18835
G1 X115.833 Y218.13 E.11494
G1 X113.416 Y218.344 E.18836
G1 X111.935 Y218.363 E.11494
G1 X109.512 Y218.213 E.18836
G1 X108.045 Y218.01 E.11494
G1 X105.672 Y217.5 E.18835
G1 X104.251 Y217.08 E.11495
G1 X101.981 Y216.221 E.18836
G1 X100.639 Y215.594 E.11494
G1 X98.523 Y214.405 E.18835
G1 X97.29 Y213.584 E.11495
G1 X95.375 Y212.093 E.18835
G1 X93.485 Y210.301 E.20217
G1 X91.673 Y208.188 E.21599
G1 X90.905 Y207.135 E.10112
G1 X89.732 Y205.271 E.1709
G1 X88.456 Y202.745 E.21959
G1 X87.532 Y200.309 E.20217
G1 X86.82 Y197.619 E.21599
G1 X86.417 Y195.045 E.20217
G1 X86.277 Y192.706 E.18181
G1 X86.29 Y191.319 E.10766
G1 X86.544 Y188.547 E.21598
G1 X87.005 Y186.164 E.18835
G1 X87.386 Y184.76 E.11293
G1 X93.94 Y164.218 E1.67328
G1 X94.245 Y163.524 E.05883
G1 X96.258 Y160.024 E.3133
G1 X97.243 Y158.924 E.11455
G1 X109.609 Y149.871 E1.18935
G1 E-5 F600
G1 X120.36 Y176.882 F9000
G1 E5 F600
;TYPE:Support material
G1 F883.987
G1 X121.635 Y176.882 E.09894
G1 X121.635 Y177.503 E.04821
G1 X121.799 Y177.809 E.02694
G1 X122.437 Y178.248 E.0601
G1 X123.127 Y178.77 E.06717
G1 X123.788 Y179.325 E.06697
G1 X124.421 Y179.912 E.06697
G1 X125.023 Y180.53 E.06696
G1 X125.594 Y181.177 E.06697
G1 X126.132 Y181.851 E.06696
G1 X126.636 Y182.552 E.06697
G1 X127.104 Y183.277 E.06697
G1 X127.536 Y184.024 E.06697
G1 X127.929 Y184.792 E.06697
G1 X128.284 Y185.579 E.06696
G1 X128.6 Y186.382 E.06696
G1 X128.845 Y187.114 E.0599
G1 X128.845 Y197.489 E.80514
G1 X128.6 Y198.221 E.0599
G1 X128.284 Y199.024 E.06697
G1 X127.929 Y199.811 E.06697
G1 X127.536 Y200.578 E.06697
G1 X127.104 Y201.326 E.06697
G1 X126.636 Y202.051 E.06696
G1 X126.132 Y202.751 E.06697
G1 X125.594 Y203.426 E.06697
G1 X125.023 Y204.073 E.06697
G1 X124.718 Y204.386 E.03393
G1 X124.421 Y204.691 E.03303
G1 X123.788 Y205.278 E.06696
G1 X123.127 Y205.832 E.06697
G1 X122.439 Y206.353 E.06697
G1 X121.726 Y206.84 E.06697
G1 X120.99 Y207.289 E.06696
G1 X120.232 Y207.702 E.06697
G1 X119.455 Y208.077 E.06697
G1 X118.659 Y208.412 E.06696
G1 X117.848 Y208.707 E.06697
G1 X117.024 Y208.961 E.06697
G1 X116.188 Y209.174 E.06697
G1 X115.342 Y209.345 E.06696
G1 X114.488 Y209.474 E.06697
G1 X113.63 Y209.56 E.06697
G1 X112.768 Y209.603 E.06696
G1 X111.905 Y209.603 E.06696
G1 X111.043 Y209.56 E.06696
G1 X110.184 Y209.474 E.06697
G1 X109.331 Y209.345 E.06696
G1 X108.485 Y209.174 E.06697
G1 X107.649 Y208.961 E.06696
G1 X106.825 Y208.707 E.06697
G1 X106.008 Y208.409 E.06747
G1 X106.008 Y208.205 E.01587
G1 X105.523 Y208.205 E.03765
G1 X104.441 Y207.702 E.09255
G1 X103.683 Y207.289 E.06697
G1 X102.947 Y206.84 E.06696
G1 X102.234 Y206.353 E.06697
G1 X101.546 Y205.832 E.06697
G1 X100.885 Y205.278 E.06697
G1 X100.252 Y204.691 E.06697
G1 X99.65 Y204.073 E.06697
G1 X99.079 Y203.426 E.06696
G1 X98.541 Y202.751 E.06696
G1 X98.037 Y202.051 E.06697
G1 X97.569 Y201.326 E.06696
G1 X97.137 Y200.578 E.06697
G1 X96.744 Y199.811 E.06697
G1 X96.389 Y199.024 E.06697
G1 X96.073 Y198.221 E.06696
G1 X95.825 Y197.482 E.06048
G1 X95.825 Y196.325 E.08975
G1 X95.509 Y196.325 E.02457
G1 X95.373 Y195.731 E.04733
G1 X95.223 Y194.881 E.06697
G1 X95.116 Y194.025 E.06696
G1 X95.051 Y193.164 E.06697
G1 X95.03 Y192.301 E.06697
G1 X95.051 Y191.439 E.06697
G1 X95.116 Y190.578 E.06696
G1 X95.223 Y189.722 E.06696
G1 X95.398 Y188.761 E.07578
G1 X95.825 Y188.761 E.03314
G1 X95.825 Y187.121 E.1273
G1 X96.073 Y186.382 E.06048
G1 X96.389 Y185.579 E.06697
G1 X96.744 Y184.792 E.06697
G1 X97.137 Y184.024 E.06697
G1 X97.342 Y183.67 E.03175
G1 X97.522 Y183.67 E.014
G1 X97.522 Y183.358 E.02425
G1 X98.037 Y182.552 E.07417
G1 X98.541 Y181.851 E.06697
G1 X99.079 Y181.177 E.06696
G1 X99.65 Y180.53 E.06696
G1 X100.252 Y179.912 E.06697
G1 X100.885 Y179.325 E.06696
G1 X101.546 Y178.77 E.06697
G1 X102.236 Y178.248 E.06717
G1 X102.873 Y177.807 E.06008
G1 X103.032 Y177.504 E.0266
G1 X103.032 Y176.882 E.0483
G1 X104.311 Y176.882 E.09918
G1 X104.311 Y175.185 E.1317
G1 X120.36 Y175.185 E1.24546
G1 X120.36 Y176.797 E.12511
G1 X110.177 Y184.446 F9000
G1 F883.987
G1 X110.177 Y186.143 E.1317
G1 X108.48 Y186.143 E.1317
G1 X108.48 Y187.84 E.1317
G1 X106.783 Y187.84 E.1317
G1 X106.783 Y189.537 E.1317
G1 X105.086 Y189.537 E.1317
G1 X105.086 Y195.55 E.46659
G1 X106.783 Y195.55 E.1317
G1 X106.783 Y197.247 E.1317
G1 X108.48 Y197.247 E.1317
G1 X108.48 Y198.944 E.1317
G1 X110.177 Y198.944 E.1317
G1 X110.177 Y200.641 E.1317
G1 X114.493 Y200.641 E.3349
G1 X114.493 Y198.944 E.1317
G1 X116.19 Y198.944 E.1317
G1 X116.19 Y197.247 E.1317
G1 X117.887 Y197.247 E.1317
G1 X117.887 Y195.55 E.1317
G1 X119.584 Y195.55 E.1317
G1 X119.584 Y192.155 E.26339
G1 X121.281 Y192.155 E.1317
G1 X121.281 Y191.234 E.0715
G1 X119.584 Y191.234 E.1317
G1 X119.584 Y187.84 E.26339
G1 X117.887 Y187.84 E.1317
G1 X117.887 Y186.143 E.1317
G1 X114.493 Y186.143 E.26339
G1 X114.493 Y184.446 E.1317
G1 X110.262 Y184.446 E.32831
G1 E-5 F600
G1 X128.047 Y198.931 F9000
G1 E5 F600
G1 F883.987
G1 X128.047 Y186.367 E.97496
G1 X127.815 Y185.777 E.04925
G1 X127.418 Y184.912 E.07385
G1 X127.418 Y199.691 E1.14693
G1 X127.088 Y200.335 E.05613
G1 X126.79 Y200.852 E.04632
G1 X126.79 Y183.751 E1.32707
G1 X126.162 Y182.764 E.09078
G1 X126.162 Y201.839 E1.48021
G1 X125.533 Y202.686 E.08189
G1 X125.533 Y181.917 E1.61177
G1 X124.905 Y181.165 E.07605
G1 X124.905 Y203.438 E1.72846
G1 X124.276 Y204.11 E.07139
G1 X124.276 Y180.493 E1.83273
G1 X124.065 Y180.277 E.02344
G1 X123.648 Y179.889 E.0442
G1 X123.648 Y204.714 E1.92642
G1 X123.019 Y205.258 E.06454
G1 X123.019 Y179.344 E2.01097
G1 X122.391 Y178.851 E.06199
G1 X122.391 Y205.752 E2.08751
G1 X121.762 Y206.199 E.05986
G1 X121.762 Y178.399 E2.15729
G1 X121.41 Y178.162 E.03297
G1 X121.134 Y177.645 E.04546
G1 X121.134 Y190.725 E1.01503
G1 X120.505 Y190.725 E.04877
G1 X120.505 Y177.391 E1.03476
G1 X119.877 Y177.391 E.04877
G1 X119.877 Y187.331 E.77136
G1 X119.248 Y187.331 E.04877
G1 X119.248 Y175.694 E.90306
G1 X118.62 Y175.694 E.04877
G1 X118.62 Y187.331 E.90306
G1 X118.396 Y187.331 E.01736
G1 X118.396 Y185.634 E.1317
G1 X117.991 Y185.634 E.03142
G1 X117.991 Y175.694 E.77136
G1 X117.363 Y175.694 E.04877
G1 X117.363 Y185.634 E.77136
G1 X116.735 Y185.634 E.04877
G1 X116.735 Y175.694 E.77136
G1 X116.106 Y175.694 E.04877
G1 X116.106 Y185.634 E.77136
G1 X115.478 Y185.634 E.04877
G1 X115.478 Y175.694 E.77136
G1 X114.849 Y175.694 E.04877
G1 X114.849 Y183.937 E.63967
G1 X114.221 Y183.937 E.04877
G1 X114.221 Y175.694 E.63967
G1 X113.592 Y175.694 E.04877
G1 X113.592 Y183.937 E.63967
G1 X112.964 Y183.937 E.04877
G1 X112.964 Y175.694 E.63967
G1 X112.335 Y175.694 E.04877
G1 X112.335 Y183.937 E.63967
G1 X111.707 Y183.937 E.04877
G1 X111.707 Y175.694 E.63967
G1 X111.078 Y175.694 E.04877
G1 X111.078 Y183.937 E.63967
G1 X110.45 Y183.937 E.04877
G1 X110.45 Y175.694 E.63967
G1 X109.821 Y175.694 E.04877
G1 X109.821 Y183.937 E.63967
G1 X109.668 Y183.937 E.01187
G1 X109.668 Y185.634 E.1317
G1 X109.193 Y185.634 E.0369
G1 X109.193 Y175.694 E.77136
G1 X108.564 Y175.694 E.04877
G1 X108.564 Y185.634 E.77136
G1 X107.971 Y185.634 E.04603
G1 X107.971 Y187.331 E.1317
G1 X107.936 Y187.331 E.00274
G1 X107.936 Y175.694 E.90306
G1 X107.308 Y175.694 E.04877
G1 X107.308 Y187.331 E.90306
G1 X106.679 Y187.331 E.04877
G1 X106.679 Y175.694 E.90306
G1 X106.051 Y175.694 E.04877
G1 X106.051 Y189.028 E1.03476
G1 X105.422 Y189.028 E.04877
G1 X105.422 Y175.694 E1.03476
G1 X104.82 Y175.694 E.04675
G1 X104.82 Y177.391 E.1317
G1 X104.794 Y177.391 E.00202
G1 X104.794 Y207.307 E2.32156
G1 X105.422 Y207.61 E.05413
G1 X105.422 Y196.059 E.89638
G1 X106.051 Y196.059 E.04877
G1 X106.051 Y207.696 E.90306
G1 X106.517 Y207.696 E.03617
G1 X106.517 Y208.053 E.02774
G1 X106.679 Y208.112 E.01341
G1 X106.679 Y197.756 E.80369
G1 X107.308 Y197.756 E.04877
G1 X107.308 Y208.323 E.82006
G1 X107.936 Y208.509 E.05086
G1 X107.936 Y197.756 E.83448
G1 X107.971 Y197.756 E.00274
G1 X107.971 Y199.453 E.1317
G1 X108.564 Y199.453 E.04603
G1 X108.564 Y208.669 E.7152
G1 X109.193 Y208.798 E.04978
G1 X109.193 Y199.453 E.7252
G1 X109.668 Y199.453 E.0369
G1 X109.668 Y201.15 E.1317
G1 X109.821 Y201.15 E.01187
G1 X109.821 Y208.904 E.60176
G1 X110.45 Y208.989 E.04921
G1 X110.45 Y201.15 E.60831
G1 X111.078 Y201.15 E.04877
G1 X111.078 Y209.052 E.61319
G1 X111.707 Y209.083 E.04883
G1 X111.707 Y201.15 E.61564
G1 X112.335 Y201.15 E.04877
G1 X112.335 Y209.094 E.61646
G1 X112.964 Y209.083 E.04878
G1 X112.964 Y201.15 E.61565
G1 X113.592 Y201.15 E.04877
G1 X113.592 Y209.052 E.61321
G1 X114.221 Y208.989 E.04901
G1 X114.221 Y201.15 E.60833
G1 X114.849 Y201.15 E.04877
G1 X114.849 Y208.905 E.60179
G1 X115.478 Y208.798 E.04946
G1 X115.478 Y199.453 E.72524
G1 X116.106 Y199.453 E.04877
G1 X116.106 Y208.67 E.71525
G1 X116.735 Y208.51 E.05033
G1 X116.735 Y197.756 E.83453
G1 X117.363 Y197.756 E.04877
G1 X117.363 Y208.324 E.82011
G1 X117.991 Y208.113 E.05144
G1 X117.991 Y197.756 E.80376
G1 X118.396 Y197.756 E.03142
G1 X118.396 Y196.059 E.1317
G1 X118.62 Y196.059 E.01735
G1 X118.62 Y207.876 E.91705
G1 X119.248 Y207.611 E.05293
G1 X119.248 Y196.059 E.89647
G1 X119.877 Y196.059 E.04877
G1 X119.877 Y207.308 E.87299
G1 X120.505 Y206.974 E.05525
G1 X120.505 Y192.664 E1.11042
G1 X121.134 Y192.664 E.04877
G1 X121.134 Y206.903 E1.10495
G1 X104.165 Y207.262 F9000
G1 F883.987
G1 X104.165 Y177.391 E2.31808
G1 X103.542 Y177.391 E.0484
G1 X103.537 Y206.603 E2.26696
G1 X102.908 Y206.197 E.05807
G1 X102.908 Y178.401 E2.15704
G1 X102.28 Y178.853 E.06008
G1 X102.28 Y205.75 E2.08723
G1 X101.651 Y205.256 E.062
G1 X101.651 Y179.346 E2.01066
G1 X101.023 Y179.891 E.06455
G1 X101.023 Y204.711 E1.92607
G1 X100.394 Y204.107 E.06764
G1 X100.394 Y180.495 E1.83235
G1 X99.766 Y181.167 E.0714
G1 X99.766 Y203.435 E1.72804
G1 X99.137 Y202.683 E.07606
G1 X99.137 Y181.92 E1.6113
G1 X98.509 Y182.768 E.08191
G1 X98.509 Y201.835 E1.47969
G1 X97.881 Y200.848 E.09084
G1 X97.881 Y184.179 E1.29351
G1 X97.636 Y184.179 E.019
G1 X97.252 Y184.916 E.06449
G1 X97.252 Y199.687 E1.1462
G1 X96.858 Y198.826 E.07344
G1 X96.624 Y198.229 E.04977
G1 X96.624 Y186.374 E.92002
G1 X96.334 Y187.204 E.06825
G1 X96.334 Y189.27 E.16034
G1 X95.995 Y189.27 E.02631
G1 X95.995 Y196.071 E.52772
G1 E-5 F600
G1 X123.339 Y173.492 F9000
G1 E5 F600
;TYPE:Perimeter
;WIDTH:0.691533
G1 F797.255
G1 X123.538 Y173.77 E.02944
;WIDTH:0.660766
G1 F838.384
G1 X123.738 Y174.048 E.028
;WIDTH:0.63
G1 F883.987
G1 X124.552 Y174.585 E.07568
G1 X125.423 Y175.219 E.08365
G1 X126.261 Y175.895 E.08349
G1 X127.063 Y176.611 E.08348
G1 X127.829 Y177.367 E.08348
G1 X128.556 Y178.159 E.08348
G1 X129.243 Y178.988 E.08348
G1 X129.887 Y179.849 E.08348
G1 X130.487 Y180.742 E.08348
G1 X131.042 Y181.663 E.08348
G1 X131.551 Y182.612 E.08349
G1 X132.011 Y183.584 E.08348
G1 X132.422 Y184.578 E.08348
G1 X132.783 Y185.592 E.08349
G1 X133.093 Y186.622 E.08348
G1 X133.35 Y187.666 E.08348
G1 X133.556 Y188.722 E.08348
G1 X133.708 Y189.787 E.08348
G1 X133.807 Y190.858 E.08348
G1 X133.852 Y191.933 E.08348
G1 X133.844 Y193.009 E.08348
G1 X133.782 Y194.083 E.08348
G1 X133.666 Y195.152 E.08348
G1 X133.497 Y196.215 E.08349
G1 X133.275 Y197.267 E.08348
G1 X133 Y198.308 E.08349
G1 X132.674 Y199.333 E.08348
G1 X132.298 Y200.34 E.08349
G1 X131.871 Y201.328 E.08348
G1 X131.431 Y202.221 E.07725
G1 X130.871 Y203.234 E.08983
G1 X130.303 Y204.146 E.08337
G1 X129.688 Y205.029 E.08348
G1 X129.03 Y205.88 E.08348
G1 X128.331 Y206.697 E.08348
G1 X127.592 Y207.479 E.08348
G1 X126.814 Y208.222 E.08348
G1 X126 Y208.926 E.08349
G1 X125.152 Y209.588 E.08347
G1 X124.272 Y210.207 E.08349
G1 X123.363 Y210.781 E.08348
G1 X122.425 Y211.309 E.08348
G1 X121.463 Y211.789 E.08348
G1 X120.477 Y212.221 E.08348
G1 X119.472 Y212.603 E.08348
G1 X118.448 Y212.934 E.08349
G1 X117.41 Y213.214 E.08348
G1 X116.358 Y213.441 E.08349
G1 X115.296 Y213.616 E.08348
G1 X114.228 Y213.737 E.08348
G1 X113.154 Y213.805 E.08348
G1 X112.078 Y213.819 E.08349
G1 X111.003 Y213.779 E.08348
G1 X109.931 Y213.686 E.08349
G1 X108.866 Y213.539 E.08348
G1 X107.809 Y213.339 E.08348
G1 X106.763 Y213.086 E.08348
G1 X105.731 Y212.782 E.08348
G1 X104.716 Y212.426 E.08348
G1 X103.72 Y212.02 E.08348
G1 X102.745 Y211.565 E.08349
G1 X101.794 Y211.061 E.08348
G1 X100.87 Y210.511 E.08349
G1 X99.974 Y209.915 E.08348
G1 X99.109 Y209.275 E.08348
G1 X98.278 Y208.593 E.08349
G1 X97.481 Y207.87 E.08348
G1 X96.722 Y207.108 E.08347
G1 X96.001 Y206.309 E.08349
G1 X95.321 Y205.475 E.08348
G1 X94.684 Y204.609 E.08348
G1 X94.091 Y203.711 E.08348
G1 X93.544 Y202.785 E.08348
G1 X93.043 Y201.833 E.08348
G1 X92.591 Y200.857 E.08349
G1 X92.188 Y199.859 E.08348
G1 X91.836 Y198.843 E.08348
G1 X91.534 Y197.81 E.08348
G1 X91.304 Y196.842 E.07725
G1 X91.088 Y195.704 E.08982
G1 X90.945 Y194.64 E.08337
G1 X90.855 Y193.568 E.08348
G1 X90.818 Y192.492 E.08349
G1 X90.836 Y191.417 E.08348
G1 X90.907 Y190.343 E.08349
G1 X91.031 Y189.275 E.08348
G1 X91.209 Y188.214 E.08349
G1 X91.44 Y187.163 E.08348
G1 X91.723 Y186.125 E.08348
G1 X92.057 Y185.103 E.08348
G1 X92.442 Y184.098 E.08348
G1 X92.877 Y183.114 E.08348
G1 X93.361 Y182.153 E.08348
G1 X93.891 Y181.218 E.08348
G1 X94.468 Y180.31 E.08348
G1 X95.09 Y179.432 E.08348
G1 X95.755 Y178.586 E.08348
G1 X96.461 Y177.774 E.08349
G1 X97.207 Y176.999 E.08348
G1 X98.027 Y176.228 E.08739
G1 X98.261 Y175.891 E.03182
G1 X98.317 Y175.588 E.02387
G1 X98.317 Y165.708 E.76677
G1 X100.071 Y163.953 E.19253
;WIDTH:0.67171
G1 F823.277
G1 X100.131 Y163.881 E.00779
;WIDTH:0.71342
G1 F770.369
G1 X100.191 Y163.809 E.00833
;WIDTH:0.755131
G1 F723.851
G1 X100.251 Y163.738 E.00886
