; generated by PrusaSlicer 2.5.0+linux-x64-GTK3 on 2022-10-06 at 21:02:00 UTC

; 

; external perimeters extrusion width = 0.63mm
; perimeters extrusion width = 0.66mm
; infill extrusion width = 0.66mm
; solid infill extrusion width = 0.66mm
; top infill extrusion width = 0.60mm
; support material extrusion width = 0.54mm
; first layer extrusion width = 0.63mm

; external perimeters extrusion width = 0.63mm
; perimeters extrusion width = 0.66mm
; infill extrusion width = 0.66mm
; solid infill extrusion width = 0.66mm
; top infill extrusion width = 0.60mm
; support material extrusion width = 0.54mm
; first layer extrusion width = 0.63mm

M107
;TYPE:Custom
G90 ; use absolute coordinates
M83 ; extruder relative mode
M140 S50 ; set final bed temp
M104 S150 ; set temporary nozzle temp to prevent oozing during homing
G4 S10 ; allow partial nozzle warmup
G28 ; home all axis
G1 Z50 F240
G1 X2 Y10 F3000
M104 S225 ; set final nozzle temp
M190 S50 ; wait for bed temp to stabilize
M109 S225 ; wait for nozzle temp to stabilize
G1 Z0.28 F240
G92 E0
G1 Y140 E10 F1500 ; prime the nozzle
G1 X2.3 F5000
G92 E0
G1 Y10 E10 F1200 ; prime the nozzle
G92 E0
G21 ; set units to millimeters
G90 ; use absolute coordinates
M83 ; use relative distances for extrusion
; Filament gcode
M107
;LAYER_CHANGE
;Z:0.3
;HEIGHT:0.3
;BEFORE_LAYER_CHANGE
G92 E0
;0.3


G1 E-10 F600
G1 Z.3 F9000
;AFTER_LAYER_CHANGE
;0.3
G1 X100.951 Y90.541
G1 E10 F600
M204 S500
;TYPE:Skirt/Brim
;WIDTH:0.63
G1 F883.987
G1 X183.853 Y36.237 E7.69067
G1 X184.975 Y35.574 E.10112
G1 X187.147 Y34.492 E.18836
G1 X188.519 Y33.933 E.11495
G1 X190.829 Y33.188 E.18835
G1 X192.269 Y32.84 E.11494
G1 X194.664 Y32.449 E.18836
G1 X196.14 Y32.32 E.11494
G1 X198.342 Y32.288 E.1709
G1 X200.045 Y32.384 E.13238
G1 X202.625 Y32.752 E.20217
G1 X205.154 Y33.374 E.20217
G1 X207.444 Y34.179 E.18836
G1 X209.732 Y35.238 E.19563
G1 X211.098 Y36.003 E.12148
G1 X213.117 Y37.349 E.18835
G1 X215.136 Y38.997 E.20217
G1 X216.921 Y40.776 E.19563
G1 X217.943 Y41.963 E.12148
G1 X219.476 Y44.069 E.20217
G1 X220.709 Y46.159 E.18835
G1 X221.57 Y47.965 E.15528
G1 X222.329 Y49.908 E.16182
G1 X223.006 Y52.238 E.18835
G1 X223.489 Y54.799 E.20217
G1 X223.713 Y57.394 E.20217
G1 X223.666 Y60.177 E.21598
G1 X223.394 Y62.504 E.18181
G1 X223.138 Y63.867 E.10766
G1 X222.459 Y66.383 E.20217
G1 X213.965 Y90.161 E1.95945
G1 X210.407 Y99.081 E.74523
G1 X209.049 Y100.742 E.16651
G1 X126.771 Y154.647 E7.63324
G1 X124.635 Y155.924 E.19306
G1 X123.31 Y156.585 E.11495
G1 X121.063 Y157.503 E.18835
G1 X119.654 Y157.959 E.11495
G1 X117.515 Y158.484 E.1709
G1 X116.01 Y158.747 E.11856
G1 X114.538 Y158.915 E.11494
G1 X112.113 Y159.007 E.18836
G1 X110.633 Y158.952 E.11494
G1 X108.304 Y158.692 E.18181
G1 X105.5 Y158.095 E.22251
G1 X103.19 Y157.35 E.18835
G1 X101.818 Y156.791 E.11494
G1 X100.18 Y155.992 E.14146
G1 X98.523 Y155.046 E.148
G1 X97.29 Y154.226 E.11495
G1 X95.376 Y152.734 E.18835
G1 X93.362 Y150.813 E.21598
G1 X92.493 Y149.842 E.10112
G1 X91.007 Y147.923 E.18835
G1 X89.531 Y145.563 E.21599
G1 X88.385 Y143.224 E.20217
G1 X87.478 Y140.781 E.20217
G1 X86.877 Y138.517 E.18181
G1 X86.614 Y137.155 E.10766
G1 X86.312 Y134.388 E.21598
G1 X86.281 Y132.565 E.14146
G1 X86.372 Y130.66 E.148
G1 X86.73 Y128.08 E.20218
G1 X87.343 Y125.548 E.20217
G1 X93.94 Y104.859 E1.68509
G1 X99.651 Y92.065 E1.08733
G1 X100.893 Y90.609 E.14844
G1 E-10 F600
G1 X121.766 Y101.129 F9000
G1 E10 F600
;TYPE:Support material
G1 F883.987
G1 X120.992 Y101.925 E.08611
G1 X121.018 Y102.905 E.07611
G1 X121.013 Y118.301 E1.1947
G1 X121.324 Y118.881 E.05112
G1 X122.072 Y119.393 E.07033
G1 X122.739 Y119.898 E.06495
G1 X123.376 Y120.433 E.06456
G1 X123.986 Y120.999 E.06456
G1 X124.567 Y121.595 E.06456
G1 X125.118 Y122.218 E.06456
G1 X125.636 Y122.869 E.06456
G1 X126.122 Y123.544 E.06456
G1 X126.351 Y123.899 E.03275
G1 X126.573 Y124.243 E.03181
G1 X126.989 Y124.964 E.06456
G1 X127.369 Y125.704 E.06456
G1 X127.711 Y126.462 E.06456
G1 X128.015 Y127.237 E.06456
G1 X128.263 Y127.975 E.06043
G1 X128.263 Y137.911 E.7711
G1 X128.015 Y138.649 E.06043
G1 X127.711 Y139.424 E.06456
G1 X127.369 Y140.182 E.06456
G1 X126.989 Y140.922 E.06456
G1 X126.573 Y141.643 E.06456
G1 X126.122 Y142.342 E.06456
G1 X125.636 Y143.017 E.06456
G1 X125.118 Y143.668 E.06456
G1 X124.567 Y144.291 E.06456
G1 X123.986 Y144.887 E.06456
G1 X123.376 Y145.453 E.06455
G1 X122.739 Y145.988 E.06456
G1 X122.076 Y146.49 E.06456
G1 X121.389 Y146.959 E.06456
G1 X120.679 Y147.392 E.06456
G1 X119.948 Y147.79 E.06456
G1 X119.199 Y148.151 E.06456
G1 X118.432 Y148.474 E.06456
G1 X117.65 Y148.759 E.06456
G1 X116.855 Y149.004 E.06456
G1 X116.049 Y149.209 E.06456
G1 X115.234 Y149.374 E.06456
G1 X114.411 Y149.498 E.06456
G1 X113.583 Y149.581 E.06456
G1 X112.752 Y149.622 E.06456
G1 X111.921 Y149.622 E.06456
G1 X111.09 Y149.581 E.06456
G1 X110.682 Y149.54 E.03183
G1 X110.262 Y149.498 E.03274
G1 X109.439 Y149.374 E.06455
G1 X108.624 Y149.209 E.06456
G1 X107.818 Y149.004 E.06456
G1 X107.023 Y148.759 E.06456
G1 X106.241 Y148.474 E.06456
G1 X105.852 Y148.31 E.03273
G1 X105.474 Y148.151 E.03182
G1 X104.725 Y147.79 E.06456
G1 X103.994 Y147.392 E.06456
G1 X103.284 Y146.958 E.06456
G1 X102.597 Y146.49 E.06456
G1 X102.261 Y146.235 E.03273
G1 X101.934 Y145.988 E.03182
G1 X101.297 Y145.453 E.06456
G1 X100.687 Y144.887 E.06456
G1 X100.106 Y144.291 E.06456
G1 X99.555 Y143.668 E.06456
G1 X99.037 Y143.017 E.06456
G1 X98.551 Y142.342 E.06456
G1 X98.1 Y141.643 E.06456
G1 X97.684 Y140.922 E.06456
G1 X97.304 Y140.182 E.06456
G1 X96.962 Y139.424 E.06456
G1 X96.658 Y138.649 E.06456
G1 X96.408 Y137.904 E.06102
G1 X96.408 Y127.982 E.76999
G1 X96.658 Y127.237 E.06102
G1 X96.962 Y126.462 E.06456
G1 X97.304 Y125.704 E.06456
G1 X97.684 Y124.964 E.06456
G1 X98.1 Y124.243 E.06456
G1 X98.551 Y123.544 E.06456
G1 X99.037 Y122.869 E.06456
G1 X99.555 Y122.218 E.06456
G1 X100.106 Y121.595 E.06456
G1 X100.687 Y120.999 E.06456
G1 X101.297 Y120.433 E.06456
G1 X101.934 Y119.898 E.06456
G1 X102.601 Y119.393 E.06495
G1 X103.351 Y118.875 E.07075
G1 X103.655 Y118.3 E.05048
G1 X103.655 Y102.905 E1.19462
G1 X103.681 Y101.925 E.07611
G1 X102.905 Y101.128 E.08631
G1 X102.905 Y93.523 E.59014
G1 X121.766 Y93.523 E1.46365
G1 X121.766 Y101.044 E.58364
G1 E-10 F600
G1 X126.476 Y141.303 F9000
G1 E10 F600
G1 F883.987
G1 X126.476 Y125.092 E1.25797
G1 X126.139 Y124.509 E.0523
G1 X125.701 Y123.831 E.06259
G1 X125.23 Y123.176 E.06259
G1 X124.728 Y122.546 E.06259
G1 X124.194 Y121.941 E.06259
G1 X123.648 Y121.381 E.0607
G1 X123.648 Y144.505 E1.79447
G1 X123.04 Y145.071 E.06447
G1 X122.422 Y145.589 E.06259
G1 X121.779 Y146.076 E.06259
G1 X120.82 Y146.71 E.08919
G1 X120.82 Y119.018 E2.14893
G1 X120.504 Y118.428 E.0519
G1 X120.509 Y102.91 E1.20428
G1 X120.477 Y101.724 E.09201
G1 X120.82 Y101.372 E.0381
G1 X120.82 Y94.032 E.56959
G1 X117.992 Y94.032 E.21947
G1 X117.992 Y148.093 E4.1952
G1 X117.488 Y148.276 E.04157
G1 X116.717 Y148.514 E.06259
G1 X115.936 Y148.713 E.06259
G1 X115.163 Y148.869 E.06116
G1 X115.163 Y94.032 E4.25542
G1 X112.335 Y94.032 E.21947
G1 X112.335 Y149.113 E4.27439
G1 X111.933 Y149.113 E.0312
G1 X111.128 Y149.073 E.06259
G1 X110.325 Y148.993 E.06259
G1 X109.507 Y148.869 E.06421
G1 X109.507 Y94.032 E4.25538
G1 X106.679 Y94.032 E.21947
G1 X106.679 Y148.092 E4.19513
G1 X105.684 Y147.687 E.08339
G1 X104.957 Y147.337 E.06259
G1 X104.249 Y146.951 E.06259
G1 X103.851 Y146.708 E.03618
G1 X103.851 Y119.019 E2.14875
G1 X103.743 Y119.224 E.01798
G1 X102.9 Y119.805 E.07949
G1 X102.251 Y120.297 E.06314
G1 X101.633 Y120.815 E.06259
G1 X101.023 Y121.383 E.06473
G1 X101.023 Y144.503 E1.79409
G1 X100.479 Y143.945 E.06044
G1 X99.945 Y143.34 E.06258
G1 X99.443 Y142.71 E.06259
G1 X98.972 Y142.055 E.06259
G1 X98.534 Y141.377 E.06259
G1 X98.195 Y140.79 E.05267
G1 X98.195 Y124.587 E1.25732
G1 E-10 F600
G1 X103.851 Y101.735 F9000
G1 E10 F600
G1 F883.987
G1 X103.851 Y93.778 E.61749
G1 E-10 F600
G1 X128.263 Y115.246 F9000
G1 E10 F600
G1 F883.987
G1 X127.734 Y114.775 E.05497
G1 X126.833 Y114.048 E.08984
G1 X125.645 Y113.198 E.1134
G1 X125.645 Y106.518 E.51839
G1 X128.263 Y106.518 E.20319
G1 X128.263 Y115.161 E.67078
G1 X126.476 Y113.473 F9000
G1 F883.987
G1 X126.476 Y106.772 E.52
G1 E-10 F600
G1 X90.881 Y134.517 F9000
G1 E10 F600
;TYPE:Perimeter
;WIDTH:0.63
G1 F883.987
G1 X90.818 Y133.134 E.10745
G1 X90.836 Y132.059 E.08348
G1 X90.907 Y130.985 E.08349
G1 X91.031 Y129.917 E.08348
G1 X91.209 Y128.856 E.08349
G1 X91.44 Y127.805 E.08348
G1 X91.723 Y126.767 E.08348
G1 X92.057 Y125.744 E.08348
G1 X92.442 Y124.74 E.08348
G1 X92.877 Y123.756 E.08348
G1 X93.361 Y122.795 E.08348
G1 X93.891 Y121.859 E.08348
G1 X94.468 Y120.951 E.08348
G1 X95.09 Y120.073 E.08348
G1 X95.755 Y119.227 E.08348
G1 X96.461 Y118.416 E.08349
G1 X97.207 Y117.641 E.08348
G1 X98.027 Y116.869 E.08739
G1 X98.261 Y116.532 E.03182
G1 X98.317 Y116.23 E.02387
G1 X98.317 Y106.349 E.76677
G1 X100.071 Y104.595 E.19253
;WIDTH:0.67171
G1 F823.277
G1 X100.131 Y104.523 E.00779
;WIDTH:0.71342
G1 F770.369
G1 X100.191 Y104.451 E.00833
;WIDTH:0.755131
G1 F723.851
G1 X100.251 Y104.379 E.00886
;WIDTH:0.796841
G1 F682.631
G1 X100.311 Y104.307 E.0094
;WIDTH:0.838551
G1 F645.852
G1 X100.371 Y104.235 E.00993
;WIDTH:0.880262
G1 F612.834
G1 X100.43 Y104.164 E.01047
G1 X100.442 Y103.544 E.06942
;WIDTH:0.869766
G1 F620.821
G1 X101.246 Y103.544 E.08881
;WIDTH:0.880262
G1 F612.834
G1 X101.24 Y104.234 E.07734
G1 X101.261 Y104.384 E.01689
;WIDTH:0.838551
G1 F645.852
G1 X101.282 Y104.533 E.01602
;WIDTH:0.796841
G1 F682.631
G1 X101.302 Y104.683 E.01516
;WIDTH:0.755131
G1 F723.851
G1 X101.323 Y104.832 E.0143
;WIDTH:0.71342
G1 F770.369
G1 X101.344 Y104.982 E.01343
;WIDTH:0.67171
G1 F823.277
G1 X101.365 Y105.131 E.01257
;WIDTH:0.63
G1 F883.987
G1 X101.359 Y117.461 E.95682
G1 X100.486 Y118.117 E.08475
G1 X99.762 Y118.726 E.07344
G1 X99.009 Y119.431 E.08001
G1 X98.351 Y120.114 E.07364
G1 X97.727 Y120.829 E.07364
G1 X97.14 Y121.575 E.07364
G1 X96.591 Y122.349 E.07364
G1 X96.081 Y123.149 E.07364
G1 X95.612 Y123.974 E.07364
G1 X95.184 Y124.821 E.07364
G1 X94.8 Y125.688 E.07364
G1 X94.459 Y126.574 E.07364
G1 X94.163 Y127.476 E.07364
G1 X93.912 Y128.391 E.07364
G1 X93.708 Y129.318 E.07363
G1 X93.55 Y130.253 E.07364
G1 X93.439 Y131.196 E.07363
G1 X93.376 Y132.142 E.07364
G1 X93.359 Y133.091 E.07363
G1 X93.39 Y134.04 E.07364
G1 X93.469 Y134.985 E.07363
G1 X93.594 Y135.922 E.07336
G1 X93.785 Y136.935 E.07998
G1 X93.986 Y137.782 E.06757
G1 X94.251 Y138.693 E.07364
G1 X94.561 Y139.59 E.07364
G1 X94.916 Y140.47 E.07363
G1 X95.314 Y141.332 E.07364
G1 X95.754 Y142.172 E.07363
G1 X96.236 Y142.989 E.07364
G1 X96.759 Y143.781 E.07364
G1 X97.32 Y144.547 E.07363
G1 X97.919 Y145.283 E.07363
G1 X98.554 Y145.988 E.07364
G1 X99.224 Y146.661 E.0737
G1 X99.925 Y147.299 E.07356
G1 X100.658 Y147.901 E.07364
G1 X101.421 Y148.466 E.07363
G1 X102.21 Y148.992 E.07363
G1 X103.025 Y149.478 E.07364
G1 X103.863 Y149.923 E.07363
G1 X104.723 Y150.325 E.07364
G1 X105.601 Y150.684 E.07363
G1 X106.496 Y150.999 E.07363
G1 X107.406 Y151.268 E.07363
G1 X108.328 Y151.492 E.07363
G1 X109.26 Y151.669 E.07363
G1 X110.2 Y151.799 E.07363
G1 X111.145 Y151.882 E.07364
G1 X112.094 Y151.918 E.07363
G1 X113.042 Y151.906 E.07363
G1 X113.989 Y151.847 E.07363
G1 X114.932 Y151.741 E.07363
G1 X115.869 Y151.588 E.07363
G1 X116.796 Y151.388 E.07364
G1 X117.712 Y151.142 E.07363
G1 X118.615 Y150.85 E.07363
G1 X119.503 Y150.514 E.07363
G1 X120.372 Y150.134 E.07363
G1 X121.221 Y149.711 E.07363
G1 X122.048 Y149.246 E.07363
G1 X122.851 Y148.74 E.07363
G1 X123.627 Y148.195 E.07364
G1 X124.376 Y147.611 E.07362
G1 X125.094 Y146.991 E.07363
G1 X125.78 Y146.336 E.07363
G1 X126.433 Y145.647 E.07363
G1 X127.05 Y144.927 E.07363
G1 X127.631 Y144.176 E.07363
G1 X128.173 Y143.398 E.07363
G1 X128.674 Y142.596 E.07335
G1 X129.173 Y141.695 E.07997
G1 X129.557 Y140.913 E.06756
G1 X129.934 Y140.042 E.07363
G1 X130.267 Y139.154 E.07363
G1 X130.555 Y138.25 E.07362
G1 X130.798 Y137.333 E.07363
G1 X130.994 Y136.404 E.07363
G1 X131.144 Y135.467 E.07363
G1 X131.246 Y134.524 E.07362
G1 X131.302 Y133.577 E.07363
G1 X131.31 Y132.628 E.07363
G1 X131.27 Y131.68 E.07363
G1 X131.183 Y130.735 E.07363
G1 X131.049 Y129.796 E.07363
G1 X130.869 Y128.865 E.07363
G1 X130.642 Y127.944 E.07362
G1 X130.369 Y127.035 E.07363
G1 X130.051 Y126.141 E.07363
G1 X129.689 Y125.264 E.07362
G1 X129.283 Y124.406 E.07363
G1 X128.835 Y123.57 E.07363
G1 X128.346 Y122.757 E.07362
G1 X127.817 Y121.969 E.07363
G1 X127.249 Y121.209 E.07363
G1 X126.644 Y120.478 E.07363
G1 X126.003 Y119.779 E.07363
G1 X125.328 Y119.112 E.07363
G1 X124.62 Y118.48 E.07362
G1 X123.812 Y117.831 E.08044
G1 X123.309 Y117.457 E.04867
G1 X123.308 Y114.921 E.1968
;WIDTH:0.660766
G1 F838.384
G1 X123.324 Y114.527 E.03224
;WIDTH:0.691533
G1 F797.255
G1 X123.339 Y114.134 E.0339
G1 X123.538 Y114.412 E.02944
;WIDTH:0.660766
G1 F838.384
G1 X123.738 Y114.69 E.028
;WIDTH:0.63
G1 F883.987
G1 X124.552 Y115.227 E.07568
G1 X125.423 Y115.861 E.08365
G1 X126.261 Y116.536 E.08349
G1 X127.063 Y117.253 E.08348
G1 X127.829 Y118.008 E.08348
G1 X128.556 Y118.801 E.08348
G1 X129.243 Y119.629 E.08348
G1 X129.887 Y120.491 E.08348
G1 X130.487 Y121.384 E.08348
G1 X131.042 Y122.305 E.08348
G1 X131.551 Y123.253 E.08349
G1 X132.011 Y124.226 E.08348
G1 X132.422 Y125.22 E.08348
G1 X132.783 Y126.233 E.08349
G1 X133.093 Y127.263 E.08348
G1 X133.35 Y128.308 E.08348
G1 X133.556 Y129.364 E.08348
G1 X133.708 Y130.429 E.08348
G1 X133.807 Y131.5 E.08348
G1 X133.852 Y132.575 E.08348
G1 X133.844 Y133.651 E.08348
G1 X133.782 Y134.725 E.08348
G1 X133.666 Y135.794 E.08348
G1 X133.497 Y136.856 E.08349
G1 X133.275 Y137.909 E.08348
G1 X133 Y138.949 E.08349
G1 X132.674 Y139.974 E.08348
G1 X132.298 Y140.982 E.08349
G1 X131.871 Y141.97 E.08348
G1 X131.431 Y142.863 E.07725
G1 X130.871 Y143.876 E.08983
G1 X130.303 Y144.787 E.08337
G1 X129.688 Y145.67 E.08348
G1 X129.031 Y146.522 E.08348
G1 X128.331 Y147.339 E.08348
G1 X127.592 Y148.12 E.08348
G1 X126.814 Y148.864 E.08348
G1 X126 Y149.567 E.08349
G1 X125.152 Y150.229 E.08347
G1 X124.272 Y150.848 E.08349
G1 X123.363 Y151.423 E.08348
G1 X122.425 Y151.951 E.08348
G1 X121.463 Y152.431 E.08348
G1 X120.478 Y152.863 E.08348
G1 X119.472 Y153.245 E.08348
G1 X118.448 Y153.576 E.08349
G1 X117.41 Y153.856 E.08348
G1 X116.358 Y154.083 E.08349
G1 X115.297 Y154.258 E.08348
G1 X114.228 Y154.379 E.08348
G1 X113.154 Y154.447 E.08348
G1 X112.078 Y154.461 E.08349
G1 X111.003 Y154.421 E.08348
G1 X109.931 Y154.327 E.08349
G1 X108.866 Y154.18 E.08348
G1 X107.809 Y153.98 E.08348
G1 X106.763 Y153.728 E.08348
G1 X105.731 Y153.423 E.08348
G1 X104.716 Y153.068 E.08348
G1 X103.72 Y152.662 E.08348
G1 X102.745 Y152.206 E.08349
G1 X101.794 Y151.703 E.08348
G1 X100.87 Y151.153 E.08349
G1 X99.974 Y150.557 E.08348
G1 X99.109 Y149.917 E.08348
G1 X98.278 Y149.235 E.08349
G1 X97.481 Y148.512 E.08348
G1 X96.722 Y147.75 E.08347
G1 X96.001 Y146.951 E.08349
G1 X95.321 Y146.117 E.08348
G1 X94.684 Y145.25 E.08348
G1 X94.091 Y144.353 E.08348
G1 X93.544 Y143.427 E.08348
G1 X93.043 Y142.474 E.08348
G1 X92.591 Y141.498 E.08349
G1 X92.188 Y140.501 E.08348
G1 X91.836 Y139.484 E.08348
G1 X91.534 Y138.452 E.08348
G1 X91.304 Y137.483 E.07725
G1 X91.088 Y136.346 E.08982
G1 X90.945 Y135.281 E.08337
G1 X90.888 Y134.607 E.05251
G1 E-10 F600
G1 X128.56 Y147.92 F9000
G1 E10 F600
;TYPE:External perimeter
G1 F883.987
G1 X127.993 Y148.519 E.06405
G1 X127.195 Y149.282 E.08568
G1 X126.36 Y150.005 E.08568
G1 X125.489 Y150.684 E.08567
G1 X124.586 Y151.319 E.08568
G1 X123.653 Y151.908 E.08568
G1 X122.691 Y152.45 E.08568
G1 X121.703 Y152.943 E.08568
G1 X120.692 Y153.386 E.08568
G1 X119.659 Y153.778 E.08568
G1 X118.609 Y154.118 E.08568
G1 X117.543 Y154.405 E.08567
G1 X116.464 Y154.639 E.08568
G1 X115.374 Y154.818 E.08568
G1 X114.277 Y154.942 E.08568
G1 X113.175 Y155.012 E.08568
G1 X112.071 Y155.026 E.08568
G1 X110.968 Y154.985 E.08567
G1 X109.868 Y154.89 E.08568
G1 X108.775 Y154.739 E.08567
G1 X107.69 Y154.533 E.08568
G1 X106.617 Y154.274 E.08568
G1 X105.558 Y153.962 E.08568
G1 X104.516 Y153.597 E.08568
G1 X103.493 Y153.18 E.08568
G1 X102.493 Y152.713 E.08568
