; generated by PrusaSlicer 2.5.0+linux-x64-GTK3 on 2022-10-07 at 17:50:57 UTC

; 

; external perimeters extrusion width = 0.63mm
; perimeters extrusion width = 0.66mm
; infill extrusion width = 0.66mm
; solid infill extrusion width = 0.66mm
; top infill extrusion width = 0.60mm
; support material extrusion width = 0.54mm
; first layer extrusion width = 0.63mm

; external perimeters extrusion width = 0.63mm
; perimeters extrusion width = 0.66mm
; infill extrusion width = 0.66mm
; solid infill extrusion width = 0.66mm
; top infill extrusion width = 0.60mm
; support material extrusion width = 0.54mm
; first layer extrusion width = 0.63mm

M107
;TYPE:Custom
G90 ; use absolute coordinates
M83 ; extruder relative mode
M140 S50 ; set final bed temp
M104 S150 ; set temporary nozzle temp to prevent oozing during homing
G4 S10 ; allow partial nozzle warmup
G28 ; home all axis
G1 Z50 F240
G1 X2 Y10 F3000
M104 S220 ; set final nozzle temp
M190 S50 ; wait for bed temp to stabilize
M109 S220 ; wait for nozzle temp to stabilize
G1 Z0.28 F240
G92 E0
G1 Y140 E10 F1500 ; prime the nozzle
G1 X2.3 F5000
G92 E0
G1 Y10 E10 F1200 ; prime the nozzle
G92 E0
G21 ; set units to millimeters
G90 ; use absolute coordinates
M83 ; use relative distances for extrusion
; Filament gcode
M107
;LAYER_CHANGE
;Z:0.3
;HEIGHT:0.3
;BEFORE_LAYER_CHANGE
G92 E0
;0.3


G1 E-5 F600
G1 Z.3 F9000
;AFTER_LAYER_CHANGE
;0.3
G1 X97.399 Y139.125
G1 E5 F600
M204 S500
;TYPE:Skirt/Brim
;WIDTH:0.63
G1 F883.987
G1 X98.36 Y138.687 E.08198
G1 X190.668 Y112.276 E7.45067
G1 X192.486 Y111.839 E.14514
G1 X194.399 Y111.525 E.1504
G1 X196.07 Y111.368 E.13027
G1 X197.707 Y111.32 E.12712
G1 X199.93 Y111.418 E.17261
G1 X202.117 Y111.703 E.17121
G1 X204.123 Y112.133 E.15919
G1 X206.279 Y112.785 E.17479
G1 X208.279 Y113.58 E.16701
G1 X210.141 Y114.501 E.16122
G1 X212.094 Y115.679 E.17696
G1 X213.85 Y116.955 E.16848
G1 X215.391 Y118.277 E.15758
G1 X217.012 Y119.92 E.17913
G1 X218.321 Y121.49 E.15861
G1 X219.55 Y123.23 E.16527
G1 X220.73 Y125.247 E.1813
G1 X221.619 Y127.112 E.1604
G1 X222.361 Y129.054 E.16131
G1 X223.015 Y131.326 E.18347
G1 X223.569 Y134.504 E.25032
G1 X223.685 Y135.87 E.10642
G1 X223.725 Y137.839 E.15284
G1 X223.473 Y141.025 E.24801
G1 X222.818 Y144.213 E.25256
G1 X216.06 Y165.469 E1.73088
G1 X215.758 Y166.157 E.05828
G1 X213.754 Y169.657 E.31297
G1 X212.602 Y170.875 E.13014
G1 X211.64 Y171.313 E.08198
G1 X119.372 Y197.713 E7.4475
G1 X117.533 Y198.157 E.14681
G1 X115.942 Y198.43 E.12525
G1 X114.228 Y198.611 E.13376
G1 X112.381 Y198.68 E.14344
G1 X110.744 Y198.632 E.12712
G1 X109.073 Y198.475 E.13027
G1 X107.228 Y198.174 E.14506
G1 X105.568 Y197.786 E.13225
G1 X104.044 Y197.326 E.12352
G1 X102.209 Y196.632 E.15228
G1 X99.341 Y195.209 E.24844
G1 X97.658 Y194.154 E.15415
G1 X96.187 Y193.074 E.14165
G1 X94.674 Y191.783 E.15432
G1 X93.442 Y190.57 E.13412
G1 X92.434 Y189.446 E.11719
G1 X91.185 Y187.847 E.15744
G1 X89.776 Y185.669 E.20131
G1 X88.625 Y183.439 E.19475
G1 X87.898 Y181.678 E.14785
G1 X87.126 Y179.232 E.199
G1 X86.606 Y176.776 E.19486
G1 X86.32 Y174.21 E.20037
G1 X86.29 Y171.628 E.20037
G1 X86.467 Y169.432 E.17094
G1 X86.893 Y166.958 E.19481
G1 X87.366 Y165.141 E.14569
G1 X93.94 Y144.531 E1.67881
G1 X94.243 Y143.843 E.05829
G1 X96.246 Y140.343 E.31297
G1 X97.337 Y139.19 E.12316
G1 E-5 F600
G1 X121.641 Y157.817 F9000
G1 E5 F600
;TYPE:Support material
G1 F883.987
G1 X121.801 Y158.121 E.02661
G1 X122.438 Y158.561 E.06008
G1 X123.128 Y159.084 E.06717
G1 X123.789 Y159.638 E.06697
G1 X124.421 Y160.225 E.06696
G1 X125.024 Y160.843 E.06697
G1 X125.595 Y161.49 E.06696
G1 X126.133 Y162.165 E.06697
G1 X126.637 Y162.865 E.06696
G1 X127.105 Y163.59 E.06697
G1 X127.324 Y163.969 E.03394
G1 X127.536 Y164.338 E.03303
G1 X127.93 Y165.106 E.06696
G1 X128.285 Y165.892 E.06697
G1 X128.6 Y166.695 E.06696
G1 X128.875 Y167.513 E.06697
G1 X129.109 Y168.344 E.06697
G1 X129.259 Y169.001 E.05231
G1 X129.259 Y176.228 E.56082
G1 X129.109 Y176.885 E.0523
G1 X128.875 Y177.716 E.06697
G1 X128.6 Y178.534 E.06696
G1 X128.285 Y179.337 E.06697
G1 X127.93 Y180.124 E.06697
G1 X127.73 Y180.513 E.03394
G1 X127.536 Y180.892 E.03302
G1 X127.105 Y181.639 E.06697
G1 X126.637 Y182.364 E.06697
G1 X126.133 Y183.065 E.06696
G1 X125.595 Y183.739 E.06697
G1 X125.306 Y184.067 E.03394
G1 X125.024 Y184.386 E.03303
G1 X124.421 Y185.004 E.06696
G1 X123.789 Y185.591 E.06697
G1 X123.128 Y186.146 E.06696
G1 X122.44 Y186.667 E.06697
G1 X121.727 Y187.153 E.06697
G1 X120.99 Y187.603 E.06697
G1 X120.233 Y188.016 E.06696
G1 X119.455 Y188.39 E.06697
G1 X118.66 Y188.725 E.06696
G1 X117.806 Y189.034 E.07046
G1 X106.868 Y189.034 E.8488
G1 X106.014 Y188.725 E.07046
G1 X105.219 Y188.39 E.06697
G1 X104.442 Y188.016 E.06697
G1 X104.058 Y187.806 E.03394
G1 X103.684 Y187.603 E.03303
G1 X102.947 Y187.153 E.06696
G1 X102.234 Y186.667 E.06697
G1 X101.547 Y186.146 E.06696
G1 X100.885 Y185.591 E.06697
G1 X100.253 Y185.004 E.06697
G1 X99.65 Y184.386 E.06697
G1 X99.079 Y183.739 E.06696
G1 X98.541 Y183.065 E.06697
G1 X98.038 Y182.364 E.06697
G1 X97.569 Y181.639 E.06697
G1 X97.138 Y180.892 E.06697
G1 X96.744 Y180.124 E.06697
G1 X96.389 Y179.337 E.06697
G1 X96.074 Y178.534 E.06696
G1 X95.799 Y177.716 E.06696
G1 X95.566 Y176.885 E.06697
G1 X95.415 Y176.227 E.05242
G1 X95.415 Y169.003 E.56059
G1 X95.566 Y168.344 E.05242
G1 X95.799 Y167.513 E.06697
G1 X96.074 Y166.695 E.06696
G1 X96.389 Y165.892 E.06697
G1 X96.744 Y165.106 E.06697
G1 X97.138 Y164.338 E.06697
G1 X97.569 Y163.59 E.06697
G1 X98.038 Y162.865 E.06696
G1 X98.541 Y162.165 E.06697
G1 X99.079 Y161.49 E.06697
G1 X99.65 Y160.843 E.06696
G1 X100.253 Y160.225 E.06697
G1 X100.885 Y159.638 E.06696
G1 X101.547 Y159.084 E.06697
G1 X102.237 Y158.561 E.06717
G1 X102.873 Y158.121 E.06008
G1 X103.033 Y157.817 E.0266
G1 X103.033 Y155.19 E.20389
G1 X121.641 Y155.19 E1.44401
G1 X121.641 Y157.733 E.19731
G1 X111.773 Y164.554 F9000
G1 F883.987
G1 X111.773 Y168.051 E.27138
G1 X108.276 Y168.051 E.27138
G1 X108.276 Y171.548 E.27138
G1 X104.779 Y171.548 E.27138
G1 X104.779 Y176.172 E.35886
G1 X108.276 Y176.172 E.27138
G1 X108.276 Y179.67 E.27138
G1 X112.901 Y179.67 E.35886
G1 X112.901 Y176.172 E.27138
G1 X116.398 Y176.172 E.27138
G1 X116.398 Y172.675 E.27138
G1 X119.895 Y172.675 E.27138
G1 X119.895 Y171.548 E.08748
G1 X116.398 Y171.548 E.27138
G1 X116.398 Y168.051 E.27138
G1 X112.901 Y168.051 E.27138
G1 X112.901 Y164.554 E.27138
G1 X111.858 Y164.554 E.08089
G1 E-5 F600
G1 X128.677 Y177.48 F9000
G1 E5 F600
G1 F883.987
G1 X128.677 Y168.741 E.67818
G1 X128.388 Y167.664 E.08653
G1 X128.049 Y166.683 E.0805
G1 X128.049 Y178.546 E.92056
G1 X127.816 Y179.139 E.04948
G1 X127.42 Y180.003 E.07367
G1 X127.42 Y165.227 E1.14662
G1 X127.089 Y164.581 E.05631
G1 X126.792 Y164.066 E.04617
G1 X126.792 Y181.163 E1.32679
G1 X126.163 Y182.15 E.09081
G1 X126.163 Y163.079 E1.47998
G1 X125.535 Y162.231 E.0819
G1 X125.535 Y182.998 E1.61157
G1 X124.906 Y183.75 E.07605
G1 X124.906 Y161.479 E1.72828
G1 X124.278 Y160.807 E.0714
G1 X124.278 Y184.422 E1.83256
G1 X123.649 Y185.026 E.06763
G1 X123.649 Y160.203 E1.92627
G1 X123.021 Y159.659 E.06455
G1 X123.021 Y185.571 E2.01084
G1 X122.392 Y186.064 E.062
G1 X122.392 Y159.165 E2.08739
G1 X121.764 Y158.713 E.06007
G1 X121.764 Y186.511 E2.15718
G1 X121.135 Y186.918 E.05807
G1 X121.132 Y155.699 E2.42262
G1 X120.507 Y155.699 E.0485
G1 X120.507 Y187.286 E2.45124
G1 X119.879 Y187.621 E.05525
G1 X119.879 Y173.184 E1.12031
G1 X119.25 Y173.184 E.04877
G1 X119.25 Y187.924 E1.14379
G1 X118.622 Y188.189 E.05293
G1 X118.622 Y173.184 E1.16437
G1 X117.993 Y173.184 E.04877
G1 X117.993 Y188.426 E1.18278
G1 X117.723 Y188.524 E.0223
G1 X117.365 Y188.524 E.02782
G1 X117.365 Y173.184 E1.19041
G1 X116.907 Y173.184 E.03554
G1 X116.907 Y176.682 E.27138
G1 X116.736 Y176.682 E.01323
G1 X116.736 Y188.524 E.91903
G1 X116.108 Y188.524 E.04877
G1 X116.108 Y176.682 E.91903
G1 X115.479 Y176.682 E.04877
G1 X115.479 Y188.524 E.91903
G1 X114.851 Y188.524 E.04877
G1 X114.851 Y176.682 E.91903
G1 X114.222 Y176.682 E.04877
G1 X114.222 Y188.524 E.91903
G1 X113.594 Y188.524 E.04877
G1 X113.594 Y176.682 E.91903
G1 X113.41 Y176.682 E.0143
G1 X113.41 Y180.179 E.27138
G1 X112.965 Y180.179 E.03447
G1 X112.965 Y188.524 E.64765
G1 X112.337 Y188.524 E.04877
G1 X112.337 Y180.179 E.64765
G1 X111.708 Y180.179 E.04877
G1 X111.708 Y188.524 E.64765
G1 X111.08 Y188.524 E.04877
G1 X111.08 Y180.179 E.64765
G1 X110.452 Y180.179 E.04877
G1 X110.452 Y188.524 E.64765
G1 X109.823 Y188.524 E.04877
G1 X109.823 Y180.179 E.64765
G1 X109.195 Y180.179 E.04877
G1 X109.195 Y188.524 E.64765
G1 X108.566 Y188.524 E.04877
G1 X108.566 Y180.179 E.64765
G1 X107.938 Y180.179 E.04877
G1 X107.938 Y188.524 E.64765
G1 X107.309 Y188.524 E.04877
G1 X107.309 Y176.682 E.91903
G1 X106.681 Y176.682 E.04877
G1 X106.681 Y188.426 E.91139
G1 X106.052 Y188.189 E.05213
G1 X106.052 Y176.682 E.89298
G1 X105.424 Y176.682 E.04877
G1 X105.424 Y187.924 E.8724
G1 X104.795 Y187.621 E.05413
G1 X104.795 Y176.682 E.84891
G1 X104.27 Y176.682 E.04076
G1 X104.27 Y171.039 E.43787
G1 X104.795 Y171.039 E.04076
G1 X104.795 Y155.699 E1.19041
G1 X105.424 Y155.699 E.04877
G1 X105.424 Y171.039 E1.19041
G1 X106.052 Y171.039 E.04877
G1 X106.052 Y155.699 E1.19041
G1 X106.681 Y155.699 E.04877
G1 X106.681 Y171.039 E1.19041
G1 X107.309 Y171.039 E.04877
G1 X107.309 Y155.699 E1.19041
G1 X107.938 Y155.699 E.04877
G1 X107.938 Y167.542 E.91903
G1 X108.566 Y167.542 E.04877
G1 X108.566 Y155.699 E.91903
G1 X109.195 Y155.699 E.04877
G1 X109.195 Y167.542 E.91903
G1 X109.823 Y167.542 E.04877
G1 X109.823 Y155.699 E.91903
G1 X110.452 Y155.699 E.04877
G1 X110.452 Y167.542 E.91903
G1 X111.08 Y167.542 E.04877
G1 X111.08 Y155.699 E.91903
G1 X111.708 Y155.699 E.04877
G1 X111.708 Y164.045 E.64765
G1 X112.337 Y164.045 E.04877
G1 X112.337 Y155.699 E.64765
G1 X112.965 Y155.699 E.04877
G1 X112.965 Y164.045 E.64765
G1 X113.41 Y164.045 E.03447
G1 X113.41 Y167.542 E.27138
G1 X113.594 Y167.542 E.0143
G1 X113.594 Y155.699 E.91903
G1 X114.222 Y155.699 E.04877
G1 X114.222 Y167.542 E.91903
G1 X114.851 Y167.542 E.04877
G1 X114.851 Y155.699 E.91903
G1 X115.479 Y155.699 E.04877
G1 X115.479 Y167.542 E.91903
G1 X116.108 Y167.542 E.04877
G1 X116.108 Y155.699 E.91903
G1 X116.736 Y155.699 E.04877
G1 X116.736 Y167.542 E.91903
G1 X116.907 Y167.542 E.01323
G1 X116.907 Y171.039 E.27138
G1 X117.365 Y171.039 E.03554
G1 X117.365 Y155.699 E1.19041
G1 X117.993 Y155.699 E.04877
G1 X117.993 Y171.039 E1.19041
G1 X118.622 Y171.039 E.04877
G1 X118.622 Y155.699 E1.19041
G1 X119.25 Y155.699 E.04877
G1 X119.25 Y171.039 E1.19041
G1 X119.879 Y171.039 E.04877
G1 X119.879 Y155.445 E1.21017
G1 E-5 F600
G1 X104.167 Y187.576 F9000
G1 E5 F600
G1 F883.987
G1 X104.167 Y155.699 E2.47372
G1 X103.542 Y155.699 E.04848
G1 X103.538 Y186.917 E2.4226
G1 X102.91 Y186.511 E.05807
G1 X102.91 Y158.714 E2.15715
G1 X102.281 Y159.166 E.06007
G1 X102.281 Y186.064 E2.08735
G1 X101.653 Y185.571 E.062
G1 X101.653 Y159.659 E2.01079
G1 X101.025 Y160.204 E.06455
G1 X101.025 Y185.026 E1.92622
G1 X100.396 Y184.422 E.06763
G1 X100.396 Y160.808 E1.83251
G1 X99.768 Y161.48 E.0714
G1 X99.768 Y183.75 E1.72822
G1 X99.139 Y182.998 E.07606
G1 X99.139 Y162.232 E1.6115
G1 X98.511 Y163.079 E.0819
G1 X98.511 Y182.15 E1.47991
G1 X97.882 Y181.163 E.09081
G1 X97.882 Y164.067 E1.3267
G1 X97.585 Y164.581 E.04611
G1 X97.254 Y165.228 E.05637
G1 X97.254 Y180.002 E1.14651
G1 X96.859 Y179.139 E.07362
G1 X96.625 Y178.545 E.04955
G1 X96.625 Y166.684 E.92042
G1 X96.286 Y167.663 E.08043
G1 X95.997 Y168.742 E.08665
G1 X95.997 Y177.479 E.67797
G1 E-5 F600
G1 X112.337 Y194.134 F9000
G1 E5 F600
;TYPE:Perimeter
;WIDTH:0.63
G1 F883.987
G1 X111.267 Y194.107 E.0831
G1 X110.199 Y194.027 E.0831
G1 X109.136 Y193.894 E.08309
G1 X108.082 Y193.709 E.0831
G1 X107.038 Y193.471 E.08309
G1 X106.007 Y193.182 E.0831
G1 X104.991 Y192.841 E.0831
G1 X103.994 Y192.451 E.0831
G1 X103.018 Y192.011 E.0831
G1 X102.064 Y191.524 E.0831
G1 X101.137 Y190.989 E.0831
G1 X100.236 Y190.409 E.0831
G1 X99.366 Y189.785 E.0831
G1 X98.528 Y189.119 E.0831
G1 X97.724 Y188.411 E.0831
G1 X96.956 Y187.665 E.08309
G1 X96.227 Y186.881 E.0831
G1 X95.537 Y186.062 E.0831
G1 X94.889 Y185.21 E.08309
G1 X94.284 Y184.326 E.0831
G1 X93.724 Y183.413 E.0831
G1 X93.21 Y182.474 E.0831
G1 X92.743 Y181.51 E.0831
G1 X92.325 Y180.525 E.0831
G1 X91.957 Y179.523 E.08278
G1 X91.53 Y178.104 E.11501
G1 X91.285 Y177.072 E.08234
G1 X91.157 Y176.419 E.05162
G1 X90.945 Y174.949 E.11527
G1 X90.857 Y173.905 E.08125
G1 X90.819 Y172.84 E.08272
G1 X90.835 Y171.771 E.083
G1 X90.872 Y171.086 E.05323
G1 X91.033 Y169.583 E.11725
G1 X91.196 Y168.597 E.07758
G1 X91.339 Y167.91 E.05445
G1 X91.725 Y166.433 E.11845
G1 X92.024 Y165.512 E.07518
G1 X92.272 Y164.838 E.05575
G1 X92.826 Y163.538 E.10963
G1 X93.362 Y162.464 E.09314
G1 X93.819 Y161.653 E.07226
G1 X94.206 Y161.024 E.05725
G1 X95.095 Y159.74 E.12123
G1 X95.646 Y159.032 E.0696
G1 X96.133 Y158.455 E.05861
G1 X97.071 Y157.449 E.10677
G1 X98.024 Y156.545 E.10191
G1 X98.262 Y156.204 E.03225
G1 X98.318 Y155.901 E.0239
G1 X98.318 Y146.021 E.76674
G1 X100.072 Y144.266 E.19254
;WIDTH:0.679465
G1 F812.896
G1 X100.144 Y144.18 E.00946
;WIDTH:0.728931
G1 F752.389
G1 X100.215 Y144.094 E.01022
;WIDTH:0.778396
G1 F700.265
G1 X100.287 Y144.007 E.01099
;WIDTH:0.827862
G1 F654.895
G1 X100.358 Y143.921 E.01175
;WIDTH:0.877328
G1 F615.046
G1 X100.43 Y143.835 E.01251
G1 X100.439 Y143.214 E.06925
;WIDTH:0.866952
G1 F622.998
G1 X101.242 Y143.214 E.08835
;WIDTH:0.877328
G1 F615.046
G1 X101.237 Y143.905 E.07708
G1 X101.261 Y144.084 E.02016
;WIDTH:0.827862
G1 F654.895
G1 X101.286 Y144.263 E.01893
;WIDTH:0.778396
G1 F700.265
G1 X101.311 Y144.442 E.01771
;WIDTH:0.728931
G1 F752.389
G1 X101.335 Y144.621 E.01648
;WIDTH:0.679465
G1 F812.896
G1 X101.36 Y144.8 E.01525
;WIDTH:0.63
G1 F883.987
G1 X101.36 Y157.133 E.95703
G1 X100.486 Y157.788 E.08474
G1 X99.762 Y158.398 E.07344
G1 X98.884 Y159.231 E.09396
G1 X98.409 Y159.72 E.0529
G1 X98.038 Y160.141 E.0435
G1 X97.15 Y161.233 E.10929
G1 X96.643 Y161.94 E.0675
G1 X96.339 Y162.41 E.0434
G1 X96.016 Y162.934 E.04777
G1 X95.615 Y163.639 E.06298
G1 X95.139 Y164.594 E.0828
G1 X94.839 Y165.262 E.05678
G1 X94.639 Y165.772 E.04253
G1 X94.43 Y166.333 E.04644
G1 X94.167 Y167.134 E.06547
G1 X93.938 Y167.952 E.06586
G1 X93.698 Y169.051 E.08731
G1 X93.552 Y169.913 E.06784
G1 X93.449 Y170.746 E.06516
G1 X93.375 Y171.846 E.08559
G1 X93.361 Y172.795 E.07362
G1 X93.393 Y173.734 E.07293
G1 X93.468 Y174.646 E.07102
G1 X93.572 Y175.464 E.06399
G1 X93.765 Y176.52 E.08328
G1 X93.98 Y177.43 E.07252
G1 X94.202 Y178.215 E.06335
G1 X94.509 Y179.126 E.07459
G1 X94.855 Y180.007 E.07344
G1 X95.246 Y180.869 E.07344
G1 X95.678 Y181.711 E.07344
G1 X96.152 Y182.53 E.07344
G1 X96.667 Y183.324 E.07344
G1 X97.22 Y184.092 E.07344
G1 X97.811 Y184.831 E.07344
G1 X98.438 Y185.54 E.07344
G1 X99.099 Y186.217 E.07344
G1 X99.794 Y186.86 E.07344
G1 X100.52 Y187.467 E.07344
G1 X101.275 Y188.038 E.07344
G1 X102.057 Y188.57 E.07344
G1 X102.865 Y189.063 E.07344
G1 X103.697 Y189.514 E.07344
G1 X104.55 Y189.924 E.07344
G1 X105.422 Y190.291 E.07344
G1 X106.312 Y190.613 E.07344
G1 X107.217 Y190.891 E.07344
G1 X108.134 Y191.124 E.07344
G1 X109.02 Y191.303 E.07016
G1 X110.452 Y191.496 E.11209
G1 X111.393 Y191.566 E.07326
G1 X112.337 Y191.59 E.07326
G1 X113.281 Y191.566 E.07326
G1 X114.222 Y191.496 E.07326
G1 X115.159 Y191.379 E.07326
G1 X116.089 Y191.215 E.07327
G1 X117.01 Y191.005 E.07326
G1 X117.924 Y190.749 E.0737
G1 X118.605 Y190.526 E.05565
G1 X119.703 Y190.102 E.09129
G1 X120.376 Y189.804 E.05714
G1 X121.015 Y189.495 E.05507
G1 X122.053 Y188.914 E.09232
G1 X123.014 Y188.301 E.08848
G1 X123.632 Y187.863 E.05878
G1 X124.507 Y187.173 E.08643
G1 X125.088 Y186.669 E.0597
G1 X125.904 Y185.881 E.08808
G1 X126.265 Y185.509 E.04018
G1 X126.82 Y184.88 E.06512
G1 X127.626 Y183.854 E.10122
G1 X128.544 Y182.494 E.12736
G1 X128.949 Y181.792 E.06291
G1 X129.199 Y181.317 E.04159
G1 X129.555 Y180.591 E.06275
G1 X129.98 Y179.598 E.08383
G1 X130.18 Y179.086 E.04265
G1 X130.437 Y178.323 E.06252
G1 X130.801 Y176.994 E.10691
G1 X130.945 Y176.355 E.05086
G1 X131.08 Y175.592 E.06012
