; generated by PrusaSlicer 2.5.0+linux-x64-GTK3 on 2022-10-06 at 06:19:51 UTC

; 

; external perimeters extrusion width = 0.63mm
; perimeters extrusion width = 0.66mm
; infill extrusion width = 0.66mm
; solid infill extrusion width = 0.66mm
; top infill extrusion width = 0.60mm
; support material extrusion width = 0.54mm
; first layer extrusion width = 0.63mm

M107
;TYPE:Custom
G90 ; use absolute coordinates
M83 ; extruder relative mode
M140 S50 ; set final bed temp
M104 S150 ; set temporary nozzle temp to prevent oozing during homing
G4 S10 ; allow partial nozzle warmup
G28 ; home all axis
G1 Z50 F240
G1 X2 Y10 F3000
M104 S225 ; set final nozzle temp
M190 S50 ; wait for bed temp to stabilize
M109 S225 ; wait for nozzle temp to stabilize
G1 Z0.28 F240
G92 E0
G1 Y140 E10 F1500 ; prime the nozzle
G1 X2.3 F5000
G92 E0
G1 Y10 E10 F1200 ; prime the nozzle
G92 E0
G21 ; set units to millimeters
G90 ; use absolute coordinates
M83 ; use relative distances for extrusion
; Filament gcode
M107
;LAYER_CHANGE
;Z:0.3
;HEIGHT:0.3
;BEFORE_LAYER_CHANGE
G92 E0
;0.3


G1 E-1 F1500
G1 Z.3 F9000
;AFTER_LAYER_CHANGE
;0.3
G1 X134.409 Y49.597
G1 E1 F1500
M204 S500
;TYPE:Skirt/Brim
;WIDTH:0.63
G1 F883.987
G1 X135.32 Y47.128 E.20426
G1 X136.255 Y45.735 E.13014
G1 X137.53 Y44.982 E.11493
G1 X185.862 Y28.746 E3.95661
G1 X186.997 Y28.56 E.08928
G1 X210.852 Y28.56 E1.85121
G1 X212.482 Y28.955 E.13014
G1 X213.752 Y30.051 E.13014
G1 X214.197 Y30.892 E.07386
G1 X223.413 Y55.866 E2.06576
G1 X223.857 Y57.198 E.10898
G1 X224.455 Y59.544 E.18786
G1 X224.711 Y60.999 E.11465
G1 X224.952 Y63.407 E.18786
G1 X224.952 Y66.183 E.21542
G1 X224.607 Y69.21 E.23639
G1 X224.205 Y71.141 E.15305
G1 X223.857 Y72.393 E.10086
G1 X222.908 Y75.002 E.21542
G1 X222.369 Y76.184 E.10085
G1 X221.324 Y78.116 E.17046
G1 X219.755 Y80.462 E.21901
G1 X217.971 Y82.589 E.21542
G1 X216.105 Y84.397 E.20164
G1 X214.068 Y86.01 E.20164
G1 X212.034 Y87.323 E.18786
G1 X210.332 Y88.225 E.14944
G1 X208.364 Y89.091 E.16684
G1 X158.894 Y105.74 E4.05055
G1 X156.48 Y106.423 E.19475
G1 X155.032 Y106.716 E.11464
G1 X153.299 Y106.95 E.13565
G1 X151.332 Y107.086 E.15305
G1 X148.557 Y107.017 E.21542
G1 X147.264 Y106.883 E.10086
G1 X144.88 Y106.463 E.18786
G1 X142.208 Y105.711 E.21542
G1 X140.988 Y105.262 E.10085
G1 X138.781 Y104.266 E.18786
G1 X137.484 Y103.56 E.11465
G1 X135.636 Y102.373 E.17046
G1 X133.28 Y100.516 E.23279
G1 X131.547 Y98.825 E.18786
G1 X130.684 Y97.854 E.10085
G1 X129.108 Y95.788 E.20164
G1 X127.745 Y93.575 E.20164
G1 X126.61 Y91.238 E.20164
G1 X125.66 Y88.63 E.21542
G1 X125.028 Y86.109 E.20164
G1 X124.649 Y83.539 E.20165
G1 X124.529 Y80.943 E.20164
G1 X124.667 Y78.348 E.20164
G1 X124.911 Y76.617 E.13565
G1 X125.313 Y74.686 E.15305
G1 X126.105 Y72.102 E.20976
G1 X134.378 Y49.682 E1.85452
G1 E-1 F1500
G1 X162.521 Y53.35 F9000
G1 E1 F1500
;TYPE:Support material
G1 F883.987
G1 X162.388 Y53.217 E.01459
G1 X160.654 Y53.217 E.13451
G1 X160.654 Y52.487 E.05666
G1 X159.884 Y51.717 E.08451
G1 X157.295 Y51.717 E.20093
G1 X156.524 Y52.487 E.08454
G1 X156.525 Y62.384 E.768
G1 X156.317 Y62.913 E.04415
G1 X156.75 Y63.912 E.08447
G1 X157.676 Y64.292 E.0777
G1 X157.676 Y66.036 E.13529
G1 X158.038 Y66.653 E.05555
G1 X159.38 Y67.441 E.12075
G1 X160.041 Y67.891 E.06204
G1 X160.684 Y68.378 E.06262
G1 X161.302 Y68.897 E.06263
G1 X161.894 Y69.446 E.06262
G1 X162.457 Y70.023 E.06263
G1 X162.991 Y70.629 E.06263
G1 X163.494 Y71.259 E.06262
G1 X163.965 Y71.915 E.06263
G1 X164.403 Y72.593 E.06262
G1 X164.807 Y73.291 E.06262
G1 X165.175 Y74.01 E.06262
G1 X165.507 Y74.745 E.06262
G1 X165.802 Y75.496 E.06262
G1 X166.059 Y76.261 E.06262
G1 X166.277 Y77.038 E.06263
G1 X166.457 Y77.825 E.06262
G1 X166.526 Y78.216 E.03086
G1 X166.597 Y78.62 E.03177
G1 X166.697 Y79.42 E.06262
G1 X166.758 Y80.225 E.06262
G1 X166.778 Y81.032 E.06262
G1 X166.758 Y81.839 E.06262
G1 X166.697 Y82.643 E.06262
G1 X166.597 Y83.444 E.06262
G1 X166.457 Y84.239 E.06263
G1 X166.277 Y85.025 E.06262
G1 X166.059 Y85.802 E.06262
G1 X165.802 Y86.567 E.06262
G1 X165.507 Y87.318 E.06263
G1 X165.175 Y88.054 E.06262
G1 X164.807 Y88.772 E.06262
G1 X164.403 Y89.471 E.06262
G1 X163.965 Y90.149 E.06262
G1 X163.494 Y90.804 E.06262
G1 X162.991 Y91.435 E.06262
G1 X162.457 Y92.04 E.06262
G1 X161.894 Y92.618 E.06262
G1 X161.302 Y93.167 E.06263
G1 X160.684 Y93.685 E.06262
G1 X160.041 Y94.173 E.06263
G1 X159.374 Y94.627 E.06262
G1 X158.685 Y95.048 E.06262
G1 X157.977 Y95.434 E.06263
G1 X157.25 Y95.784 E.06262
G1 X156.506 Y96.098 E.06263
G1 X155.748 Y96.374 E.06262
G1 X154.976 Y96.611 E.06262
G1 X154.194 Y96.811 E.06262
G1 X153.403 Y96.97 E.06262
G1 X152.606 Y97.091 E.06262
G1 X151.803 Y97.171 E.06263
G1 X150.997 Y97.211 E.06262
G1 X150.19 Y97.211 E.06262
G1 X149.384 Y97.171 E.06262
G1 X148.581 Y97.091 E.06263
G1 X147.783 Y96.97 E.06262
G1 X146.992 Y96.811 E.06262
G1 X146.21 Y96.611 E.06263
G1 X145.438 Y96.374 E.06262
G1 X144.68 Y96.098 E.06262
G1 X143.937 Y95.784 E.06262
G1 X143.209 Y95.434 E.06262
G1 X142.501 Y95.048 E.06262
G1 X141.812 Y94.627 E.06262
G1 X141.474 Y94.397 E.03177
G1 X141.145 Y94.173 E.03085
G1 X140.502 Y93.685 E.06262
G1 X139.884 Y93.167 E.06262
G1 X139.292 Y92.618 E.06262
G1 X138.729 Y92.04 E.06263
G1 X138.458 Y91.733 E.03178
G1 X138.195 Y91.435 E.03084
G1 X137.692 Y90.804 E.06262
G1 X137.221 Y90.149 E.06263
G1 X136.999 Y89.805 E.03177
G1 X136.783 Y89.471 E.03085
G1 X136.379 Y88.772 E.06263
G1 X136.011 Y88.054 E.06262
G1 X135.679 Y87.318 E.06262
G1 X135.384 Y86.567 E.06262
G1 X135.127 Y85.802 E.06262
G1 X134.909 Y85.025 E.06263
G1 X134.729 Y84.239 E.06262
G1 X134.66 Y83.847 E.03086
G1 X134.589 Y83.444 E.03177
G1 X134.489 Y82.643 E.06262
G1 X134.429 Y81.839 E.06262
G1 X134.408 Y81.032 E.06262
G1 X134.429 Y80.225 E.06262
G1 X134.489 Y79.42 E.06262
G1 X134.589 Y78.62 E.06263
G1 X134.729 Y77.825 E.06262
G1 X134.909 Y77.038 E.06262
G1 X135.127 Y76.261 E.06262
G1 X135.385 Y75.496 E.06263
G1 X135.679 Y74.745 E.06262
G1 X136.011 Y74.01 E.06262
G1 X136.379 Y73.291 E.06262
G1 X136.783 Y72.593 E.06262
G1 X137.221 Y71.915 E.06263
G1 X137.692 Y71.259 E.06262
G1 X138.195 Y70.629 E.06262
G1 X138.729 Y70.023 E.06262
G1 X139.292 Y69.446 E.06263
G1 X139.884 Y68.897 E.06262
G1 X140.502 Y68.378 E.06262
G1 X141.145 Y67.891 E.06262
G1 X141.806 Y67.441 E.06204
G1 X143.162 Y66.636 E.12238
G1 X143.51 Y66.029 E.05431
G1 X143.511 Y64.286 E.13519
G1 X144.212 Y63.996 E.05891
G1 X144.66 Y63.33 E.06226
G1 X144.662 Y52.487 E.84143
G1 X143.891 Y51.717 E.08454
G1 X141.302 Y51.717 E.20093
G1 X140.532 Y52.487 E.08451
G1 X140.532 Y53.217 E.05666
G1 X138.798 Y53.217 E.13451
G1 X138.665 Y53.35 E.01459
G1 X138.665 Y48.362 E.38703
G1 X162.521 Y48.362 E1.85121
G1 X162.521 Y53.265 E.38044
G1 E-1 F1500
G1 X164.734 Y88.357 F9000
G1 E1 F1500
G1 F883.987
G1 X164.734 Y74.269 E1.09324
G1 X164.359 Y73.535 E.06395
G1 X163.969 Y72.858 E.06065
G1 X163.545 Y72.202 E.06065
G1 X163.088 Y71.567 E.06066
G1 X162.601 Y70.956 E.06065
G1 X161.905 Y70.187 E.08047
G1 X161.905 Y91.877 E1.68318
G1 X161.538 Y92.253 E.04082
G1 X160.965 Y92.785 E.06065
G1 X160.367 Y93.287 E.06065
G1 X159.743 Y93.759 E.06066
G1 X159.077 Y94.212 E.0625
G1 X159.077 Y67.853 E2.04553
G1 X157.669 Y67.03 E.12654
G1 X157.167 Y66.174 E.07705
G1 X157.167 Y64.625 E.1202
G1 X156.367 Y64.308 E.06678
G1 X156.249 Y64.036 E.02301
G1 X156.249 Y95.649 E2.45328
G1 X155.585 Y95.891 E.05482
G1 X154.839 Y96.121 E.06065
G1 X154.081 Y96.314 E.06065
G1 X153.421 Y96.448 E.05225
G1 X153.421 Y48.871 E3.692
G1 X156.249 Y48.871 E.21947
G1 X156.249 Y52.042 E.24606
G1 X157.084 Y51.208 E.09158
G1 X159.077 Y51.208 E.15471
G1 X159.077 Y48.871 E.1813
G1 X161.905 Y48.871 E.21947
G1 X161.905 Y52.962 E.31746
G1 E-1 F1500
G1 X150.593 Y96.957 F9000
G1 E1 F1500
G1 F883.987
G1 X150.593 Y48.871 E3.73152
G1 X147.765 Y48.871 E.21947
G1 X147.765 Y96.448 E3.692
G1 X147.105 Y96.314 E.05225
G1 X146.348 Y96.121 E.06065
G1 X145.601 Y95.891 E.06065
G1 X144.937 Y95.649 E.05482
G1 X144.937 Y48.871 E3.63005
G1 X142.109 Y48.871 E.21947
G1 X142.109 Y51.208 E.1813
G1 X141.092 Y51.208 E.07894
G1 X140.023 Y52.276 E.11722
G1 X140.023 Y52.708 E.03353
G1 X139.281 Y52.708 E.0576
G1 X139.281 Y48.617 E.31746
G1 E-1 F1500
G1 X142.109 Y94.51 F9000
G1 E1 F1500
G1 F883.987
G1 X142.109 Y67.853 E2.06867
G1 X141.443 Y68.304 E.06245
G1 X140.82 Y68.776 E.06065
G1 X140.221 Y69.279 E.06066
G1 X139.648 Y69.81 E.06065
G1 X139.281 Y70.187 E.04082
G1 X139.281 Y91.877 E1.68318
G1 X138.585 Y91.108 E.08047
G1 X138.098 Y90.497 E.06065
G1 X137.641 Y89.862 E.06066
G1 X137.217 Y89.205 E.06065
G1 X136.827 Y88.529 E.06066
G1 X136.453 Y87.794 E.06394
G1 X136.453 Y73.707 E1.09324
G1 E-1 F1500
G1 X166.368 Y66.395 F9000
G1 E1 F1500
;TYPE:Perimeter
;WIDTH:0.63
G1 F883.987
G1 X167.078 Y67.2 E.08326
G1 X167.747 Y68.038 E.08326
G1 X168.373 Y68.91 E.08326
G1 X168.955 Y69.811 E.08326
G1 X169.492 Y70.74 E.08326
G1 X169.981 Y71.695 E.08327
G1 X170.422 Y72.673 E.08327
G1 X170.814 Y73.672 E.08326
G1 X171.156 Y74.689 E.08326
G1 X171.447 Y75.722 E.08326
G1 X171.685 Y76.768 E.08327
G1 X171.872 Y77.825 E.08326
G1 X172.005 Y78.889 E.08327
G1 X172.085 Y79.959 E.08326
G1 X172.112 Y81.032 E.08327
G1 X172.085 Y82.104 E.08327
G1 X172.005 Y83.174 E.08326
G1 X171.872 Y84.239 E.08327
G1 X171.685 Y85.296 E.08327
G1 X171.447 Y86.342 E.08326
G1 X171.156 Y87.375 E.08326
G1 X170.814 Y88.392 E.08326
G1 X170.422 Y89.391 E.08326
G1 X169.981 Y90.369 E.08326
G1 X169.492 Y91.323 E.08327
G1 X168.955 Y92.253 E.08326
G1 X168.373 Y93.154 E.08327
G1 X167.747 Y94.025 E.08326
G1 X167.078 Y94.864 E.08326
G1 X166.368 Y95.668 E.08327
G1 X165.618 Y96.437 E.08327
G1 X164.832 Y97.166 E.08326
G1 X164.01 Y97.856 E.08327
G1 X163.155 Y98.504 E.08326
G1 X162.268 Y99.108 E.08327
G1 X161.353 Y99.668 E.08326
G1 X160.41 Y100.181 E.08327
G1 X159.444 Y100.647 E.08326
G1 X158.455 Y101.063 E.08327
G1 X157.447 Y101.43 E.08326
G1 X156.421 Y101.747 E.08327
G1 X155.381 Y102.011 E.08326
G1 X154.33 Y102.224 E.08326
G1 X153.269 Y102.384 E.08326
G1 X152.201 Y102.491 E.08327
G1 X151.13 Y102.544 E.08326
G1 X150.057 Y102.544 E.08327
G1 X148.985 Y102.491 E.08326
G1 X147.917 Y102.384 E.08327
G1 X146.856 Y102.224 E.08326
G1 X145.805 Y102.011 E.08326
G1 X144.765 Y101.747 E.08326
G1 X143.74 Y101.43 E.08327
G1 X142.731 Y101.063 E.08326
G1 X141.743 Y100.647 E.08327
G1 X140.776 Y100.181 E.08326
G1 X139.833 Y99.668 E.08327
G1 X138.918 Y99.108 E.08326
G1 X138.031 Y98.504 E.08327
G1 X137.176 Y97.856 E.08326
G1 X136.354 Y97.166 E.08327
G1 X135.568 Y96.437 E.08326
G1 X134.818 Y95.668 E.08327
G1 X134.108 Y94.864 E.08327
G1 X133.439 Y94.025 E.08326
G1 X132.813 Y93.154 E.08326
G1 X132.231 Y92.253 E.08326
G1 X131.695 Y91.323 E.08326
G1 X131.205 Y90.369 E.08327
G1 X130.764 Y89.391 E.08327
G1 X130.372 Y88.392 E.08326
G1 X130.03 Y87.375 E.08326
G1 X129.739 Y86.342 E.08326
G1 X129.501 Y85.296 E.08327
G1 X129.314 Y84.239 E.08326
G1 X129.181 Y83.174 E.08327
G1 X129.101 Y82.104 E.08326
G1 X129.074 Y81.032 E.08327
G1 X129.101 Y79.959 E.08327
G1 X129.181 Y78.889 E.08326
G1 X129.314 Y77.825 E.08327
G1 X129.501 Y76.768 E.08327
G1 X129.739 Y75.722 E.08326
G1 X130.03 Y74.689 E.08326
G1 X130.372 Y73.672 E.08326
G1 X130.764 Y72.673 E.08326
G1 X131.205 Y71.695 E.08326
G1 X131.695 Y70.74 E.08327
G1 X132.231 Y69.811 E.08326
G1 X132.813 Y68.91 E.08327
G1 X133.439 Y68.038 E.08326
G1 X134.108 Y67.2 E.08326
G1 X134.818 Y66.395 E.08326
G1 X135.568 Y65.627 E.08327
G1 X136.354 Y64.897 E.08326
G1 X137.176 Y64.207 E.08327
G1 X138.031 Y63.56 E.08326
G1 X138.918 Y62.955 E.08327
G1 X139.684 Y62.487 E.06969
G1 X140.137 Y62.151 E.04378
G1 X140.219 Y62.028 E.01146
G1 X140.324 Y61.621 E.03261
G1 X140.324 Y55.512 E.47403
G1 X141.979 Y55.512 E.12843
G1 X142.366 Y55.383 E.03166
G1 X142.364 Y62.287 E.53575
G1 X141.755 Y62.555 E.05164
G1 X141.402 Y62.816 E.03408
G1 X141.32 Y62.939 E.01148
G1 X141.215 Y63.346 E.0326
G1 X141.215 Y65.121 E.13772
G1 X140.549 Y65.519 E.06016
G1 X139.788 Y66.039 E.07157
G1 X139.054 Y66.596 E.07151
G1 X138.349 Y67.19 E.07151
G1 X137.674 Y67.817 E.07151
G1 X137.032 Y68.477 E.07151
G1 X136.423 Y69.169 E.07151
G1 X135.849 Y69.89 E.07151
G1 X135.312 Y70.639 E.07151
G1 X134.813 Y71.414 E.07151
G1 X134.353 Y72.212 E.07151
G1 X133.934 Y73.032 E.07151
G1 X133.556 Y73.873 E.07151
G1 X133.22 Y74.731 E.07151
G1 X132.927 Y75.605 E.0715
G1 X132.679 Y76.492 E.07151
G1 X132.475 Y77.391 E.07151
G1 X132.316 Y78.298 E.07151
G1 X132.202 Y79.213 E.07151
G1 X132.135 Y80.132 E.07151
G1 X132.113 Y81.053 E.07151
G1 X132.136 Y81.959 E.07034
G1 X132.207 Y82.893 E.07268
G1 X132.322 Y83.807 E.07151
G1 X132.483 Y84.714 E.07151
G1 X132.689 Y85.612 E.0715
G1 X132.94 Y86.499 E.07151
G1 X133.234 Y87.372 E.0715
G1 X133.572 Y88.23 E.07151
G1 X133.952 Y89.069 E.07151
G1 X134.373 Y89.889 E.07151
G1 X134.835 Y90.686 E.07151
G1 X135.336 Y91.46 E.07151
G1 X135.874 Y92.207 E.07151
G1 X136.45 Y92.927 E.07151
G1 X137.06 Y93.617 E.07151
G1 X137.704 Y94.276 E.07151
G1 X138.381 Y94.902 E.07151
G1 X139.087 Y95.494 E.07151
G1 X139.822 Y96.049 E.0715
G1 X140.584 Y96.567 E.07151
G1 X141.371 Y97.047 E.07151
G1 X142.181 Y97.487 E.07151
G1 X143.012 Y97.885 E.07151
G1 X143.861 Y98.242 E.07151
G1 X144.727 Y98.557 E.07151
G1 X145.608 Y98.827 E.07151
G1 X146.501 Y99.054 E.07151
G1 X147.405 Y99.235 E.0715
G1 X148.316 Y99.371 E.07151
G1 X149.233 Y99.462 E.07151
G1 X150.153 Y99.507 E.07151
G1 X151.075 Y99.506 E.07151
G1 X151.995 Y99.459 E.07151
G1 X152.912 Y99.366 E.07151
G1 X153.823 Y99.228 E.07151
G1 X154.726 Y99.044 E.0715
G1 X155.619 Y98.816 E.07151
G1 X156.499 Y98.543 E.07151
G1 X157.364 Y98.227 E.07151
G1 X158.213 Y97.868 E.07151
G1 X159.043 Y97.467 E.0715
G1 X159.852 Y97.026 E.07151
G1 X160.637 Y96.544 E.07151
G1 X161.398 Y96.024 E.07151
G1 X162.132 Y95.467 E.07151
G1 X162.837 Y94.874 E.07151
G1 X163.512 Y94.247 E.07151
G1 X164.155 Y93.586 E.07151
G1 X164.763 Y92.895 E.07151
G1 X165.337 Y92.173 E.07151
G1 X165.874 Y91.425 E.07151
G1 X166.373 Y90.65 E.07151
G1 X166.833 Y89.852 E.07151
G1 X167.252 Y89.031 E.07151
G1 X167.631 Y88.191 E.07151
G1 X167.966 Y87.333 E.07151
G1 X168.259 Y86.459 E.0715
G1 X168.507 Y85.571 E.07151
G1 X168.711 Y84.673 E.07151
G1 X168.87 Y83.765 E.07151
G1 X168.984 Y82.851 E.07151
G1 X169.05 Y81.947 E.07034
G1 X169.073 Y81.011 E.07268
G1 X169.049 Y80.089 E.07151
G1 X168.98 Y79.171 E.07151
G1 X168.864 Y78.257 E.07151
G1 X168.703 Y77.349 E.07151
G1 X168.497 Y76.451 E.0715
G1 X168.246 Y75.564 E.07151
G1 X167.952 Y74.691 E.07151
G1 X167.614 Y73.834 E.07151
G1 X167.234 Y72.994 E.07151
G1 X166.813 Y72.175 E.07151
G1 X166.351 Y71.377 E.07151
G1 X165.85 Y70.604 E.07151
G1 X165.312 Y69.856 E.07151
G1 X164.736 Y69.137 E.07151
G1 X164.126 Y68.446 E.07151
G1 X163.482 Y67.788 E.07151
G1 X162.805 Y67.162 E.07151
G1 X162.099 Y66.57 E.07151
G1 X161.364 Y66.015 E.07151
G1 X160.593 Y65.491 E.07232
G1 X159.972 Y65.121 E.0561
G1 X159.972 Y63.347 E.13766
G1 X159.868 Y62.939 E.03268
G1 X159.785 Y62.815 E.01155
G1 X159.464 Y62.57 E.03138
G1 X158.821 Y62.288 E.05449
G1 X158.82 Y55.383 E.53581
G1 X159.207 Y55.512 E.03167
G1 X160.862 Y55.512 E.12843
G1 X160.862 Y61.62 E.47399
G1 X160.966 Y62.027 E.03259
G1 X161.049 Y62.151 E.01155
G1 X161.268 Y62.344 E.0227
G1 X162.268 Y62.955 E.09091
G1 X163.155 Y63.56 E.08327
G1 X164.01 Y64.207 E.08326
G1 X164.832 Y64.897 E.08327
G1 X165.618 Y65.627 E.08326
G1 X166.305 Y66.331 E.07628
G1 E-1 F1500
G1 X163.577 Y68.694 F9000
G1 E1 F1500
;TYPE:External perimeter
G1 F883.987
G1 X163.097 Y68.202 E.05332
G1 X162.442 Y67.595 E.06932
G1 X161.757 Y67.021 E.06932
G1 X161.045 Y66.482 E.06932
G1 X160.303 Y65.977 E.06963
G1 X159.406 Y65.442 E.08106
G1 X159.407 Y63.347 E.16262
G1 X159.372 Y63.211 E.01089
G1 X159.237 Y63.088 E.01416
G1 X158.256 Y62.658 E.08318
G1 X158.255 Y55.9 E.52444
;WIDTH:0.636475
G1 F873.982
G1 X158.258 Y55.282 E.04849
;WIDTH:0.682223
G1 F809.268
G1 X158.281 Y54.664 E.0524
G1 X158.28 Y53.473 E.10098
G1 X158.898 Y53.473 E.05237
G1 X158.898 Y53.782 E.02618
;WIDTH:0.686915
G1 F803.169
G1 X158.901 Y54.718 E.07995
G1 X158.968 Y54.805 E.00944
;WIDTH:0.661695
G1 F837.081
G1 X159.036 Y54.893 E.00906
;WIDTH:0.636475
G1 F873.982
G1 X159.207 Y54.947 E.01412
;WIDTH:0.63
G1 F883.987
G1 X161.428 Y54.947 E.17233
